assets/luts/Cinematic Teal-Orange.cube
# StudioPhoto — LUT d'exemple : Cinematic Teal-Orange
TITLE "Cinematic Teal-Orange"
LUT_3D_SIZE 33
0.000000 0.004915 0.050675
0.000000 0.004915 0.050675
0.000000 0.004882 0.050331
0.027650 0.004582 0.049347
0.064876 0.004207 0.048287
0.102104 0.003835 0.047227
0.139336 0.003466 0.046168
0.176570 0.003100 0.045109
0.213807 0.002737 0.044051
0.251047 0.002376 0.042993
0.288289 0.002018 0.041936
0.325535 0.001663 0.040879
0.362783 0.001311 0.039823
0.400034 0.000961 0.038767
0.437288 0.000614 0.037711
0.474545 0.000270 0.036656
0.511804 0.000000 0.035602
0.549067 0.000000 0.034548
0.586332 0.000000 0.033494
0.623600 0.000000 0.032441
0.660871 0.000000 0.031388
0.698145 0.000000 0.030336
0.735421 0.000000 0.029284
0.772701 0.000000 0.028233
0.809983 0.000000 0.027182
0.847268 0.000000 0.026131
0.884556 0.000000 0.025081
0.921847 0.000000 0.024032
0.959141 0.000000 0.022983
0.996437 0.000000 0.021934
1.000000 0.000000 0.020906
1.000000 0.000000 0.020822
1.000000 0.000000 0.020822
0.000000 0.004915 0.050675
0.000000 0.004915 0.050675
0.000000 0.004882 0.050331
0.027650 0.004582 0.049347
0.064876 0.004207 0.048287
0.102104 0.003835 0.047227
0.139336 0.003466 0.046168
0.176570 0.003100 0.045109
0.213807 0.002737 0.044051
0.251047 0.002376 0.042993
0.288289 0.002018 0.041936
0.325535 0.001663 0.040879
0.362783 0.001311 0.039823
0.400034 0.000961 0.038767
0.437288 0.000614 0.037711
0.474545 0.000270 0.036656
0.511804 0.000000 0.035602
0.549067 0.000000 0.034548
0.586332 0.000000 0.033494
0.623600 0.000000 0.032441
0.660871 0.000000 0.031388
0.698145 0.000000 0.030336
0.735421 0.000000 0.029284
0.772701 0.000000 0.028233
0.809983 0.000000 0.027182
0.847268 0.000000 0.026131
0.884556 0.000000 0.025081
0.921847 0.000000 0.024032
0.959141 0.000000 0.022983
0.996437 0.000000 0.021934
1.000000 0.000000 0.020906
1.000000 0.000000 0.020822
1.000000 0.000000 0.020822
0.000000 0.020989 0.049059
0.000000 0.020989 0.049059
0.000000 0.020957 0.048714
0.027811 0.020656 0.047726
0.065041 0.020286 0.046667
0.102274 0.019918 0.045608
0.139509 0.019553 0.044549
0.176748 0.019191 0.043491
0.213989 0.018832 0.042434
0.251233 0.018476 0.041377
0.288480 0.018122 0.040320
0.325730 0.017771 0.039264
0.362983 0.017423 0.038208
0.400238 0.017078 0.037153
0.437496 0.016735 0.036098
0.474757 0.016396 0.035044
0.512021 0.016059 0.033990
0.549288 0.015725 0.032937
0.586558 0.015393 0.031884
0.623830 0.015064 0.030831
0.661106 0.014739 0.029779
0.698384 0.014415 0.028728
0.735665 0.014095 0.027677
0.772948 0.013778 0.026626
0.810235 0.013463 0.025576
0.847525 0.013151 0.024526
0.884817 0.012841 0.023477
0.922112 0.012535 0.022428
0.959410 0.012231 0.021380
0.996711 0.011930 0.020332
1.000000 0.011658 0.019310
1.000000 0.011660 0.019226
1.000000 0.011660 0.019226
0.000000 0.056171 0.045525
0.000000 0.056171 0.045525
0.000000 0.056145 0.045182
0.028185 0.055841 0.044184
0.065425 0.055480 0.043126
0.102667 0.055122 0.042069
0.139912 0.054767 0.041012
0.177160 0.054414 0.039955
0.214411 0.054064 0.038899
0.251665 0.053717 0.037844
0.288921 0.053373 0.036789
0.326180 0.053031 0.035734
0.363443 0.052693 0.034680
0.400708 0.052357 0.033626
0.437975 0.052024 0.032573
0.475246 0.051693 0.031520
0.512520 0.051365 0.030468
0.549796 0.051041 0.029416
0.587075 0.050718 0.028365
0.624357 0.050399 0.027314
0.661642 0.050083 0.026264
0.698930 0.049769 0.025214
0.736220 0.049458 0.024164
0.773513 0.049150 0.023115
0.810809 0.048844 0.022066
0.848108 0.048541 0.021018
0.885410 0.048242 0.019970
0.922715 0.047944 0.018923
0.960022 0.047650 0.017876
0.997333 0.047358 0.016830
1.000000 0.047109 0.015824
1.000000 0.047112 0.015739
1.000000 0.047112 0.015739
0.000000 0.091386 0.041998
0.000000 0.091386 0.041998
0.000000 0.091364 0.041655
0.028592 0.091058 0.040647
0.065841 0.090707 0.039591
0.103092 0.090358 0.038535
0.140347 0.090012 0.037480
0.177605 0.089668 0.036425
0.214865 0.089328 0.035370
0.252128 0.088990 0.034317
0.289394 0.088655 0.033263
0.326663 0.088323 0.032210
0.363935 0.087994 0.031157
0.401209 0.087667 0.030105
0.438487 0.087343 0.029054
0.475767 0.087022 0.028002
0.513050 0.086704 0.026952
0.550336 0.086388 0.025901
0.587624 0.086075 0.024851
0.624916 0.085765 0.023802
0.662210 0.085458 0.022753
0.699507 0.085154 0.021705
0.736807 0.084852 0.020657
0.774110 0.084553 0.019609
0.811416 0.084257 0.018562
0.848724 0.083964 0.017515
0.886036 0.083673 0.016469
0.923350 0.083385 0.015424
0.960667 0.083100 0.014378
0.997987 0.082818 0.013333
1.000000 0.082592 0.012342
1.000000 0.082595 0.012258
1.000000 0.082595 0.012258
0.000000 0.126632 0.038476
0.000000 0.126632 0.038476
0.000000 0.126614 0.038134
0.029030 0.126306 0.037116
0.066289 0.125964 0.036061
0.103550 0.125625 0.035007
0.140814 0.125288 0.033953
0.178081 0.124954 0.032900
0.215351 0.124623 0.031847
0.252624 0.124294 0.030794
0.289899 0.123969 0.029742
0.327178 0.123646 0.028691
0.364459 0.123326 0.027640
0.401743 0.123008 0.026589
0.439030 0.122694 0.025539
0.476320 0.122382 0.024489
0.513612 0.122073 0.023440
0.550908 0.121767 0.022391
0.588206 0.121464 0.021343
0.625507 0.121163 0.020295
0.662811 0.120865 0.019248
0.700117 0.120570 0.018201
0.737427 0.120278 0.017154
0.774739 0.119988 0.016108
0.812054 0.119701 0.015063
0.849373 0.119417 0.014018
0.886693 0.119136 0.012973
0.924017 0.118857 0.011929
0.961344 0.118582 0.010885
0.998673 0.118309 0.009842
1.000000 0.118106 0.008867
1.000000 0.118110 0.008783
1.000000 0.118110 0.008783
0.000000 0.161910 0.034959
0.000000 0.161910 0.034959
0.000000 0.161896 0.034618
0.029501 0.161586 0.033589
0.066769 0.161253 0.032536
0.104040 0.160923 0.031484
0.141313 0.160595 0.030431
0.178590 0.160271 0.029379
0.215869 0.159949 0.028328
0.253152 0.159630 0.027277
0.290437 0.159314 0.026227
0.327725 0.159000 0.025177
0.365015 0.158689 0.024127
0.402309 0.158381 0.023078
0.439605 0.158076 0.022030
0.476905 0.157774 0.020982
0.514207 0.157474 0.019934
0.551511 0.157177 0.018887
0.588819 0.156883 0.017840
0.626130 0.156592 0.016794
0.663443 0.156303 0.015748
0.700759 0.156017 0.014702
0.738078 0.155734 0.013658
0.775400 0.155454 0.012613
0.812725 0.155177 0.011569
0.850053 0.154902 0.010526
0.887383 0.154630 0.009483
0.924716 0.154361 0.008440
0.962052 0.154095 0.007398
0.999391 0.153831 0.006356
1.000000 0.153652 0.005396
1.000000 0.153657 0.005312
1.000000 0.153657 0.005312
0.000000 0.197220 0.031448
0.000000 0.197220 0.031448
0.000000 0.197210 0.031107
0.030003 0.196897 0.030068
0.067281 0.196573 0.029017
0.104561 0.196253 0.027965
0.141844 0.195935 0.026915
0.179131 0.195619 0.025865
0.216419 0.195307 0.024815
0.253711 0.194997 0.023765
0.291006 0.194690 0.022716
0.328303 0.194386 0.021668
0.365604 0.194084 0.020620
0.402907 0.193786 0.019573
0.440213 0.193490 0.018526
0.477521 0.193197 0.017479
0.514833 0.192906 0.016433
0.552147 0.192619 0.015387
0.589465 0.192334 0.014342
0.626785 0.192052 0.013297
0.664108 0.191773 0.012253
0.701433 0.191497 0.011209
0.738762 0.191223 0.010166
0.776093 0.190952 0.009123
0.813428 0.190684 0.008080
0.850765 0.190418 0.007038
0.888105 0.190156 0.005997
0.925448 0.189896 0.004956
0.962793 0.189639 0.003915
1.000000 0.189385 0.002875
1.000000 0.189229 0.001931
1.000000 0.189236 0.001848
1.000000 0.189236 0.001848
0.000000 0.232561 0.027942
0.000000 0.232561 0.027942
0.000000 0.232556 0.027602
0.030538 0.232239 0.026552
0.067825 0.231925 0.025502
0.105115 0.231614 0.024453
0.142408 0.231305 0.023404
0.179703 0.230999 0.022355
0.217002 0.230696 0.021307
0.254303 0.230395 0.020259
0.291607 0.230098 0.019211
0.328914 0.229803 0.018165
0.366224 0.229511 0.017118
0.403537 0.229221 0.016072
0.440852 0.228935 0.015027
0.478170 0.228651 0.013982
0.515491 0.228370 0.012937
0.552815 0.228092 0.011893
0.590142 0.227817 0.010849
0.627472 0.227544 0.009806
0.664804 0.227274 0.008763
0.702139 0.227007 0.007721
0.739478 0.226743 0.006679
0.776819 0.226481 0.005638
0.814162 0.226222 0.004597
0.851509 0.225966 0.003557
0.888858 0.225713 0.002517
0.926211 0.225463 0.001477
0.963566 0.225215 0.000438
1.000000 0.224970 0.000000
1.000000 0.224838 0.000000
1.000000 0.224846 0.000000
1.000000 0.224846 0.000000
0.000000 0.267934 0.024442
0.000000 0.267934 0.024442
0.000000 0.267921 0.024091
0.031104 0.267613 0.023042
0.068401 0.267308 0.021993
0.105701 0.267006 0.020945
0.143003 0.266707 0.019897
0.180308 0.266410 0.018850
0.217616 0.266116 0.017804
0.254927 0.265825 0.016757
0.292241 0.265537 0.015712
0.329557 0.265251 0.014666
0.366876 0.264969 0.013621
0.404198 0.264689 0.012577
0.441523 0.264411 0.011533
0.478851 0.264137 0.010489
0.516182 0.263865 0.009446
0.553515 0.263597 0.008404
0.590852 0.263330 0.007362
0.628191 0.263067 0.006320
0.665533 0.262807 0.005279
0.702878 0.262549 0.004238
0.740225 0.262294 0.003198
0.777576 0.262042 0.002158
0.814929 0.261792 0.001119
0.852285 0.261545 0.000080
0.889644 0.261301 0.000000
0.927006 0.261060 0.000000
0.964371 0.260822 0.000000
1.000000 0.260586 0.000000
1.000000 0.260479 0.000000
1.000000 0.260488 0.000000
1.000000 0.260488 0.000000
0.000000 0.303339 0.020947
0.000000 0.303339 0.020947
0.000000 0.303317 0.020584
0.031703 0.303018 0.019536
0.069009 0.302723 0.018489
0.106318 0.302430 0.017443
0.143630 0.302140 0.016397
0.180945 0.301853 0.015351
0.218262 0.301568 0.014306
0.255583 0.301286 0.013261
0.292906 0.301007 0.012217
0.330232 0.300731 0.011173
0.367561 0.300458 0.010130
0.404892 0.300187 0.009087
0.442227 0.299919 0.008044
0.479564 0.299654 0.007003
0.516904 0.299392 0.005961
0.554248 0.299132 0.004920
0.591593 0.298876 0.003879
0.628942 0.298622 0.002839
0.666294 0.298370 0.001800
0.703648 0.298122 0.000760
0.741005 0.297876 0.000000
0.778365 0.297633 0.000000
0.815728 0.297393 0.000000
0.853094 0.297156 0.000000
0.890462 0.296921 0.000000
0.927833 0.296690 0.000000
0.965208 0.296461 0.000000
1.000000 0.296234 0.000000
1.000000 0.296152 0.000000
1.000000 0.296162 0.000000
1.000000 0.296162 0.000000
0.000000 0.338775 0.017458
0.000000 0.338775 0.017458
0.000000 0.338744 0.017082
0.032334 0.338455 0.016036
0.069650 0.338169 0.014990
0.106968 0.337885 0.013945
0.144289 0.337605 0.012901
0.181614 0.337327 0.011857
0.218941 0.337051 0.010813
0.256271 0.336779 0.009770
0.293603 0.336509 0.008727
0.330939 0.336242 0.007685
0.368277 0.335978 0.006643
0.405618 0.335717 0.005602
0.442962 0.335459 0.004561
0.480309 0.335203 0.003521
0.517659 0.334950 0.002481
0.555012 0.334700 0.001441
0.592367 0.334452 0.000402
0.629725 0.334208 0.000000
0.667086 0.333966 0.000000
0.704450 0.333727 0.000000
0.741817 0.333490 0.000000
0.779186 0.333257 0.000000
0.816559 0.333026 0.000000
0.853934 0.332798 0.000000
0.891312 0.332573 0.000000
0.928693 0.332350 0.000000
0.966076 0.332130 0.000000
1.000000 0.331914 0.000000
1.000000 0.331856 0.000000
1.000000 0.331867 0.000000
1.000000 0.331867 0.000000
0.000000 0.374243 0.013974
0.000000 0.374243 0.013974
0.000000 0.374203 0.013585
0.032997 0.373923 0.012541
0.070322 0.373646 0.011497
0.107650 0.373372 0.010453
0.144981 0.373101 0.009410
0.182315 0.372832 0.008368
0.219651 0.372566 0.007326
0.256991 0.372303 0.006284
0.294333 0.372043 0.005243
0.331678 0.371785 0.004202
0.369026 0.371530 0.003162
0.406377 0.371278 0.002122
0.443730 0.371029 0.001083
0.481087 0.370783 0.000044
0.518446 0.370539 0.000000
0.555808 0.370298 0.000000
0.593173 0.370060 0.000000
0.630540 0.369825 0.000000
0.667911 0.369592 0.000000
0.705284 0.369363 0.000000
0.742661 0.369136 0.000000
0.780040 0.368911 0.000000
0.817422 0.368690 0.000000
0.854806 0.368471 0.000000
0.892194 0.368255 0.000000
0.929584 0.368042 0.000000
0.966977 0.367832 0.000000
1.000000 0.367624 0.000000
1.000000 0.367592 0.000000
1.000000 0.367604 0.000000
1.000000 0.367604 0.000000
0.000000 0.409743 0.010496
0.000000 0.409743 0.010496
0.000000 0.409693 0.010094
0.033691 0.409422 0.009051
0.071026 0.409155 0.008008
0.108364 0.408890 0.006967
0.145704 0.408628 0.005925
0.183048 0.408369 0.004884
0.220394 0.408112 0.003844
0.257743 0.407858 0.002804
0.295094 0.407607 0.001764
0.332449 0.407359 0.000725
0.369806 0.407114 0.000000
0.407167 0.406871 0.000000
0.444530 0.406631 0.000000
0.481896 0.406394 0.000000
0.519264 0.406160 0.000000
0.556636 0.405928 0.000000
0.594010 0.405700 0.000000
0.631388 0.405474 0.000000
0.668768 0.405250 0.000000
0.706151 0.405030 0.000000
0.743536 0.404812 0.000000
0.780925 0.404597 0.000000
0.818316 0.404385 0.000000
0.855711 0.404176 0.000000
0.893108 0.403969 0.000000
0.930508 0.403766 0.000000
0.967911 0.403565 0.000000
1.000000 0.403366 0.000000
1.000000 0.403359 0.000000
1.000000 0.403373 0.000000
1.000000 0.403373 0.000000
0.000000 0.445274 0.007023
0.000000 0.445274 0.007023
0.000000 0.445214 0.006607
0.034418 0.444953 0.005566
0.071763 0.444695 0.004525
0.109110 0.444439 0.003485
0.146460 0.444187 0.002445
0.183813 0.443937 0.001406
0.221168 0.443690 0.000367
0.258527 0.443445 0.000000
0.295888 0.443204 0.000000
0.333252 0.442965 0.000000
0.370619 0.442729 0.000000
0.407989 0.442495 0.000000
0.445361 0.442265 0.000000
0.482737 0.442037 0.000000
0.520115 0.441812 0.000000
0.557496 0.441590 0.000000
0.594880 0.441370 0.000000
0.632267 0.441154 0.000000
0.669657 0.440940 0.000000
0.707049 0.440729 0.000000
0.744444 0.440520 0.000000
0.781843 0.440315 0.000000
0.819243 0.440112 0.000000
0.856647 0.439912 0.000000
0.894054 0.439715 0.000000
0.931463 0.439520 0.000000
0.968876 0.439329 0.000000
1.000000 0.439139 0.000000
1.000000 0.439156 0.000000
1.000000 0.439170 0.000000
1.000000 0.439170 0.000000
0.000000 0.480837 0.003556
0.000000 0.480837 0.003556
0.000000 0.480767 0.003126
0.035177 0.480515 0.002087
0.072531 0.480267 0.001047
0.109888 0.480020 0.000008
0.147247 0.479777 0.000000
0.184610 0.479536 0.000000
0.221975 0.479299 0.000000
0.259343 0.479063 0.000000
0.296714 0.478831 0.000000
0.334087 0.478602 0.000000
0.371464 0.478375 0.000000
0.408843 0.478151 0.000000
0.446225 0.477930 0.000000
0.483610 0.477711 0.000000
0.520998 0.477496 0.000000
0.558389 0.477283 0.000000
0.595782 0.477073 0.000000
0.633178 0.476865 0.000000
0.670578 0.476661 0.000000
0.707980 0.476459 0.000000
0.745384 0.476260 0.000000
0.782792 0.476064 0.000000
0.820203 0.475870 0.000000
0.857616 0.475680 0.000000
0.895030 0.475490 0.000000
0.932447 0.475303 0.000000
0.969867 0.475119 0.000000
1.000000 0.474937 0.000000
1.000000 0.474980 0.000000
1.000000 0.474995 0.000000
1.000000 0.474995 0.000000
0.000000 0.516432 0.000094
0.000000 0.516432 0.000094
0.000000 0.516351 0.000000
0.035968 0.516109 0.000000
0.073332 0.515869 0.000000
0.110698 0.515633 0.000000
0.148067 0.515399 0.000000
0.185439 0.515167 0.000000
0.222813 0.514939 0.000000
0.260191 0.514713 0.000000
0.297571 0.514490 0.000000
0.334954 0.514270 0.000000
0.372341 0.514052 0.000000
0.409729 0.513838 0.000000
0.447121 0.513626 0.000000
0.484516 0.513417 0.000000
0.521913 0.513211 0.000000
0.559313 0.513007 0.000000
0.596716 0.512806 0.000000
0.634122 0.512608 0.000000
0.671531 0.512413 0.000000
0.708942 0.512221 0.000000
0.746356 0.512031 0.000000
0.783771 0.511842 0.000000
0.821189 0.511656 0.000000
0.858610 0.511472 0.000000
0.896034 0.511292 0.000000
0.933460 0.511114 0.000000
0.970890 0.510939 0.000000
1.000000 0.510767 0.000000
1.000000 0.510836 0.000000
1.000000 0.510852 0.000000
1.000000 0.510852 0.000000
0.000000 0.552058 0.000000
0.000000 0.552058 0.000000
0.000000 0.551967 0.000000
0.036791 0.551734 0.000000
0.074164 0.551504 0.000000
0.111540 0.551276 0.000000
0.148919 0.551052 0.000000
0.186300 0.550830 0.000000
0.223684 0.550610 0.000000
0.261071 0.550394 0.000000
0.298461 0.550180 0.000000
0.335854 0.549969 0.000000
0.373249 0.549761 0.000000
0.410648 0.549556 0.000000
0.448049 0.549354 0.000000
0.485453 0.549154 0.000000
0.522860 0.548957 0.000000
0.560269 0.548763 0.000000
0.597682 0.548571 0.000000
0.635096 0.548382 0.000000
0.672513 0.548194 0.000000
0.709932 0.548009 0.000000
0.747353 0.547826 0.000000
0.784778 0.547647 0.000000
0.822206 0.547470 0.000000
0.859636 0.547296 0.000000
0.897069 0.547125 0.000000
0.934505 0.546956 0.000000
0.971944 0.546791 0.000000
1.000000 0.546628 0.000000
1.000000 0.546723 0.000000
1.000000 0.546741 0.000000
1.000000 0.546741 0.000000
0.000000 0.587716 0.000000
0.000000 0.587716 0.000000
0.000267 0.587614 0.000000
0.037646 0.587390 0.000000
0.075029 0.587169 0.000000
0.112414 0.586951 0.000000
0.149802 0.586736 0.000000
0.187193 0.586523 0.000000
0.224587 0.586313 0.000000
0.261983 0.586106 0.000000
0.299383 0.585902 0.000000
0.336785 0.585701 0.000000
0.374190 0.585502 0.000000
0.411598 0.585306 0.000000
0.449009 0.585113 0.000000
0.486422 0.584922 0.000000
0.523837 0.584733 0.000000
0.561254 0.584546 0.000000
0.598674 0.584362 0.000000
0.636097 0.584181 0.000000
0.673523 0.584002 0.000000
0.710952 0.583826 0.000000
0.748383 0.583653 0.000000
0.785817 0.583483 0.000000
0.823254 0.583316 0.000000
0.860694 0.583151 0.000000
0.898137 0.582989 0.000000
0.935582 0.582830 0.000000
0.973031 0.582674 0.000000
1.000000 0.582520 0.000000
1.000000 0.582643 0.000000
1.000000 0.582661 0.000000
1.000000 0.582661 0.000000
0.000000 0.623392 0.000000
0.000000 0.623392 0.000000
0.001145 0.623293 0.000000
0.038534 0.623078 0.000000
0.075926 0.622867 0.000000
0.113320 0.622658 0.000000
0.150718 0.622452 0.000000
0.188118 0.622248 0.000000
0.225522 0.622048 0.000000
0.262928 0.621850 0.000000
0.300337 0.621655 0.000000
0.337748 0.621463 0.000000
0.375163 0.621273 0.000000
0.412578 0.621085 0.000000
0.449996 0.620899 0.000000
0.487417 0.620716 0.000000
0.524841 0.620535 0.000000
0.562268 0.620358 0.000000
0.599698 0.620183 0.000000
0.637130 0.620011 0.000000
0.674565 0.619842 0.000000
0.712003 0.619675 0.000000
0.749444 0.619512 0.000000
0.786888 0.619351 0.000000
0.824335 0.619193 0.000000
0.861784 0.619037 0.000000
0.899237 0.618885 0.000000
0.936692 0.618735 0.000000
0.974150 0.618588 0.000000
1.000000 0.618444 0.000000
1.000000 0.618594 0.000000
1.000000 0.618613 0.000000
1.000000 0.618613 0.000000
0.000000 0.659097 0.000000
0.000000 0.659097 0.000000
0.002054 0.659002 0.000000
0.039453 0.658797 0.000000
0.076854 0.658595 0.000000
0.114259 0.658396 0.000000
0.151666 0.658199 0.000000
0.189076 0.658005 0.000000
0.226488 0.657814 0.000000
0.263903 0.657624 0.000000
0.301319 0.657437 0.000000
0.338739 0.657252 0.000000
0.376161 0.657070 0.000000
0.413586 0.656890 0.000000
0.451014 0.656714 0.000000
0.488444 0.656540 0.000000
0.525878 0.656369 0.000000
0.563314 0.656201 0.000000
0.600753 0.656035 0.000000
0.638195 0.655873 0.000000
0.675640 0.655713 0.000000
0.713087 0.655556 0.000000
0.750538 0.655402 0.000000
0.787991 0.655250 0.000000
0.825447 0.655101 0.000000
0.862906 0.654955 0.000000
0.900368 0.654812 0.000000
0.937833 0.654672 0.000000
0.975300 0.654534 0.000000
1.000000 0.654399 0.000000
1.000000 0.654576 0.000000
1.000000 0.654597 0.000000
1.000000 0.654597 0.000000
0.000000 0.694834 0.000000
0.000000 0.694834 0.000000
0.002996 0.694744 0.000000
0.040404 0.694548 0.000000
0.077815 0.694355 0.000000
0.115229 0.694165 0.000000
0.152644 0.693976 0.000000
0.190061 0.693789 0.000000
0.227481 0.693605 0.000000
0.264905 0.693424 0.000000
0.302331 0.693246 0.000000
0.339759 0.693070 0.000000
0.377191 0.692897 0.000000
0.414626 0.692728 0.000000
0.452063 0.692560 0.000000
0.489503 0.692396 0.000000
0.526946 0.692234 0.000000
0.564392 0.692075 0.000000
0.601841 0.691919 0.000000
0.639292 0.691766 0.000000
0.676746 0.691616 0.000000
0.714204 0.691468 0.000000
0.751664 0.691323 0.000000
0.789126 0.691181 0.000000
0.826592 0.691041 0.000000
0.864061 0.690905 0.000000
0.901532 0.690771 0.000000
0.939006 0.690640 0.000000
0.976483 0.690511 0.000000
1.000000 0.690404 0.000000
1.000000 0.690590 0.000000
1.000000 0.690612 0.000000
1.000000 0.690612 0.000000
0.000000 0.730602 0.000000
0.000000 0.730602 0.000000
0.003969 0.730516 0.000000
0.041385 0.730327 0.000000
0.078803 0.730142 0.000000
0.116225 0.729959 0.000000
0.153649 0.729779 0.000000
0.191076 0.729602 0.000000
0.228506 0.729427 0.000000
0.265938 0.729255 0.000000
0.303374 0.729086 0.000000
0.340812 0.728920 0.000000
0.378254 0.728757 0.000000
0.415698 0.728596 0.000000
0.453144 0.728438 0.000000
0.490594 0.728283 0.000000
0.528047 0.728131 0.000000
0.565502 0.727981 0.000000
0.602960 0.727835 0.000000
0.640421 0.727691 0.000000
0.677885 0.727550 0.000000
0.715352 0.727411 0.000000
0.752821 0.727275 0.000000
0.790294 0.727143 0.000000
0.827769 0.727013 0.000000
0.865247 0.726885 0.000000
0.902728 0.726761 0.000000
0.940211 0.726639 0.000000
0.977698 0.726520 0.000000
1.000000 0.726441 0.000000
1.000000 0.726636 0.000000
1.000000 0.726659 0.000000
1.000000 0.726659 0.000000
0.000000 0.766396 0.000000
0.000000 0.766396 0.000000
0.004968 0.766313 0.000000
0.042393 0.766134 0.000000
0.079821 0.765958 0.000000
0.117252 0.765784 0.000000
0.154686 0.765614 0.000000
0.192123 0.765446 0.000000
0.229562 0.765280 0.000000
0.267004 0.765118 0.000000
0.304449 0.764959 0.000000
0.341897 0.764802 0.000000
0.379348 0.764648 0.000000
0.416802 0.764496 0.000000
0.454258 0.764348 0.000000
0.491717 0.764202 0.000000
0.529179 0.764059 0.000000
0.566644 0.763919 0.000000
0.604112 0.763782 0.000000
0.641582 0.763647 0.000000
0.679056 0.763515 0.000000
0.716532 0.763386 0.000000
0.754011 0.763260 0.000000
0.791493 0.763136 0.000000
0.828978 0.763015 0.000000
0.866465 0.762897 0.000000
0.903956 0.762782 0.000000
0.941449 0.762670 0.000000
0.978945 0.762560 0.000000
1.000000 0.762509 0.000000
1.000000 0.762714 0.000000
1.000000 0.762738 0.000000
1.000000 0.762738 0.000000
0.000000 0.802220 0.000000
0.000000 0.802220 0.000000
0.005999 0.802142 0.000000
0.043434 0.801972 0.000000
0.080872 0.801805 0.000000
0.118312 0.801641 0.000000
0.155755 0.801480 0.000000
0.193201 0.801321 0.000000
0.230650 0.801165 0.000000
0.268102 0.801012 0.000000
0.305557 0.800862 0.000000
0.343014 0.800714 0.000000
0.380474 0.800570 0.000000
0.417938 0.800428 0.000000
0.455403 0.800289 0.000000
0.492872 0.800152 0.000000
0.530344 0.800019 0.000000
0.567818 0.799888 0.000000
0.605295 0.799760 0.000000
0.642776 0.799634 0.000000
0.680259 0.799512 0.000000
0.717744 0.799392 0.000000
0.755233 0.799275 0.000000
0.792724 0.799161 0.000000
0.830219 0.799050 0.000000
0.867716 0.798941 0.000000
0.905216 0.798835 0.000000
0.942718 0.798732 0.000000
0.980224 0.798632 0.000000
1.000000 0.798609 0.000000
1.000000 0.798823 0.000000
1.000000 0.798848 0.000000
1.000000 0.798848 0.000000
0.000000 0.838076 0.000000
0.000000 0.838076 0.000000
0.007063 0.838002 0.000000
0.044507 0.837842 0.000000
0.081954 0.837684 0.000000
0.119404 0.837529 0.000000
0.156857 0.837377 0.000000
0.194312 0.837228 0.000000
0.231771 0.837081 0.000000
0.269232 0.836938 0.000000
0.306696 0.836797 0.000000
0.344163 0.836659 0.000000
0.381633 0.836523 0.000000
0.419106 0.836391 0.000000
0.456581 0.836261 0.000000
0.494059 0.836134 0.000000
0.531541 0.836009 0.000000
0.569024 0.835888 0.000000
0.606511 0.835769 0.000000
0.644001 0.835653 0.000000
0.681493 0.835540 0.000000
0.718989 0.835430 0.000000
0.756487 0.835322 0.000000
0.793988 0.835217 0.000000
0.831491 0.835115 0.000000
0.868998 0.835016 0.000000
0.906508 0.834919 0.000000
0.944020 0.834826 0.000000
0.981535 0.834735 0.000000
1.000000 0.834740 0.000000
1.000000 0.834964 0.000000
1.000000 0.834990 0.000000
1.000000 0.834990 0.000000
0.000000 0.873964 0.000000
0.000000 0.873964 0.000000
0.008158 0.873894 0.000000
0.045612 0.873743 0.000000
0.083068 0.873594 0.000000
0.120528 0.873449 0.000000
0.157990 0.873306 0.000000
0.195455 0.873166 0.000000
0.232923 0.873029 0.000000
0.270394 0.872895 0.000000
0.307868 0.872763 0.000000
0.345344 0.872634 0.000000
0.382824 0.872508 0.000000
0.420306 0.872385 0.000000
0.457791 0.872264 0.000000
0.495279 0.872147 0.000000
0.532769 0.872032 0.000000
0.570263 0.871920 0.000000
0.607759 0.871810 0.000000
0.645258 0.871704 0.000000
0.682760 0.871600 0.000000
0.720265 0.871499 0.000000
0.757773 0.871400 0.000000
0.795283 0.871305 0.000000
0.832797 0.871212 0.000000
0.870313 0.871122 0.000000
0.907832 0.871035 0.000000
