assets/luts/Cinematic Teal-Orange.cube
# StudioPhoto — LUT d'exemple : Cinematic Teal-Orange
TITLE "Cinematic Teal-Orange"
LUT_3D_SIZE 5
0.000000 0.004915 0.050675
0.213807 0.002737 0.044051
0.511804 0.000000 0.035602
0.809983 0.000000 0.027182
1.000000 0.000000 0.020822
0.000000 0.232561 0.027942
0.217002 0.230696 0.021307
0.515491 0.228370 0.012937
0.814162 0.226222 0.004597
1.000000 0.224846 0.000000
0.000000 0.516432 0.000094
0.222813 0.514939 0.000000
0.521913 0.513211 0.000000
0.821189 0.511656 0.000000
1.000000 0.510852 0.000000
0.000000 0.802220 0.000000
0.230650 0.801165 0.000000
0.530344 0.800019 0.000000
0.830219 0.799050 0.000000
1.000000 0.798848 0.000000
0.000000 1.000000 0.000000
0.238344 1.000000 0.000000
0.538554 1.000000 0.000000
0.838951 1.000000 0.000000
1.000000 1.000000 0.000000
0.000000 0.004122 0.278722
0.214082 0.001975 0.272097
0.512129 0.000000 0.263656
0.810357 0.000000 0.255244
1.000000 0.000000 0.248899
0.000000 0.231901 0.256012
0.217412 0.230067 0.249375
0.515951 0.227790 0.241013
0.814672 0.225691 0.232681
1.000000 0.224361 0.226489
0.000000 0.515937 0.228192
0.223390 0.514473 0.221524
0.522539 0.512794 0.213261
0.821870 0.511292 0.205028
1.000000 0.510549 0.199041
0.000000 0.801893 0.200616
0.231420 0.800890 0.194005
0.531179 0.799807 0.185842
0.831119 0.798903 0.177708
1.000000 0.798763 0.171943
0.000000 1.000000 0.180064
0.239295 1.000000 0.173552
0.539572 1.000000 0.165516
0.840035 1.000000 0.157515
1.000000 1.000000 0.151979
0.000000 0.003158 0.561262
0.214441 0.001051 0.554636
0.512550 0.000000 0.546204
0.810840 0.000000 0.537803
1.000000 0.000000 0.531476
0.000000 0.231102 0.538580
0.217938 0.229306 0.531940
0.516539 0.227089 0.523589
0.815321 0.225050 0.515267
1.000000 0.223780 0.509094
0.000000 0.515342 0.510795
0.224124 0.513916 0.504123
0.523335 0.512296 0.495870
0.822727 0.510855 0.487647
1.000000 0.510172 0.481681
0.000000 0.801489 0.483240
0.232361 0.800534 0.476638
0.532182 0.799513 0.468484
0.832183 0.798668 0.460360
1.000000 0.798590 0.454619
0.000000 1.000000 0.462730
0.240411 1.000000 0.456228
0.540751 1.000000 0.448204
0.841278 1.000000 0.440214
1.000000 1.000000 0.434703
0.000000 0.002214 0.843805
0.214822 0.000147 0.837177
0.512992 0.000000 0.828756
0.811344 0.000000 0.820364
1.000000 0.000000 0.814056
0.000000 0.230324 0.821151
0.218486 0.228566 0.814509
0.517148 0.226409 0.806168
0.815992 0.224431 0.797856
1.000000 0.223218 0.791703
0.000000 0.514766 0.793399
0.224879 0.513378 0.786725
0.524151 0.511819 0.778483
0.823604 0.510438 0.770270
1.000000 0.509815 0.764326
0.000000 0.801106 0.765868
0.233323 0.800200 0.759274
0.533205 0.799238 0.751130
0.833268 0.798454 0.743016
1.000000 0.798438 0.737298
0.000000 1.000000 0.745400
0.241549 1.000000 0.738907
0.541952 1.000000 0.730895
0.842542 1.000000 0.722916
1.000000 1.000000 0.717433
0.000000 0.001628 1.000000
0.215234 0.000000 1.000000
0.513435 0.000000 1.000000
0.811817 0.000000 1.000000
1.000000 0.000000 1.000000
0.000000 0.229819 1.000000
0.218981 0.228076 1.000000
0.517674 0.225950 1.000000
0.816549 0.224001 1.000000
1.000000 0.222821 1.000000
0.000000 0.514353 1.000000
0.225478 0.512989 0.999720
0.524789 0.511468 0.994482
0.824289 0.510133 0.986276
1.000000 0.509556 0.980349
0.000000 0.800826 0.981879
0.234072 0.799958 0.975291
0.534001 0.799042 0.967155
0.834111 0.798304 0.959048
1.000000 0.798336 0.953349
0.000061 1.000000 0.961443
0.242433 1.000000 0.954958
0.542884 1.000000 0.946954
0.843522 1.000000 0.938985
1.000000 1.000000 0.933521
