assets/luts/Cinematic Teal-Orange.cube
# StudioPhoto — LUT d'exemple : Cinematic Teal-Orange
TITLE "Cinematic Teal-Orange"
LUT_3D_SIZE 9
0.000000 0.004915 0.050675
0.064876 0.004207 0.048287
0.213807 0.002737 0.044051
0.362783 0.001311 0.039823
0.511804 0.000000 0.035602
0.660871 0.000000 0.031388
0.809983 0.000000 0.027182
0.959141 0.000000 0.022983
1.000000 0.000000 0.020822
0.000000 0.091386 0.041998
0.065841 0.090707 0.039591
0.214865 0.089328 0.035370
0.363935 0.087994 0.031157
0.513050 0.086704 0.026952
0.662210 0.085458 0.022753
0.811416 0.084257 0.018562
0.960667 0.083100 0.014378
1.000000 0.082595 0.012258
0.000000 0.232561 0.027942
0.067825 0.231925 0.025502
0.217002 0.230696 0.021307
0.366224 0.229511 0.017118
0.515491 0.228370 0.012937
0.664804 0.227274 0.008763
0.814162 0.226222 0.004597
0.963566 0.225215 0.000438
1.000000 0.224846 0.000000
0.000000 0.374243 0.013974
0.070322 0.373646 0.011497
0.219651 0.372566 0.007326
0.369026 0.371530 0.003162
0.518446 0.370539 0.000000
0.667911 0.369592 0.000000
0.817422 0.368690 0.000000
0.966977 0.367832 0.000000
1.000000 0.367604 0.000000
0.000000 0.516432 0.000094
0.073332 0.515869 0.000000
0.222813 0.514939 0.000000
0.372341 0.514052 0.000000
0.521913 0.513211 0.000000
0.671531 0.512413 0.000000
0.821189 0.511656 0.000000
0.970890 0.510939 0.000000
1.000000 0.510852 0.000000
0.000000 0.659097 0.000000
0.076854 0.658595 0.000000
0.226488 0.657814 0.000000
0.376161 0.657070 0.000000
0.525878 0.656369 0.000000
0.675640 0.655713 0.000000
0.825447 0.655101 0.000000
0.975300 0.654534 0.000000
1.000000 0.654597 0.000000
0.000000 0.802220 0.000000
0.080872 0.801805 0.000000
0.230650 0.801165 0.000000
0.380474 0.800570 0.000000
0.530344 0.800019 0.000000
0.680259 0.799512 0.000000
0.830219 0.799050 0.000000
0.980224 0.798632 0.000000
1.000000 0.798848 0.000000
0.000000 0.945832 0.000000
0.085393 0.945509 0.000000
0.235325 0.945018 0.000000
0.385301 0.944572 0.000000
0.535323 0.944171 0.000000
0.685390 0.943813 0.000000
0.835503 0.943501 0.000000
0.985661 0.943232 0.000000
1.000000 0.943607 0.000000
0.000000 1.000000 0.000000
0.088309 1.000000 0.000000
0.238344 1.000000 0.000000
0.388426 1.000000 0.000000
0.538554 1.000000 0.000000
0.688729 1.000000 0.000000
0.838951 1.000000 0.000000
0.989219 1.000000 0.000000
1.000000 1.000000 0.000000
0.000000 0.004612 0.137454
0.064969 0.003907 0.135064
0.213910 0.002445 0.130829
0.362895 0.001029 0.126603
0.511926 0.000000 0.122383
0.661003 0.000000 0.118171
0.810124 0.000000 0.113966
0.959291 0.000000 0.109769
1.000000 0.000000 0.107612
0.000000 0.091102 0.128780
0.065954 0.090425 0.126371
0.214988 0.089056 0.122152
0.364067 0.087731 0.117940
0.513191 0.086450 0.113736
0.662361 0.085214 0.109539
0.811576 0.084022 0.105350
0.960837 0.082874 0.101168
1.000000 0.082378 0.099052
0.000000 0.232308 0.114730
0.067970 0.231675 0.112288
0.217156 0.230455 0.108093
0.366388 0.229279 0.103906
0.515665 0.228148 0.099727
0.664987 0.227061 0.095555
0.814355 0.226018 0.091390
0.963767 0.225020 0.087232
1.000000 0.224660 0.085187
0.000000 0.374022 0.100767
0.070499 0.373427 0.098287
0.219837 0.372356 0.094118
0.369221 0.371330 0.089956
0.518651 0.370348 0.085801
0.668126 0.369410 0.081653
0.817646 0.368517 0.077513
0.967211 0.367668 0.073381
1.000000 0.367449 0.071411
0.000000 0.516242 0.086892
0.073540 0.515682 0.084370
0.223031 0.514760 0.080225
0.372568 0.513883 0.076088
0.522150 0.513050 0.071958
0.671777 0.512262 0.067835
0.821449 0.511518 0.063720
0.971167 0.510819 0.059612
1.000000 0.510745 0.057722
0.000000 0.658935 0.073071
0.077095 0.658438 0.070536
0.226738 0.657666 0.066416
0.376427 0.656939 0.062303
0.526161 0.656255 0.058198
0.675941 0.655616 0.054100
0.825766 0.655022 0.050010
0.975636 0.654472 0.045926
1.000000 0.654548 0.044120
0.000000 0.802102 0.059305
0.081162 0.801698 0.056785
0.230958 0.801075 0.052690
0.380799 0.800496 0.048602
0.530686 0.799962 0.044522
0.680618 0.799473 0.040448
0.830595 0.799028 0.036383
0.980618 0.798627 0.032324
1.000000 0.798857 0.030606
0.000000 0.945772 0.045622
0.085742 0.945459 0.043118
0.235690 0.944986 0.039047
0.385684 0.944557 0.034984
0.535723 0.944172 0.030928
0.685808 0.943832 0.026880
0.835937 0.943536 0.022839
0.986112 0.943284 0.018805
1.000000 0.943673 0.017179
0.000000 1.000000 0.038732
0.088693 1.000000 0.036250
0.238745 1.000000 0.032216
0.388844 1.000000 0.028191
0.538990 1.000000 0.024174
0.689183 1.000000 0.020166
0.839422 1.000000 0.016167
0.989707 1.000000 0.012176
1.000000 1.000000 0.010618
0.000000 0.004122 0.278722
0.065126 0.003422 0.276329
0.214082 0.001975 0.272097
0.363083 0.000574 0.267873
0.512129 0.000000 0.263656
0.661221 0.000000 0.259447
0.810357 0.000000 0.255244
0.959540 0.000000 0.251049
1.000000 0.000000 0.248899
0.000000 0.090643 0.270054
0.066142 0.089971 0.267642
0.215191 0.088617 0.263425
0.364286 0.087307 0.259216
0.513426 0.086041 0.255014
0.662611 0.084820 0.250820
0.811842 0.083643 0.246633
0.961118 0.082511 0.242453
1.000000 0.082028 0.240344
0.000000 0.231901 0.256012
0.068210 0.231272 0.253567
0.217412 0.230067 0.249375
0.366659 0.228906 0.245190
0.515951 0.227790 0.241013
0.665289 0.226718 0.236844
0.814672 0.225691 0.232681
0.964100 0.224707 0.228526
1.000000 0.224361 0.226489
0.000000 0.373666 0.242058
0.070790 0.373075 0.239575
0.220145 0.372019 0.235408
0.369544 0.371008 0.231248
0.518989 0.370041 0.227096
0.668479 0.369118 0.222951
0.818014 0.368240 0.218813
0.967595 0.367406 0.214683
1.000000 0.367202 0.212721
0.000000 0.515937 0.228192
0.073884 0.515380 0.225666
0.223390 0.514473 0.221524
0.372942 0.513611 0.217389
0.522539 0.512794 0.213261
0.672182 0.512021 0.209141
0.821870 0.511292 0.205028
0.971603 0.510607 0.200923
1.000000 0.510549 0.199041
0.000000 0.658674 0.214373
0.077490 0.658187 0.211840
0.227149 0.657430 0.207723
0.376853 0.656718 0.203613
0.526603 0.656049 0.199510
0.676398 0.655426 0.195414
0.826238 0.654846 0.191326
0.976124 0.654311 0.187245
1.000000 0.654403 0.185448
0.000000 0.801893 0.200616
0.081609 0.801497 0.198098
0.231420 0.800890 0.194005
0.381277 0.800326 0.189920
0.531179 0.799807 0.185842
0.681127 0.799333 0.181771
0.831119 0.798903 0.177708
0.981157 0.798517 0.173652
1.000000 0.798763 0.171943
0.000000 0.945613 0.186942
0.086241 0.945310 0.184439
0.236205 0.944851 0.180371
0.386214 0.944437 0.176310
0.536268 0.944068 0.172257
0.686368 0.943742 0.168211
0.836513 0.943462 0.164172
0.986704 0.943225 0.160141
1.000000 0.943630 0.158525
0.000000 1.000000 0.180064
0.089227 1.000000 0.177583
0.239295 1.000000 0.173552
0.389410 1.000000 0.169530
0.539572 1.000000 0.165516
0.689780 1.000000 0.161511
0.840035 1.000000 0.157515
0.990336 1.000000 0.153527
1.000000 1.000000 0.151979
0.000000 0.003637 0.419992
0.065288 0.002942 0.417595
0.214259 0.001511 0.413366
0.363275 0.000124 0.409144
0.512337 0.000000 0.404930
0.661444 0.000000 0.400723
0.810596 0.000000 0.396523
0.959794 0.000000 0.392331
1.000000 0.000000 0.390187
0.000000 0.090190 0.411328
0.066336 0.089523 0.408913
0.215400 0.088183 0.404699
0.364510 0.086888 0.400492
0.513666 0.085638 0.396293
0.662866 0.084432 0.392101
0.812112 0.083270 0.387917
0.961403 0.082153 0.383739
1.000000 0.081683 0.381638
0.000000 0.231499 0.397296
0.068455 0.230874 0.394846
0.217672 0.229684 0.390657
0.366935 0.228538 0.386475
0.516242 0.227437 0.382301
0.665596 0.226380 0.378133
0.814994 0.225368 0.373974
0.964437 0.224400 0.369821
1.000000 0.224068 0.367791
0.000000 0.373315 0.383351
0.071088 0.372727 0.380863
0.220457 0.371687 0.376698
0.369872 0.370690 0.372541
0.519332 0.369739 0.368391
0.668838 0.368831 0.364249
0.818388 0.367968 0.360114
0.967984 0.367149 0.355986
1.000000 0.366959 0.354032
0.000000 0.515637 0.369493
0.074233 0.515083 0.366962
0.223755 0.514192 0.362823
0.373322 0.513345 0.358690
0.522935 0.512542 0.354565
0.672593 0.511784 0.350448
0.822296 0.511071 0.346337
0.972044 0.510401 0.342234
1.000000 0.510358 0.340361
0.000000 0.658419 0.355677
0.077891 0.657942 0.353145
0.227565 0.657200 0.349030
0.377285 0.656502 0.344923
0.527050 0.655849 0.340822
0.676860 0.655240 0.336729
0.826716 0.654676 0.332644
0.976617 0.654156 0.328565
1.000000 0.654263 0.326777
0.000000 0.801688 0.341928
0.082061 0.801302 0.339411
0.231888 0.800709 0.335321
0.381760 0.800161 0.331238
0.531678 0.799657 0.327163
0.681641 0.799198 0.323094
0.831649 0.798783 0.319033
0.981702 0.798412 0.314980
1.000000 0.798674 0.313280
0.000000 0.945459 0.328262
0.086745 0.945165 0.325761
0.236724 0.944722 0.321695
0.386749 0.944323 0.317637
0.536819 0.943968 0.313586
0.686934 0.943658 0.309543
0.837094 0.943393 0.305506
0.987300 0.943171 0.301478
1.000000 0.943592 0.299871
0.000000 1.000000 0.321396
0.089766 1.000000 0.318918
0.239851 1.000000 0.314890
0.389981 1.000000 0.310870
0.540159 1.000000 0.306859
0.690383 1.000000 0.302857
0.840654 1.000000 0.298864
0.990971 1.000000 0.294879
1.000000 1.000000 0.293341
0.000000 0.003158 0.561262
0.065455 0.002467 0.558862
0.214441 0.001051 0.554636
0.363473 0.000000 0.550416
0.512550 0.000000 0.546204
0.661672 0.000000 0.542000
0.810840 0.000000 0.537803
0.960053 0.000000 0.533613
1.000000 0.000000 0.531476
0.000000 0.089742 0.552604
0.066534 0.089079 0.550185
0.215614 0.087755 0.545974
0.364740 0.086475 0.541770
0.513910 0.085239 0.537573
0.663127 0.084048 0.533383
0.812388 0.082902 0.529201
0.961694 0.081800 0.525027
1.000000 0.081344 0.522932
0.000000 0.231102 0.538580
0.068706 0.230481 0.536127
0.217938 0.229306 0.531940
0.367216 0.228175 0.527761
0.516539 0.227089 0.523589
0.665908 0.226048 0.519424
0.815321 0.225050 0.515267
0.964780 0.224097 0.511117
1.000000 0.223780 0.509094
0.000000 0.372969 0.524644
0.071390 0.372385 0.522152
0.220775 0.371360 0.517990
0.370205 0.370378 0.513835
0.519681 0.369442 0.509688
0.669202 0.368549 0.505548
0.818768 0.367701 0.501415
0.968379 0.366898 0.497290
1.000000 0.366722 0.495344
0.000000 0.515342 0.510795
0.074587 0.514792 0.508260
0.224124 0.513916 0.504123
0.373707 0.513084 0.499993
0.523335 0.512296 0.495870
0.673008 0.511553 0.491755
0.822727 0.510855 0.487647
0.972491 0.510200 0.483547
1.000000 0.510172 0.481681
0.000000 0.658169 0.496981
0.078296 0.657701 0.494451
0.227986 0.656974 0.490339
0.377721 0.656291 0.486233
0.527502 0.655653 0.482136
0.677328 0.655060 0.478045
0.827199 0.654510 0.473962
0.977115 0.654005 0.469886
1.000000 0.654128 0.468106
0.000000 0.801489 0.483240
0.082519 0.801112 0.480726
0.232361 0.800534 0.476638
0.382249 0.800001 0.472557
0.532182 0.799513 0.468484
0.682160 0.799068 0.464419
0.832183 0.798668 0.460360
0.982252 0.798313 0.456309
1.000000 0.798590 0.454619
0.000000 0.945311 0.469583
0.087254 0.945026 0.467083
0.237249 0.944597 0.463020
0.387289 0.944214 0.458965
0.537374 0.943874 0.454916
0.687505 0.943579 0.450875
0.837681 0.943329 0.446842
0.987902 0.943122 0.442815
1.000000 0.943560 0.441219
0.000000 1.000000 0.462730
0.090311 1.000000 0.460253
0.240411 1.000000 0.456228
0.390558 1.000000 0.452211
0.540751 1.000000 0.448204
0.690991 1.000000 0.444204
0.841278 1.000000 0.440214
0.991611 1.000000 0.436232
1.000000 1.000000 0.434703
0.000000 0.002684 0.702533
0.065627 0.001997 0.700130
0.214629 0.000596 0.695906
0.363676 0.000000 0.691689
0.512768 0.000000 0.687480
0.661906 0.000000 0.683278
0.811089 0.000000 0.679083
0.960318 0.000000 0.674896
1.000000 0.000000 0.672765
0.000000 0.089299 0.693880
0.066738 0.088640 0.691458
0.215834 0.087331 0.687249
0.364975 0.086067 0.683048
0.514161 0.084846 0.678854
0.663392 0.083670 0.674667
0.812669 0.082539 0.670487
0.961991 0.081451 0.666315
1.000000 0.081009 0.664227
0.000000 0.230710 0.679865
0.068961 0.230093 0.677408
0.218209 0.228933 0.673224
0.367503 0.227818 0.669047
0.516841 0.226747 0.664878
0.666225 0.225720 0.660716
0.815654 0.224738 0.656561
0.965129 0.223800 0.652413
1.000000 0.223496 0.650398
0.000000 0.372628 0.665938
0.071697 0.372048 0.663442
0.221098 0.371038 0.659282
0.370543 0.370071 0.655130
0.520034 0.369150 0.650985
0.669571 0.368272 0.646848
0.819152 0.367440 0.642718
0.968779 0.366651 0.638595
1.000000 0.366490 0.636657
0.000000 0.515053 0.652098
0.074946 0.514505 0.649558
0.224499 0.513644 0.645423
0.374097 0.512827 0.641296
0.523740 0.512055 0.637176
0.673429 0.511327 0.633063
0.823163 0.510644 0.628958
0.972942 0.510004 0.624860
1.000000 0.509991 0.623003
0.000000 0.657924 0.638286
0.078708 0.657465 0.635758
0.228413 0.656753 0.631648
0.378163 0.656086 0.627545
0.527959 0.655463 0.623450
0.677800 0.654884 0.619362
0.827687 0.654350 0.615281
0.977618 0.653860 0.611208
1.000000 0.653998 0.609437
0.000000 0.801295 0.624554
0.082982 0.800927 0.622041
0.232839 0.800365 0.617956
0.382742 0.799847 0.613878
0.532691 0.799373 0.609807
0.682684 0.798944 0.605744
0.832723 0.798559 0.601688
0.982807 0.798218 0.597639
1.000000 0.798512 0.595958
0.000000 0.945167 0.610905
0.087769 0.944891 0.608407
0.237779 0.944478 0.604346
0.387834 0.944110 0.600293
0.537935 0.943785 0.596247
0.688081 0.943505 0.592209
0.838272 0.943270 0.588178
0.988509 0.943079 0.584154
1.000000 0.943532 0.582567
0.000000 1.000000 0.604064
0.090861 1.000000 0.601589
0.240977 1.000000 0.597567
0.391140 1.000000 0.593554
0.541349 1.000000 0.589549
0.691605 1.000000 0.585552
0.841907 1.000000 0.581565
0.992256 1.000000 0.577586
1.000000 1.000000 0.576068
0.000000 0.002214 0.843805
0.065804 0.001533 0.841399
0.214822 0.000147 0.837177
0.363884 0.000000 0.832963
0.512992 0.000000 0.828756
0.662145 0.000000 0.824557
0.811344 0.000000 0.820364
0.960587 0.000000 0.816179
1.000000 0.000000 0.814056
0.000000 0.088861 0.835158
0.066948 0.088207 0.832732
0.216058 0.086913 0.828526
0.365215 0.085663 0.824327
0.514416 0.084458 0.820135
0.663663 0.083297 0.815951
0.812955 0.082181 0.811774
0.962292 0.081109 0.807604
1.000000 0.080680 0.805523
0.000000 0.230324 0.821151
0.069222 0.229710 0.818691
0.218486 0.228566 0.814509
0.367794 0.227465 0.810335
0.517148 0.226409 0.806168
0.666548 0.225398 0.802008
0.815992 0.224431 0.797856
0.965482 0.223508 0.793711
1.000000 0.223218 0.791703
0.000000 0.372293 0.807233
0.072010 0.371716 0.804733
0.221426 0.370721 0.800575
0.370887 0.369770 0.796426
0.520393 0.368863 0.792284
0.669945 0.368001 0.788149
0.819542 0.367183 0.784021
0.969184 0.366410 0.779901
1.000000 0.366263 0.777971
0.000000 0.514766 0.793399
0.075311 0.514224 0.790857
0.224879 0.513378 0.786725
0.374492 0.512576 0.782600
0.524151 0.511819 0.778483
0.673855 0.511106 0.774372
0.823604 0.510438 0.770270
0.973399 0.509814 0.766174
1.000000 0.509815 0.764326
0.000000 0.657685 0.779592
0.079124 0.657235 0.777066
0.228844 0.656538 0.772958
0.378610 0.655885 0.768858
0.528422 0.655277 0.764765
0.678278 0.654714 0.760679
0.828180 0.654195 0.756601
0.978127 0.653720 0.752531
1.000000 0.653873 0.750768
0.000000 0.801106 0.765868
0.083450 0.800747 0.763357
0.233323 0.800200 0.759274
0.383241 0.799697 0.755198
0.533205 0.799238 0.751130
0.683214 0.798824 0.747070
0.833268 0.798454 0.743016
0.983368 0.798129 0.738970
1.000000 0.798438 0.737298
0.000000 0.945029 0.752228
0.088289 0.944762 0.749731
0.238314 0.944364 0.745673
0.388385 0.944011 0.741623
0.538501 0.943701 0.737579
0.688662 0.943436 0.733543
0.838869 0.943216 0.729514
0.989121 0.943040 0.725493
1.000000 0.943510 0.723916
0.000000 1.000000 0.745400
0.091417 1.000000 0.742926
0.241549 1.000000 0.738907
0.391727 1.000000 0.734897
0.541952 1.000000 0.730895
0.692224 1.000000 0.726901
0.842542 1.000000 0.722916
0.992906 1.000000 0.718940
1.000000 1.000000 0.717433
0.000000 0.001750 0.985077
0.065987 0.001073 0.982669
0.215020 0.000000 0.978450
0.364098 0.000000 0.974238
0.513221 0.000000 0.970033
0.662389 0.000000 0.965836
0.811603 0.000000 0.961646
0.960862 0.000000 0.957464
1.000000 0.000000 0.955348
0.000000 0.088429 0.976436
0.067162 0.087779 0.974007
0.216288 0.086500 0.969803
0.365460 0.085265 0.965607
0.514677 0.084075 0.961417
0.663939 0.082929 0.957235
0.813246 0.081828 0.953061
0.962599 0.080771 0.948894
1.000000 0.080356 0.946820
0.000000 0.229942 0.962438
0.069489 0.229333 0.959974
0.218767 0.228203 0.955795
0.368091 0.227118 0.951623
0.517461 0.226077 0.947458
0.666875 0.225081 0.943301
0.816335 0.224128 0.939151
0.965840 0.223221 0.935009
1.000000 0.222946 0.933009
0.000000 0.371962 0.948529
0.072328 0.371389 0.946024
0.221759 0.370409 0.941870
0.371236 0.369473 0.937722
0.520757 0.368581 0.933583
0.670324 0.367734 0.929450
0.819937 0.366931 0.925325
0.969594 0.366173 0.921207
1.000000 0.366042 0.919285
0.000000 0.514480 0.934698
0.075680 0.513948 0.932157
0.225264 0.513117 0.928028
0.374893 0.512330 0.923905
0.524567 0.511588 0.919790
0.674286 0.510890 0.915682
0.824051 0.510237 0.911582
0.973861 0.509628 0.907489
1.000000 0.509645 0.905649
0.000000 0.657450 0.920899
0.079545 0.657009 0.918374
0.229281 0.656327 0.914269
0.379063 0.655690 0.910171
0.528889 0.655097 0.906081
0.678761 0.654549 0.901998
0.828678 0.654045 0.897922
0.978641 0.653585 0.893854
1.000000 0.653754 0.892100
0.000000 0.800922 0.907184
0.083923 0.800573 0.904674
0.233812 0.800040 0.900593
0.383745 0.799552 0.896520
0.533724 0.799109 0.892455
0.683749 0.798710 0.888397
0.833818 0.798355 0.884346
0.983933 0.798044 0.880302
1.000000 0.798370 0.878639
0.000000 0.944896 0.893551
0.088814 0.944638 0.891056
0.238855 0.944255 0.887001
0.388941 0.943917 0.882953
0.539072 0.943623 0.878912
0.689249 0.943373 0.874878
0.839471 0.943167 0.870852
0.989738 0.943006 0.866833
1.000000 0.943493 0.865266
0.000000 1.000000 0.886736
0.091978 1.000000 0.884265
0.242126 1.000000 0.880248
0.392320 1.000000 0.876241
0.542561 1.000000 0.872242
0.692848 1.000000 0.868251
0.843182 1.000000 0.864269
0.993562 1.000000 0.860296
1.000000 1.000000 0.858799
0.000000 0.001628 1.000000
0.066202 0.000948 1.000000
0.215234 0.000000 1.000000
0.364312 0.000000 1.000000
0.513435 0.000000 1.000000
0.662603 0.000000 1.000000
0.811817 0.000000 1.000000
0.961076 0.000000 1.000000
1.000000 0.000000 1.000000
0.000000 0.088306 1.000000
0.067376 0.087653 1.000000
0.216502 0.086374 1.000000
0.365674 0.085139 1.000000
0.514891 0.083949 1.000000
0.664153 0.082803 1.000000
0.813460 0.081701 1.000000
0.962813 0.080644 1.000000
1.000000 0.080232 1.000000
0.000000 0.229819 1.000000
0.069703 0.229206 1.000000
0.218981 0.228076 1.000000
0.368305 0.226991 1.000000
0.517674 0.225950 1.000000
0.667089 0.224953 1.000000
0.816549 0.224001 1.000000
0.966054 0.223093 1.000000
1.000000 0.222821 1.000000
0.000000 0.371839 1.000000
0.072542 0.371262 1.000000
0.221973 0.370282 1.000000
0.371450 0.369346 1.000000
0.520971 0.368454 1.000000
0.670538 0.367607 1.000000
0.820151 0.366804 0.998847
0.969813 0.366050 0.995898
1.000000 0.365927 0.993980
0.000000 0.514353 1.000000
0.075894 0.513820 1.000000
0.225478 0.512989 0.999720
0.375107 0.512203 0.998473
0.524789 0.511468 0.994482
0.674516 0.510778 0.990375
0.824289 0.510133 0.986276
0.974108 0.509532 0.982184
1.000000 0.509556 0.980349
0.000000 0.657328 0.995590
0.079770 0.656892 0.993066
0.229514 0.656218 0.988962
0.379304 0.655589 0.984866
0.529139 0.655004 0.980777
0.679019 0.654464 0.976695
0.828944 0.653967 0.972621
0.978915 0.653516 0.968554
1.000000 0.653693 0.966805
0.000000 0.800826 0.981879
0.084176 0.800482 0.979370
0.234072 0.799958 0.975291
0.384014 0.799478 0.971219
0.534001 0.799042 0.967155
0.684033 0.798651 0.963098
0.834111 0.798304 0.959048
0.984234 0.798002 0.955006
1.000000 0.798336 0.953349
0.000000 0.944827 0.968251
0.089093 0.944575 0.965757
0.239142 0.944200 0.961703
0.389237 0.943869 0.957656
0.539376 0.943583 0.953617
0.689561 0.943341 0.949584
0.839791 0.943144 0.945560
0.990067 0.942991 0.941542
1.000000 0.943486 0.939980
0.000061 1.000000 0.961443
0.092277 1.000000 0.958972
0.242433 1.000000 0.954958
0.392635 1.000000 0.950952
0.542884 1.000000 0.946954
0.693180 1.000000 0.942965
0.843522 1.000000 0.938985
0.993911 1.000000 0.935013
1.000000 1.000000 0.933521
