assets/luts/Golden Hour.cube
# StudioPhoto — LUT d'exemple : Golden Hour
TITLE "Golden Hour"
LUT_3D_SIZE 33
0.000000 0.000000 0.000000
0.040851 0.000000 0.000000
0.083923 0.000000 0.000000
0.125879 0.000000 0.000000
0.167086 0.000000 0.000000
0.207730 0.000000 0.000000
0.247926 0.000000 0.000000
0.287750 0.000000 0.000000
0.327257 0.000000 0.000000
0.366487 0.000000 0.000000
0.405474 0.000000 0.000000
0.444241 0.000000 0.000000
0.482811 0.000000 0.000000
0.521201 0.000000 0.000000
0.559426 0.000000 0.000000
0.597499 0.000000 0.000000
0.635429 0.000000 0.000000
0.673228 0.000000 0.000000
0.710902 0.000000 0.000000
0.748461 0.000000 0.000000
0.785910 0.000000 0.000000
0.823255 0.000000 0.000000
0.860502 0.000000 0.000000
0.897656 0.000000 0.000000
0.934721 0.000000 0.000000
0.971702 0.000000 0.000000
1.000000 0.000000 0.000000
1.000000 0.000000 0.000000
1.000000 0.000000 0.000000
1.000000 0.000000 0.000000
1.000000 0.000000 0.000000
1.000000 0.000000 0.000000
1.000000 0.000000 0.000000
0.000000 0.017570 0.000000
0.039664 0.017005 0.000000
0.082765 0.016415 0.000000
0.124750 0.015845 0.000000
0.165985 0.015288 0.000000
0.206657 0.014744 0.000000
0.246880 0.014209 0.000000
0.286730 0.013683 0.000000
0.326263 0.013165 0.000000
0.365519 0.012654 0.000000
0.404530 0.012150 0.000000
0.443323 0.011652 0.000000
0.481918 0.011160 0.000000
0.520333 0.010674 0.000000
0.558582 0.010194 0.000000
0.596678 0.009719 0.000000
0.634632 0.009249 0.000000
0.672454 0.008784 0.000000
0.710152 0.008324 0.000000
0.747734 0.007869 0.000000
0.785206 0.007419 0.000000
0.822574 0.006973 0.000000
0.859844 0.006531 0.000000
0.897020 0.006094 0.000000
0.934107 0.005661 0.000000
0.971110 0.005232 0.000000
1.000000 0.004807 0.000000
1.000000 0.004387 0.000000
1.000000 0.004398 0.000000
1.000000 0.004412 0.000000
1.000000 0.004412 0.000000
1.000000 0.004412 0.000000
1.000000 0.004412 0.000000
0.000000 0.053181 0.000000
0.037801 0.052634 0.000000
0.080928 0.052056 0.000000
0.122938 0.051498 0.000000
0.164197 0.050953 0.000000
0.204893 0.050420 0.000000
0.245139 0.049897 0.000000
0.285013 0.049382 0.000000
0.324569 0.048875 0.000000
0.363848 0.048375 0.000000
0.402883 0.047882 0.000000
0.441698 0.047396 0.000000
0.480316 0.046915 0.000000
0.518753 0.046440 0.000000
0.557025 0.045971 0.000000
0.595144 0.045506 0.000000
0.633120 0.045047 0.000000
0.670964 0.044593 0.000000
0.708684 0.044144 0.000000
0.746288 0.043700 0.000000
0.783782 0.043260 0.000000
0.821172 0.042824 0.000000
0.858464 0.042393 0.000000
0.895662 0.041966 0.000000
0.932771 0.041544 0.000000
0.969795 0.041126 0.000000
1.000000 0.040712 0.000000
1.000000 0.040301 0.000000
1.000000 0.040326 0.000000
1.000000 0.040344 0.000000
1.000000 0.040344 0.000000
1.000000 0.040344 0.000000
1.000000 0.040344 0.000000
0.000000 0.088326 0.000000
0.036036 0.087795 0.000000
0.079188 0.087229 0.000000
0.121222 0.086682 0.000000
0.162505 0.086149 0.000000
0.203224 0.085628 0.000000
0.243494 0.085116 0.000000
0.283391 0.084612 0.000000
0.322970 0.084116 0.000000
0.362272 0.083628 0.000000
0.401329 0.083146 0.000000
0.440168 0.082670 0.000000
0.478808 0.082200 0.000000
0.517267 0.081736 0.000000
0.555561 0.081277 0.000000
0.593702 0.080823 0.000000
0.631700 0.080375 0.000000
0.669567 0.079932 0.000000
0.707309 0.079493 0.000000
0.744934 0.079059 0.000000
0.782450 0.078629 0.000000
0.819861 0.078205 0.000000
0.857174 0.077784 0.000000
0.894394 0.077368 0.000000
0.931525 0.076956 0.000000
0.968570 0.076548 0.000000
1.000000 0.076144 0.000000
1.000000 0.075744 0.000000
1.000000 0.075783 0.000000
1.000000 0.075805 0.000000
1.000000 0.075805 0.000000
1.000000 0.075805 0.000000
1.000000 0.075805 0.000000
0.000000 0.123170 0.000000
0.034358 0.122655 0.000000
0.077534 0.122101 0.000000
0.119592 0.121566 0.000000
0.160899 0.121045 0.000000
0.201642 0.120534 0.000000
0.241935 0.120033 0.000000
0.281855 0.119541 0.000000
0.321457 0.119056 0.000000
0.360781 0.118578 0.000000
0.399861 0.118107 0.000000
0.438721 0.117642 0.000000
0.477384 0.117183 0.000000
0.515865 0.116729 0.000000
0.554181 0.116281 0.000000
0.592344 0.115838 0.000000
0.630364 0.115401 0.000000
0.668252 0.114968 0.000000
0.706016 0.114539 0.000000
0.743663 0.114116 0.000000
0.781200 0.113697 0.000000
0.818633 0.113282 0.000000
0.855967 0.112872 0.000000
0.893208 0.112466 0.000000
0.930360 0.112064 0.000000
0.967427 0.111666 0.000000
1.000000 0.111273 0.000000
1.000000 0.110883 0.000000
1.000000 0.110938 0.000000
1.000000 0.110964 0.000000
1.000000 0.110964 0.000000
1.000000 0.110964 0.000000
1.000000 0.110964 0.000000
0.000000 0.157798 0.000000
0.032760 0.157297 0.000000
0.075961 0.156755 0.000000
0.118043 0.156232 0.000000
0.159374 0.155722 0.000000
0.200140 0.155223 0.000000
0.240456 0.154733 0.000000
0.280399 0.154252 0.000000
0.320023 0.153778 0.000000
0.359370 0.153311 0.000000
0.398472 0.152850 0.000000
0.437354 0.152396 0.000000
0.476039 0.151947 0.000000
0.514542 0.151504 0.000000
0.552880 0.151067 0.000000
0.591064 0.150635 0.000000
0.629106 0.150207 0.000000
0.667016 0.149785 0.000000
0.704801 0.149367 0.000000
0.742469 0.148954 0.000000
0.780028 0.148545 0.000000
0.817482 0.148140 0.000000
0.854838 0.147740 0.000000
0.892100 0.147345 0.000000
0.929273 0.146953 0.000000
0.966361 0.146566 0.000000
1.000000 0.146182 0.000000
1.000000 0.145803 0.000000
1.000000 0.145873 0.000000
1.000000 0.145904 0.000000
1.000000 0.145904 0.000000
1.000000 0.145904 0.000000
1.000000 0.145904 0.000000
0.000000 0.192259 0.000000
0.031240 0.191771 0.000000
0.074465 0.191242 0.000000
0.116571 0.190730 0.000000
0.157925 0.190231 0.000000
0.198714 0.189743 0.000000
0.239053 0.189264 0.000000
0.279019 0.188794 0.000000
0.318665 0.188331 0.000000
0.358034 0.187875 0.000000
0.397158 0.187425 0.000000
0.436063 0.186981 0.000000
0.474769 0.186543 0.000000
0.513294 0.186111 0.000000
0.551654 0.185684 0.000000
0.589860 0.185262 0.000000
0.627923 0.184845 0.000000
0.665854 0.184433 0.000000
0.703661 0.184025 0.000000
0.741351 0.183622 0.000000
0.778930 0.183224 0.000000
0.816406 0.182830 0.000000
0.853783 0.182440 0.000000
0.891066 0.182054 0.000000
0.928260 0.181673 0.000000
0.965369 0.181295 0.000000
1.000000 0.180922 0.000000
1.000000 0.180556 0.000000
1.000000 0.180639 0.000000
1.000000 0.180674 0.000000
1.000000 0.180674 0.000000
1.000000 0.180674 0.000000
1.000000 0.180674 0.000000
0.000000 0.226586 0.000000
0.029794 0.226111 0.000000
0.073044 0.225593 0.000000
0.115174 0.225093 0.000000
0.156551 0.224605 0.000000
0.197363 0.224128 0.000000
0.237725 0.223661 0.000000
0.277712 0.223201 0.000000
0.317381 0.222749 0.000000
0.356773 0.222303 0.000000
0.395919 0.221864 0.000000
0.434845 0.221431 0.000000
0.473573 0.221004 0.000000
0.512120 0.220582 0.000000
0.550501 0.220165 0.000000
0.588729 0.219753 0.000000
0.626814 0.219347 0.000000
0.664766 0.218945 0.000000
0.702594 0.218548 0.000000
0.740305 0.218155 0.000000
0.777905 0.217767 0.000000
0.815402 0.217383 0.000000
0.852800 0.217003 0.000000
0.890104 0.216628 0.000000
0.927319 0.216256 0.000000
0.964449 0.215889 0.000000
1.000000 0.215526 0.000000
1.000000 0.215177 0.000000
1.000000 0.215271 0.000000
1.000000 0.215310 0.000000
1.000000 0.215310 0.000000
1.000000 0.215310 0.000000
1.000000 0.215310 0.000000
0.000000 0.260803 0.000000
0.028421 0.260339 0.000000
0.071695 0.259833 0.000000
0.113848 0.259344 0.000000
0.155249 0.258868 0.000000
0.196084 0.258402 0.000000
0.236468 0.257945 0.000000
0.276478 0.257497 0.000000
0.316170 0.257055 0.000000
0.355583 0.256620 0.000000
0.394751 0.256192 0.000000
0.433699 0.255769 0.000000
0.472449 0.255352 0.000000
0.511018 0.254941 0.000000
0.549420 0.254535 0.000000
0.587669 0.254133 0.000000
0.625775 0.253737 0.000000
0.663749 0.253345 0.000000
0.701598 0.252958 0.000000
0.739330 0.252576 0.000000
0.776952 0.252198 0.000000
0.814469 0.251824 0.000000
0.851888 0.251454 0.000000
0.889213 0.251089 0.000000
0.926449 0.250728 0.000000
0.963599 0.250371 0.000000
1.000000 0.250017 0.000000
1.000000 0.249686 0.000000
1.000000 0.249790 0.000000
1.000000 0.249833 0.000000
1.000000 0.249833 0.000000
1.000000 0.249833 0.000000
1.000000 0.249833 0.000000
0.000000 0.294927 0.000000
0.027119 0.294474 0.000000
0.070417 0.293980 0.000000
0.112594 0.293502 0.000000
0.154017 0.293037 0.000000
0.194876 0.292582 0.000000
0.235282 0.292137 0.000000
0.275315 0.291699 0.000000
0.315028 0.291268 0.000000
0.354464 0.290844 0.000000
0.393654 0.290426 0.000000
0.432624 0.290014 0.000000
0.471395 0.289607 0.000000
0.509985 0.289206 0.000000
0.548409 0.288810 0.000000
0.586679 0.288419 0.000000
0.624807 0.288033 0.000000
0.662801 0.287652 0.000000
0.700671 0.287275 0.000000
0.738424 0.286903 0.000000
0.776067 0.286535 0.000000
0.813606 0.286171 0.000000
0.851045 0.285811 0.000000
0.888391 0.285456 0.000000
0.925647 0.285105 0.000000
0.962819 0.284758 0.000000
0.999908 0.284414 0.000000
1.000000 0.284102 0.000000
1.000000 0.284216 0.000000
1.000000 0.284263 0.000000
1.000000 0.284263 0.000000
1.000000 0.284263 0.000000
1.000000 0.284263 0.000000
0.000000 0.328972 0.000000
0.025887 0.328530 0.000000
0.069209 0.328047 0.000000
0.111410 0.327581 0.000000
0.152856 0.327127 0.000000
0.193737 0.326683 0.000000
0.234166 0.326248 0.000000
0.274221 0.325821 0.000000
0.313957 0.325400 0.000000
0.353414 0.324987 0.000000
0.392626 0.324580 0.000000
0.431617 0.324178 0.000000
0.470410 0.323782 0.000000
0.509022 0.323391 0.000000
0.547467 0.323006 0.000000
0.585758 0.322625 0.000000
0.623907 0.322249 0.000000
0.661923 0.321878 0.000000
0.699814 0.321511 0.000000
0.737588 0.321149 0.000000
0.775252 0.320791 0.000000
0.812811 0.320438 0.000000
0.850271 0.320088 0.000000
0.887638 0.319743 0.000000
0.924915 0.319402 0.000000
0.962106 0.319064 0.000000
0.999217 0.318731 0.000000
1.000000 0.318438 0.000000
1.000000 0.318562 0.000000
1.000000 0.318613 0.000000
1.000000 0.318613 0.000000
1.000000 0.318613 0.000000
1.000000 0.318613 0.000000
0.000000 0.362949 0.000000
0.024724 0.362516 0.000000
0.068070 0.362045 0.000000
0.110294 0.361590 0.000000
0.151763 0.361147 0.000000
0.192667 0.360714 0.000000
0.233119 0.360290 0.000000
0.273196 0.359874 0.000000
0.312953 0.359464 0.000000
0.352432 0.359061 0.000000
0.391666 0.358664 0.000000
0.430679 0.358273 0.000000
0.469494 0.357888 0.000000
0.508126 0.357507 0.000000
0.546593 0.357132 0.000000
0.584906 0.356761 0.000000
0.623075 0.356396 0.000000
0.661112 0.356035 0.000000
0.699024 0.355678 0.000000
0.736819 0.355326 0.000000
0.774504 0.354978 0.000000
0.812084 0.354635 0.000000
0.849565 0.354295 0.000000
0.886952 0.353960 0.000000
0.924250 0.353629 0.000000
0.961462 0.353301 0.000000
0.998592 0.352978 0.000000
1.000000 0.352705 0.000000
1.000000 0.352839 0.000000
1.000000 0.352895 0.000000
1.000000 0.352895 0.000000
1.000000 0.352895 0.000000
1.000000 0.352895 0.000000
0.000000 0.396868 0.000000
0.023629 0.396443 0.000000
0.066999 0.395983 0.000000
0.109246 0.395540 0.000000
0.150739 0.395108 0.000000
0.191665 0.394686 0.000000
0.232139 0.394273 0.000000
0.272238 0.393867 0.000000
0.312018 0.393468 0.000000
0.351519 0.393076 0.000000
0.390774 0.392689 0.000000
0.429808 0.392309 0.000000
0.468644 0.391933 0.000000
0.507298 0.391563 0.000000
0.545786 0.391198 0.000000
0.584120 0.390838 0.000000
0.622311 0.390482 0.000000
0.660369 0.390132 0.000000
0.698302 0.389785 0.000000
0.736117 0.389443 0.000000
0.773823 0.389105 0.000000
0.811423 0.388772 0.000000
0.848925 0.388442 0.000000
0.886333 0.388117 0.000000
0.923651 0.387796 0.000000
0.960884 0.387478 0.000000
0.998035 0.387165 0.000000
1.000000 0.386912 0.000000
1.000000 0.387057 0.000000
1.000000 0.387117 0.000000
1.000000 0.387117 0.000000
1.000000 0.387117 0.000000
1.000000 0.387117 0.000000
0.000000 0.430735 0.000000
0.022601 0.430318 0.000000
0.065996 0.429870 0.000000
0.108266 0.429437 0.000000
0.149781 0.429017 0.000000
0.190730 0.428606 0.000000
0.231226 0.428203 0.000000
0.271348 0.427808 0.000000
0.311149 0.427420 0.000000
0.350672 0.427038 0.000000
0.389948 0.426662 0.000000
0.429005 0.426291 0.000000
0.467862 0.425926 0.000000
0.506537 0.425567 0.000000
0.545046 0.425212 0.000000
0.583401 0.424862 0.000000
0.621613 0.424516 0.000000
0.659692 0.424176 0.000000
0.697645 0.423839 0.000000
0.735482 0.423507 0.000000
0.773208 0.423180 0.000000
0.810829 0.422856 0.000000
0.848352 0.422537 0.000000
0.885780 0.422221 0.000000
0.923119 0.421910 0.000000
0.960372 0.421602 0.000000
0.997543 0.421298 0.000000
1.000000 0.421068 0.000000
1.000000 0.421223 0.000000
1.000000 0.421286 0.000000
1.000000 0.421286 0.000000
1.000000 0.421286 0.000000
1.000000 0.421286 0.000000
0.000000 0.464557 0.000000
0.021640 0.464147 0.000000
0.065058 0.463710 0.000000
0.107352 0.463289 0.000000
0.148890 0.462879 0.000000
0.189861 0.462479 0.000000
0.230380 0.462087 0.000000
0.270523 0.461703 0.000000
0.310346 0.461325 0.000000
0.349891 0.460954 0.000000
0.389189 0.460588 0.000000
0.428267 0.460228 0.000000
0.467145 0.459873 0.000000
0.505842 0.459524 0.000000
0.544372 0.459179 0.000000
0.582748 0.458839 0.000000
0.620981 0.458504 0.000000
0.659080 0.458174 0.000000
0.697055 0.457847 0.000000
0.734912 0.457525 0.000000
0.772659 0.457208 0.000000
0.810301 0.456894 0.000000
0.847844 0.456584 0.000000
0.885293 0.456279 0.000000
0.922652 0.455977 0.000000
0.959925 0.455680 0.000000
0.997117 0.455386 0.000000
1.000000 0.455177 0.000000
1.000000 0.455342 0.000000
1.000000 0.455410 0.000000
1.000000 0.455410 0.000000
1.000000 0.455410 0.000000
1.000000 0.455410 0.000000
0.000000 0.498339 0.000000
0.020745 0.497935 0.000000
0.064187 0.497510 0.000000
0.106504 0.497100 0.000000
0.148065 0.496701 0.000000
0.189058 0.496312 0.000000
0.229599 0.495931 0.000000
0.269765 0.495557 0.000000
0.309610 0.495190 0.000000
0.349176 0.494829 0.000000
0.388496 0.494474 0.000000
0.427595 0.494124 0.000000
0.466494 0.493780 0.000000
0.505212 0.493440 0.000000
0.543763 0.493106 0.000000
0.582160 0.492776 0.000000
0.620414 0.492451 0.000000
0.658534 0.492130 0.000000
0.696530 0.491814 0.000000
0.734408 0.491502 0.000000
0.772175 0.491195 0.000000
0.809838 0.490891 0.000000
0.847401 0.490591 0.000000
0.884870 0.490296 0.000000
0.922250 0.490004 0.000000
0.959544 0.489716 0.000000
0.996756 0.489432 0.000000
1.000000 0.489247 0.000000
1.000000 0.489422 0.000000
1.000000 0.489493 0.000000
1.000000 0.489493 0.000000
1.000000 0.489493 0.000000
1.000000 0.489493 0.000000
0.000000 0.532086 0.000000
0.019915 0.531687 0.000000
0.063382 0.531273 0.000000
0.105722 0.530875 0.000000
0.147305 0.530487 0.000000
0.188321 0.530109 0.000000
0.228884 0.529738 0.000000
0.269071 0.529375 0.000000
0.308938 0.529018 0.000000
0.348526 0.528668 0.000000
0.387867 0.528323 0.000000
0.426988 0.527984 0.000000
0.465909 0.527650 0.000000
0.504648 0.527321 0.000000
0.543220 0.526996 0.000000
0.581638 0.526677 0.000000
0.619912 0.526362 0.000000
0.658054 0.526051 0.000000
0.696070 0.525745 0.000000
0.733968 0.525443 0.000000
0.771756 0.525145 0.000000
0.809439 0.524852 0.000000
0.847023 0.524562 0.000000
0.884513 0.524276 0.000000
0.921913 0.523994 0.000000
0.959227 0.523716 0.000000
0.996459 0.523442 0.000000
1.000000 0.523281 0.000000
1.000000 0.523465 0.000000
1.000000 0.523541 0.000000
1.000000 0.523541 0.000000
1.000000 0.523541 0.000000
1.000000 0.523541 0.000000
0.000000 0.565802 0.000000
0.019151 0.565408 0.000000
0.062641 0.565006 0.000000
0.105004 0.564618 0.000000
0.146610 0.564241 0.000000
0.187649 0.563874 0.000000
0.228234 0.563514 0.000000
0.268443 0.563161 0.000000
0.308331 0.562815 0.000000
0.347941 0.562475 0.000000
0.387304 0.562141 0.000000
0.426445 0.561812 0.000000
0.465387 0.561488 0.000000
0.504148 0.561169 0.000000
0.542741 0.560855 0.000000
0.581179 0.560545 0.000000
0.619475 0.560240 0.000000
0.657637 0.559940 0.000000
0.695674 0.559644 0.000000
0.733593 0.559352 0.000000
0.771401 0.559064 0.000000
0.809105 0.558780 0.000000
0.846709 0.558500 0.000000
0.884219 0.558224 0.000000
0.921640 0.557952 0.000000
0.958974 0.557684 0.000000
0.996227 0.557419 0.000000
1.000000 0.557283 0.000000
1.000000 0.557478 0.000000
1.000000 0.557558 0.000000
1.000000 0.557558 0.000000
1.000000 0.557558 0.000000
1.000000 0.557558 0.000000
0.000000 0.599491 0.000000
0.018452 0.599100 0.000000
0.061965 0.598709 0.000000
0.104351 0.598333 0.000000
0.145980 0.597967 0.000000
0.187041 0.597610 0.000000
0.227648 0.597261 0.000000
0.267879 0.596919 0.000000
0.307789 0.596584 0.000000
0.347420 0.596254 0.000000
0.386804 0.595930 0.000000
0.425967 0.595611 0.000000
0.464931 0.595297 0.000000
0.503712 0.594989 0.000000
0.542326 0.594685 0.000000
0.580786 0.594385 0.000000
0.619102 0.594091 0.000000
0.657284 0.593800 0.000000
0.695342 0.593514 0.000000
0.733282 0.593232 0.000000
0.771111 0.592954 0.000000
0.808835 0.592680 0.000000
0.846460 0.592410 0.000000
0.883990 0.592144 0.000000
0.921430 0.591881 0.000000
0.958785 0.591623 0.000000
0.996058 0.591368 0.000000
1.000000 0.591257 0.000000
1.000000 0.591462 0.000000
1.000000 0.591546 0.000000
1.000000 0.591546 0.000000
1.000000 0.591546 0.000000
1.000000 0.591546 0.000000
0.000000 0.633156 0.000000
0.017816 0.632767 0.000000
0.061353 0.632388 0.000000
0.103762 0.632023 0.000000
0.145414 0.631668 0.000000
0.186497 0.631322 0.000000
0.227126 0.630984 0.000000
0.267379 0.630652 0.000000
0.307311 0.630327 0.000000
0.346963 0.630008 0.000000
0.386369 0.629694 0.000000
0.425553 0.629385 0.000000
0.464538 0.629082 0.000000
0.503340 0.628783 0.000000
0.541975 0.628489 0.000000
0.580455 0.628200 0.000000
0.618792 0.627915 0.000000
0.656996 0.627635 0.000000
0.695074 0.627359 0.000000
0.733034 0.627086 0.000000
0.770884 0.626818 0.000000
0.808628 0.626554 0.000000
0.846273 0.626294 0.000000
0.883824 0.626038 0.000000
0.921285 0.625785 0.000000
0.958660 0.625537 0.000000
0.995953 0.625292 0.000000
1.000000 0.625207 0.000000
1.000000 0.625421 0.000000
1.000000 0.625509 0.000000
1.000000 0.625509 0.000000
1.000000 0.625509 0.000000
1.000000 0.625509 0.000000
0.000000 0.666799 0.000000
0.017245 0.666413 0.000000
0.060805 0.666045 0.000000
0.103238 0.665690 0.000000
0.144912 0.665347 0.000000
0.186017 0.665011 0.000000
0.226668 0.664683 0.000000
0.266943 0.664362 0.000000
0.306896 0.664048 0.000000
0.346570 0.663739 0.000000
0.385997 0.663435 0.000000
0.425202 0.663137 0.000000
0.464208 0.662844 0.000000
0.503031 0.662555 0.000000
0.541687 0.662272 0.000000
0.580188 0.661993 0.000000
0.618546 0.661718 0.000000
0.656770 0.661447 0.000000
0.694869 0.661181 0.000000
0.732850 0.660919 0.000000
0.770720 0.660660 0.000000
0.808484 0.660406 0.000000
0.846150 0.660156 0.000000
0.883721 0.659909 0.000000
0.921202 0.659667 0.000000
0.958597 0.659428 0.000000
0.995910 0.659192 0.000000
1.000000 0.659134 0.000000
1.000000 0.659359 0.000000
1.000000 0.659451 0.000000
1.000000 0.659451 0.000000
1.000000 0.659451 0.000000
1.000000 0.659451 0.000000
0.000000 0.700418 0.000000
0.016737 0.700038 0.000000
0.060321 0.699681 0.000000
0.102776 0.699338 0.000000
0.144473 0.699005 0.000000
0.185600 0.698681 0.000000
0.226273 0.698364 0.000000
0.266570 0.698053 0.000000
0.306545 0.697749 0.000000
0.346240 0.697450 0.000000
0.385688 0.697157 0.000000
0.424915 0.696869 0.000000
0.463942 0.696586 0.000000
0.502786 0.696308 0.000000
0.541463 0.696034 0.000000
0.579985 0.695765 0.000000
0.618363 0.695500 0.000000
0.656608 0.695240 0.000000
0.694727 0.694983 0.000000
0.732728 0.694731 0.000000
0.770619 0.694483 0.000000
0.808404 0.694238 0.000000
0.846090 0.693998 0.000000
0.883681 0.693761 0.000000
0.921182 0.693528 0.000000
0.958597 0.693299 0.000000
0.995931 0.693073 0.000000
1.000000 0.693043 0.000000
1.000000 0.693277 0.000000
1.000000 0.693373 0.000000
1.000000 0.693373 0.000000
1.000000 0.693373 0.000000
1.000000 0.693373 0.000000
0.000000 0.734014 0.000000
0.016292 0.733646 0.000000
0.059900 0.733301 0.000000
0.102378 0.732969 0.000000
0.144097 0.732647 0.000000
0.185247 0.732333 0.000000
0.225942 0.732026 0.000000
0.266260 0.731727 0.000000
0.306257 0.731433 0.000000
0.345973 0.731144 0.000000
0.385443 0.730861 0.000000
0.424691 0.730584 0.000000
0.463738 0.730311 0.000000
0.502603 0.730043 0.000000
0.541301 0.729779 0.000000
0.579844 0.729520 0.000000
0.618243 0.729265 0.000000
0.656508 0.729014 0.000000
0.694648 0.728768 0.000000
0.732670 0.728526 0.000000
0.770580 0.728287 0.000000
0.808386 0.728053 0.000000
0.846092 0.727822 0.000000
0.883703 0.727595 0.000000
0.921225 0.727372 0.000000
0.958660 0.727152 0.000000
0.996014 0.726936 0.000000
1.000000 0.726934 0.000000
1.000000 0.727179 0.000000
1.000000 0.727279 0.000000
1.000000 0.727279 0.000000
1.000000 0.727279 0.000000
1.000000 0.727279 0.000000
0.000000 0.767595 0.000000
0.015910 0.767239 0.000000
0.059542 0.766905 0.000000
0.102043 0.766584 0.000000
0.143784 0.766273 0.000000
0.184956 0.765970 0.000000
0.225673 0.765674 0.000000
0.266013 0.765384 0.000000
0.306031 0.765101 0.000000
0.345769 0.764823 0.000000
0.385260 0.764550 0.000000
0.424529 0.764283 0.000000
0.463597 0.764020 0.000000
0.502483 0.763762 0.000000
0.541202 0.763508 0.000000
0.579766 0.763259 0.000000
0.618185 0.763014 0.000000
0.656471 0.762774 0.000000
0.694631 0.762537 0.000000
0.732673 0.762305 0.000000
0.770604 0.762076 0.000000
0.808430 0.761851 0.000000
0.846157 0.761630 0.000000
0.883788 0.761413 0.000000
0.921330 0.761200 0.000000
0.958785 0.760990 0.000000
0.996159 0.760784 0.000000
1.000000 0.760811 0.000000
1.000000 0.761065 0.000000
1.000000 0.761169 0.000000
1.000000 0.761169 0.000000
1.000000 0.761169 0.000000
1.000000 0.761169 0.000000
0.000000 0.801162 0.000000
0.015591 0.800818 0.000000
0.059246 0.800496 0.000000
0.101770 0.800186 0.000000
0.143534 0.799886 0.000000
0.184728 0.799593 0.000000
0.225467 0.799308 0.000000
0.265829 0.799029 0.000000
0.305868 0.798756 0.000000
0.345628 0.798488 0.000000
0.385139 0.798226 0.000000
0.424430 0.797969 0.000000
0.463519 0.797716 0.000000
0.502426 0.797468 0.000000
0.541165 0.797225 0.000000
0.579750 0.796985 0.000000
0.618190 0.796750 0.000000
0.656496 0.796520 0.000000
0.694677 0.796293 0.000000
0.732740 0.796070 0.000000
0.770691 0.795851 0.000000
0.808537 0.795637 0.000000
0.846284 0.795425 0.000000
0.883935 0.795218 0.000000
0.921497 0.795014 0.000000
0.958973 0.794814 0.000000
0.996366 0.794618 0.000000
1.000000 0.794674 0.000000
1.000000 0.794939 0.000000
1.000000 0.795047 0.000000
1.000000 0.795047 0.000000
1.000000 0.795047 0.000000
1.000000 0.795047 0.000000
0.000000 0.834718 0.000000
0.015335 0.834386 0.000000
0.059013 0.834075 0.000000
0.101560 0.833776 0.000000
0.143346 0.833487 0.000000
0.184562 0.833205 0.000000
0.225323 0.832930 0.000000
0.265706 0.832662 0.000000
0.305768 0.832399 0.000000
0.345548 0.832142 0.000000
0.385081 0.831889 0.000000
0.424392 0.831642 0.000000
0.463503 0.831400 0.000000
0.502431 0.831162 0.000000
0.541191 0.830929 0.000000
0.579796 0.830699 0.000000
0.618257 0.830474 0.000000
0.656583 0.830254 0.000000
0.694784 0.830037 0.000000
0.732867 0.829824 0.000000
0.770839 0.829615 0.000000
0.808706 0.829410 0.000000
0.846472 0.829208 0.000000
0.884144 0.829011 0.000000
0.921726 0.828817 0.000000
0.959222 0.828626 0.000000
0.996635 0.828439 0.000000
1.000000 0.828527 0.000000
1.000000 0.828801 0.000000
1.000000 0.828913 0.000000
1.000000 0.828913 0.000000
1.000000 0.828913 0.000000
1.000000 0.828913 0.000000
0.000000 0.868264 0.000000
0.015141 0.867944 0.000000
0.058842 0.867644 0.000000
0.101412 0.867356 0.000000
0.143221 0.867078 0.000000
0.184459 0.866807 0.000000
0.225241 0.866542 0.000000
0.265646 0.866284 0.000000
0.305729 0.866032 0.000000
0.345531 0.865785 0.000000
0.385085 0.865543 0.000000
0.424417 0.865306 0.000000
0.463549 0.865074 0.000000
0.502497 0.864846 0.000000
0.541278 0.864622 0.000000
0.579903 0.864403 0.000000
0.618385 0.864188 0.000000
0.656732 0.863977 0.000000
0.694954 0.863770 0.000000
0.733057 0.863567 0.000000
0.771049 0.863368 0.000000
0.808936 0.863173 0.000000
0.846723 0.862981 0.000000
0.884415 0.862793 0.000000
0.922017 0.862609 0.000000
0.959532 0.862428 0.000000
0.996966 0.862251 0.000000
