assets/luts/Golden Hour.cube
# StudioPhoto — LUT d'exemple : Golden Hour
TITLE "Golden Hour"
LUT_3D_SIZE 9
0.000000 0.000000 0.000000
0.167086 0.000000 0.000000
0.327257 0.000000 0.000000
0.482811 0.000000 0.000000
0.635429 0.000000 0.000000
0.785910 0.000000 0.000000
0.934721 0.000000 0.000000
1.000000 0.000000 0.000000
1.000000 0.000000 0.000000
0.000000 0.123170 0.000000
0.160899 0.121045 0.000000
0.321457 0.119056 0.000000
0.477384 0.117183 0.000000
0.630364 0.115401 0.000000
0.781200 0.113697 0.000000
0.930360 0.112064 0.000000
1.000000 0.110938 0.000000
1.000000 0.110964 0.000000
0.000000 0.260803 0.000000
0.155249 0.258868 0.000000
0.316170 0.257055 0.000000
0.472449 0.255352 0.000000
0.625775 0.253737 0.000000
0.776952 0.252198 0.000000
0.926449 0.250728 0.000000
1.000000 0.249790 0.000000
1.000000 0.249833 0.000000
0.000000 0.396868 0.000000
0.150739 0.395108 0.000000
0.312018 0.393468 0.000000
0.468644 0.391933 0.000000
0.622311 0.390482 0.000000
0.773823 0.389105 0.000000
0.923651 0.387796 0.000000
1.000000 0.387057 0.000000
1.000000 0.387117 0.000000
0.000000 0.532086 0.000000
0.147305 0.530487 0.000000
0.308938 0.529018 0.000000
0.465909 0.527650 0.000000
0.619912 0.526362 0.000000
0.771756 0.525145 0.000000
0.921913 0.523994 0.000000
1.000000 0.523465 0.000000
1.000000 0.523541 0.000000
0.000000 0.666799 0.000000
0.144912 0.665347 0.000000
0.306896 0.664048 0.000000
0.464208 0.662844 0.000000
0.618546 0.661718 0.000000
0.770720 0.660660 0.000000
0.921202 0.659667 0.000000
1.000000 0.659359 0.000000
1.000000 0.659451 0.000000
0.000000 0.801162 0.000000
0.143534 0.799886 0.000000
0.305868 0.798756 0.000000
0.463519 0.797716 0.000000
0.618190 0.796750 0.000000
0.770691 0.795851 0.000000
0.921497 0.795014 0.000000
1.000000 0.794939 0.000000
1.000000 0.795047 0.000000
0.000000 0.935331 0.000000
0.143155 0.934235 0.000000
0.305837 0.933273 0.000000
0.463825 0.932396 0.000000
0.618827 0.931591 0.000000
0.771654 0.930850 0.000000
0.922782 0.930168 0.000000
1.000000 0.930336 0.000000
1.000000 0.930460 0.000000
0.000000 1.000000 0.000000
0.146025 1.000000 0.000000
0.309104 1.000000 0.000000
0.467479 1.000000 0.000000
0.622863 1.000000 0.000000
0.776069 1.000000 0.000000
0.927573 1.000000 0.000000
1.000000 1.000000 0.000000
1.000000 1.000000 0.000000
0.000000 0.000000 0.076771
0.166648 0.000000 0.075047
0.326849 0.000000 0.073330
0.482432 0.000000 0.071613
0.635078 0.000000 0.069880
0.785586 0.000000 0.068124
0.934426 0.000000 0.066343
1.000000 0.000000 0.064960
1.000000 0.000000 0.064956
0.000000 0.122823 0.072304
0.160553 0.120713 0.070421
0.321140 0.118738 0.068539
0.477096 0.116879 0.066658
0.630105 0.115110 0.064763
0.780968 0.113420 0.062846
0.930157 0.111801 0.060902
1.000000 0.110690 0.059371
1.000000 0.110718 0.059351
0.000000 0.260498 0.066726
0.154991 0.258578 0.064665
0.315941 0.256780 0.062615
0.472250 0.255092 0.060571
0.625605 0.253491 0.058516
0.776810 0.251966 0.056441
0.926336 0.250510 0.054342
1.000000 0.249590 0.052686
1.000000 0.249635 0.052651
0.000000 0.396607 0.060758
0.150569 0.394862 0.058508
0.311878 0.393238 0.056293
0.468535 0.391718 0.054089
0.622231 0.390282 0.051876
0.773772 0.388920 0.049646
0.923630 0.387625 0.047394
1.000000 0.386905 0.045628
1.000000 0.386966 0.045578
0.000000 0.531871 0.054386
0.147224 0.530286 0.051937
0.308889 0.528833 0.049558
0.465890 0.527480 0.047195
0.619924 0.526208 0.044826
0.771797 0.525007 0.042443
0.921984 0.523871 0.040039
1.000000 0.523363 0.038177
1.000000 0.523440 0.038112
0.000000 0.666630 0.047605
0.144921 0.665192 0.044945
0.306938 0.663909 0.042404
0.464281 0.662722 0.039883
0.618650 0.661612 0.037360
0.770853 0.660571 0.034825
0.921366 0.659593 0.032270
1.000000 0.659307 0.030325
1.000000 0.659401 0.030246
0.000000 0.801037 0.040367
0.143635 0.799779 0.037533
0.306002 0.798666 0.034829
0.463685 0.797643 0.032152
0.618387 0.796694 0.029476
0.770919 0.795812 0.026789
0.921756 0.794991 0.024084
1.000000 0.794940 0.022070
1.000000 0.795049 0.021976
0.000000 0.935255 0.032705
0.143349 0.934177 0.029699
0.306064 0.933233 0.026835
0.464085 0.932374 0.024002
0.619118 0.931586 0.021172
0.771977 0.930862 0.018334
0.923136 0.930197 0.015481
1.000000 0.930390 0.013409
1.000000 0.930516 0.013301
0.000000 1.000000 0.026848
0.146325 1.000000 0.023722
0.309438 1.000000 0.020749
0.467847 1.000000 0.017812
0.623264 1.000000 0.014883
0.776503 1.000000 0.011950
0.928040 1.000000 0.009005
1.000000 1.000000 0.006946
1.000000 1.000000 0.006829
0.000000 0.000000 0.197204
0.166036 0.000000 0.195468
0.326268 0.000000 0.193738
0.481882 0.000000 0.192007
0.634558 0.000000 0.190261
0.785096 0.000000 0.188493
0.933965 0.000000 0.186699
1.000000 0.000000 0.185304
1.000000 0.000000 0.185299
0.000000 0.122302 0.192698
0.160038 0.120209 0.190801
0.320656 0.118249 0.188904
0.476642 0.116404 0.187010
0.629680 0.114650 0.185101
0.780573 0.112974 0.183170
0.929790 0.111369 0.181213
1.000000 0.110274 0.179671
1.000000 0.110303 0.179650
0.000000 0.260023 0.187078
0.154568 0.258119 0.185002
0.315549 0.256336 0.182937
0.471888 0.254662 0.180880
0.625273 0.253075 0.178811
0.776507 0.251564 0.176723
0.926061 0.250123 0.174611
1.000000 0.249219 0.172945
1.000000 0.249265 0.172909
0.000000 0.396177 0.181070
0.150237 0.394446 0.178804
0.311577 0.392837 0.176574
0.468264 0.391331 0.174356
0.621989 0.389910 0.172130
0.773559 0.388562 0.169887
0.923445 0.387281 0.167621
1.000000 0.386579 0.165846
1.000000 0.386642 0.165795
0.000000 0.531485 0.174658
0.146982 0.529914 0.172191
0.308677 0.528476 0.169797
0.465708 0.527137 0.167421
0.619771 0.525879 0.165039
0.771674 0.524692 0.162642
0.921889 0.523570 0.160225
1.000000 0.523081 0.158355
1.000000 0.523160 0.158289
0.000000 0.666286 0.167835
0.144767 0.664862 0.165158
0.306815 0.663595 0.162602
0.464188 0.662422 0.160068
0.618586 0.661326 0.157532
0.770819 0.660299 0.154982
0.921360 0.659335 0.152415
1.000000 0.659070 0.150463
1.000000 0.659165 0.150382
0.000000 0.800735 0.160555
0.143570 0.799492 0.157705
0.305967 0.798394 0.154987
0.463680 0.797386 0.152296
0.618412 0.796451 0.149606
0.770973 0.795583 0.146906
0.921838 0.794777 0.144188
1.000000 0.794746 0.142168
1.000000 0.794857 0.142073
0.000000 0.934995 0.152852
0.143371 0.933933 0.149830
0.306117 0.933004 0.146952
0.464168 0.932160 0.144105
0.619231 0.931386 0.141262
0.772118 0.930676 0.138411
0.923307 0.930025 0.135545
1.000000 0.930241 0.133468
1.000000 0.930368 0.133358
0.000000 1.000000 0.146967
0.146448 1.000000 0.143826
0.309592 1.000000 0.140839
0.468032 1.000000 0.137889
0.623479 1.000000 0.134947
0.776747 1.000000 0.132001
0.928314 1.000000 0.129044
1.000000 1.000000 0.126982
1.000000 1.000000 0.126864
0.000000 0.000000 0.319539
0.165422 0.000000 0.317789
0.325686 0.000000 0.316045
0.481331 0.000000 0.314301
0.634037 0.000000 0.312542
0.784605 0.000000 0.310761
0.933504 0.000000 0.308954
1.000000 0.000000 0.307547
1.000000 0.000000 0.307541
0.000000 0.121777 0.314992
0.159524 0.119701 0.313079
0.320173 0.117756 0.311169
0.476189 0.115926 0.309260
0.629257 0.114186 0.307337
0.780179 0.112525 0.305393
0.929425 0.110934 0.303423
1.000000 0.109854 0.301870
1.000000 0.109885 0.301847
0.000000 0.259544 0.309330
0.154146 0.257656 0.307238
0.315159 0.255888 0.305159
0.471529 0.254229 0.303087
0.624943 0.252657 0.301005
0.776206 0.251160 0.298903
0.925790 0.249732 0.296777
1.000000 0.248846 0.295101
1.000000 0.248893 0.295064
0.000000 0.395744 0.303281
0.149907 0.394028 0.300997
0.311279 0.392434 0.298753
0.467996 0.390943 0.296521
0.621751 0.389536 0.294281
0.773351 0.388202 0.292024
0.923266 0.386935 0.289745
1.000000 0.386252 0.287962
1.000000 0.386316 0.287909
0.000000 0.531097 0.296828
0.146743 0.529539 0.294342
0.308470 0.528117 0.291934
0.465531 0.526793 0.289543
0.619624 0.525549 0.287148
0.771556 0.524377 0.284737
0.921800 0.523269 0.282307
1.000000 0.522799 0.280429
1.000000 0.522879 0.280362
0.000000 0.665940 0.289960
0.144619 0.664532 0.287268
0.306698 0.663280 0.284698
0.464101 0.662121 0.282149
0.618530 0.661040 0.279599
0.770792 0.660027 0.277036
0.921362 0.659078 0.274455
1.000000 0.658833 0.272497
1.000000 0.658929 0.272415
0.000000 0.800431 0.282638
0.143511 0.799205 0.279773
0.305940 0.798123 0.277041
0.463683 0.797129 0.274336
0.618445 0.796209 0.271632
0.771035 0.795355 0.268918
0.921930 0.794562 0.266187
1.000000 0.794553 0.264161
1.000000 0.794666 0.264065
0.000000 0.934735 0.274895
0.143402 0.933690 0.271858
0.306179 0.932776 0.268965
0.464261 0.931946 0.266104
0.619353 0.931186 0.263247
0.772271 0.930490 0.260382
0.923488 0.929854 0.257502
1.000000 0.930092 0.255421
1.000000 0.930221 0.255310
0.000000 1.000000 0.268981
0.146581 1.000000 0.265825
0.309757 1.000000 0.262824
0.468228 1.000000 0.259861
0.623705 1.000000 0.256906
0.777004 1.000000 0.253947
0.928600 1.000000 0.250977
1.000000 1.000000 0.248912
1.000000 1.000000 0.248793
0.000000 0.000000 0.443123
0.164810 0.000000 0.441360
0.325106 0.000000 0.439602
0.480783 0.000000 0.437844
0.633520 0.000000 0.436071
0.784119 0.000000 0.434277
0.933047 0.000000 0.432458
1.000000 0.000000 0.431039
1.000000 0.000000 0.431031
0.000000 0.121251 0.438534
0.159012 0.119191 0.436607
0.319693 0.117262 0.434682
0.475739 0.115447 0.432759
0.628838 0.113722 0.430822
0.779790 0.112075 0.428864
0.929065 0.110498 0.426880
1.000000 0.109435 0.425316
1.000000 0.109467 0.425292
0.000000 0.259065 0.432831
0.153728 0.257192 0.430722
0.314773 0.255440 0.428628
0.471173 0.253796 0.426543
0.624618 0.252238 0.424446
0.775911 0.250756 0.422331
0.925524 0.249342 0.420191
1.000000 0.248473 0.418505
1.000000 0.248522 0.418466
0.000000 0.395310 0.426739
0.149582 0.393609 0.424438
0.310986 0.392030 0.422180
0.467733 0.390555 0.419933
0.621519 0.389162 0.417680
0.773148 0.387843 0.415409
0.923093 0.386590 0.413116
1.000000 0.385925 0.411324
1.000000 0.385991 0.411270
0.000000 0.530710 0.420245
0.146510 0.529165 0.417741
0.308268 0.527758 0.415319
0.465361 0.526449 0.412914
0.619484 0.525220 0.410504
0.771446 0.524062 0.408080
0.921719 0.522968 0.405636
1.000000 0.522518 0.403750
1.000000 0.522600 0.403682
0.000000 0.665593 0.413333
0.144477 0.664202 0.410625
0.306588 0.662965 0.408040
0.464022 0.661822 0.405477
0.618481 0.660755 0.402913
0.770773 0.659756 0.400337
0.921372 0.658821 0.397742
1.000000 0.658597 0.395777
1.000000 0.658695 0.395694
0.000000 0.800128 0.405969
0.143460 0.798919 0.403088
0.305921 0.797852 0.400342
0.463695 0.796873 0.397622
0.618487 0.795968 0.394904
0.771107 0.795128 0.392176
0.922031 0.794350 0.389432
1.000000 0.794363 0.387401
1.000000 0.794477 0.387303
0.000000 0.934476 0.398184
0.143441 0.933447 0.395131
0.306250 0.932549 0.392224
0.464362 0.931734 0.389348
0.619486 0.930989 0.386477
0.772432 0.930307 0.383599
0.923679 0.929685 0.380705
1.000000 0.929947 0.378620
1.000000 0.930077 0.378508
0.000000 1.000000 0.392241
0.146723 1.000000 0.389070
0.309932 1.000000 0.386055
0.468434 1.000000 0.383078
0.623943 1.000000 0.380110
0.777271 1.000000 0.377138
0.928897 1.000000 0.374155
1.000000 1.000000 0.372088
1.000000 1.000000 0.371967
0.000000 0.000000 0.567643
0.164201 0.000000 0.565867
0.324531 0.000000 0.564094
0.480239 0.000000 0.562323
0.633007 0.000000 0.560537
0.783636 0.000000 0.558730
0.932595 0.000000 0.556897
1.000000 0.000000 0.555467
1.000000 0.000000 0.555458
0.000000 0.120725 0.563013
0.158504 0.118682 0.561071
0.319217 0.116769 0.559130
0.475295 0.114969 0.557193
0.628424 0.113258 0.555243
0.779406 0.111625 0.553271
0.928711 0.110063 0.551273
1.000000 0.109016 0.549698
1.000000 0.109050 0.549673
0.000000 0.258586 0.557267
0.153316 0.256729 0.555142
0.314393 0.254992 0.553033
0.470824 0.253363 0.550933
0.624299 0.251820 0.548823
0.775622 0.250352 0.546693
0.925264 0.248953 0.544540
1.000000 0.248102 0.542844
1.000000 0.248152 0.542804
0.000000 0.394878 0.551134
0.149263 0.393191 0.548815
0.310699 0.391628 0.546541
0.467477 0.390167 0.544281
0.621294 0.388789 0.542013
0.772953 0.387484 0.539729
0.922927 0.386246 0.537422
1.000000 0.385600 0.535621
1.000000 0.385667 0.535566
0.000000 0.530323 0.544598
0.146284 0.528792 0.542075
0.308074 0.527400 0.539638
0.465197 0.526106 0.537218
0.619351 0.524892 0.534795
0.771343 0.523748 0.532357
0.921646 0.522669 0.529899
1.000000 0.522239 0.528006
1.000000 0.522323 0.527936
0.000000 0.665248 0.537640
0.144343 0.663873 0.534916
0.306486 0.662652 0.532317
0.463951 0.661524 0.529739
0.618440 0.660472 0.527161
0.770762 0.659488 0.524571
0.921391 0.658567 0.521963
1.000000 0.658364 0.519991
1.000000 0.658463 0.519906
0.000000 0.799828 0.530234
0.143417 0.798635 0.527337
0.305910 0.797583 0.524576
0.463715 0.796619 0.521842
0.618537 0.795729 0.519110
0.771187 0.794904 0.516369
0.922141 0.794139 0.513611
1.000000 0.794175 0.511574
1.000000 0.794291 0.511474
0.000000 0.934219 0.522407
0.143489 0.933207 0.519338
0.306330 0.932324 0.516416
0.464473 0.931524 0.513526
0.619627 0.930794 0.510642
0.772604 0.930127 0.507749
0.923880 0.929519 0.504842
1.000000 0.929804 0.502752
1.000000 0.929936 0.502639
0.000000 1.000000 0.516435
0.146875 1.000000 0.513249
0.310117 1.000000 0.510220
0.468651 1.000000 0.507230
0.624190 1.000000 0.504248
0.777549 1.000000 0.501263
0.929206 1.000000 0.498266
1.000000 1.000000 0.496197
1.000000 1.000000 0.496075
0.000000 0.000000 0.692914
0.163598 0.000000 0.691124
0.323960 0.000000 0.689338
0.479700 0.000000 0.687553
0.632500 0.000000 0.685753
0.783160 0.000000 0.683933
0.932149 0.000000 0.682087
1.000000 0.000000 0.680645
1.000000 0.000000 0.680635
0.000000 0.120199 0.688243
0.158002 0.118174 0.686284
0.318747 0.116276 0.684329
0.474856 0.114491 0.682378
0.628015 0.112795 0.680413
0.779027 0.111177 0.678427
0.928362 0.109629 0.676416
1.000000 0.108599 0.674829
1.000000 0.108635 0.674803
0.000000 0.258108 0.682454
0.152909 0.256267 0.680311
0.314018 0.254546 0.678188
0.470481 0.252932 0.676074
0.623986 0.251403 0.673949
0.775340 0.249950 0.671806
0.925012 0.248566 0.669639
1.000000 0.247732 0.667933
1.000000 0.247784 0.667891
0.000000 0.394447 0.676278
0.148950 0.392775 0.673941
0.310418 0.391227 0.671653
0.467228 0.389781 0.669378
0.621075 0.388419 0.667096
0.772764 0.387128 0.664797
0.922769 0.385904 0.662477
1.000000 0.385277 0.660667
1.000000 0.385346 0.660611
0.000000 0.529938 0.669700
0.146064 0.528421 0.667158
0.307887 0.527045 0.664706
0.465042 0.525766 0.662272
0.619226 0.524566 0.659835
0.771248 0.523437 0.657383
0.921581 0.522373 0.654911
1.000000 0.521963 0.653010
1.000000 0.522048 0.652939
0.000000 0.664905 0.662696
0.144216 0.663547 0.659957
0.306391 0.662341 0.657342
0.463887 0.661228 0.654751
0.618407 0.660191 0.652158
0.770759 0.659221 0.649554
0.921418 0.658315 0.646932
1.000000 0.658133 0.644954
1.000000 0.658234 0.644868
0.000000 0.799529 0.655248
0.143382 0.798353 0.652336
0.305907 0.797317 0.649559
0.463744 0.796368 0.646811
0.618596 0.795492 0.644065
0.771277 0.794682 0.641309
0.922260 0.793932 0.638538
1.000000 0.793990 0.636495
1.000000 0.794107 0.636395
0.000000 0.933965 0.647379
0.143546 0.932969 0.644294
0.306419 0.932102 0.641357
0.464593 0.931317 0.638453
0.619778 0.930602 0.635554
0.772784 0.929949 0.632648
0.924091 0.929356 0.629727
1.000000 0.929664 0.627633
1.000000 0.929798 0.627518
0.000000 1.000000 0.641378
0.147037 1.000000 0.638177
0.310311 1.000000 0.635134
0.468877 1.000000 0.632129
0.624448 1.000000 0.629134
0.777837 1.000000 0.626136
0.929524 1.000000 0.623126
1.000000 1.000000 0.621054
1.000000 1.000000 0.620931
0.000000 0.000000 0.818813
0.163001 0.000000 0.817009
0.323396 0.000000 0.815208
0.479168 0.000000 0.813410
0.631999 0.000000 0.811597
0.782690 0.000000 0.809763
0.931710 0.000000 0.807904
1.000000 0.000000 0.806449
1.000000 0.000000 0.806438
0.000000 0.119676 0.814099
0.157505 0.117667 0.812125
0.318283 0.115785 0.810155
0.474423 0.114015 0.808189
0.627614 0.112334 0.806210
0.778656 0.110731 0.804210
0.928021 0.109197 0.802185
1.000000 0.108185 0.800587
1.000000 0.108221 0.800559
0.000000 0.257632 0.808267
0.152509 0.255807 0.806107
0.313650 0.254101 0.803969
0.470144 0.252502 0.801840
0.623681 0.250989 0.799702
0.775064 0.249551 0.797544
0.924766 0.248181 0.795364
1.000000 0.247365 0.793648
1.000000 0.247419 0.793605
0.000000 0.394018 0.802049
0.148645 0.392361 0.799694
0.310145 0.390828 0.797390
0.466986 0.389398 0.795101
0.620864 0.388050 0.792805
0.772584 0.386774 0.790492
0.922618 0.385565 0.788159
1.000000 0.384957 0.786339
1.000000 0.385027 0.786282
0.000000 0.529556 0.795429
0.145852 0.528052 0.792867
0.307707 0.526691 0.790400
0.464893 0.525428 0.787952
0.619108 0.524243 0.785500
0.771161 0.523129 0.783034
0.921524 0.522079 0.780549
1.000000 0.521689 0.778640
1.000000 0.521776 0.778568
0.000000 0.664564 0.788379
0.144097 0.663223 0.785623
0.306304 0.662033 0.782994
0.463832 0.660935 0.780388
0.618382 0.659913 0.777781
0.770765 0.658958 0.775163
0.921454 0.658066 0.772527
1.000000 0.657906 0.770543
1.000000 0.658008 0.770455
0.000000 0.799233 0.780888
0.143356 0.798074 0.777959
0.305913 0.797053 0.775168
0.463781 0.796120 0.772405
0.618664 0.795259 0.769645
0.771375 0.794463 0.766876
0.922388 0.793728 0.764090
1.000000 0.793809 0.762042
1.000000 0.793927 0.761940
0.000000 0.933713 0.772976
0.143611 0.932735 0.769875
0.306517 0.931883 0.766923
0.464723 0.931113 0.764005
0.619937 0.930413 0.761092
0.772975 0.929775 0.758171
0.924311 0.929196 0.755237
1.000000 0.929529 0.753139
1.000000 0.929663 0.753022
0.000000 1.000000 0.766946
0.147208 1.000000 0.763730
0.310515 1.000000 0.760673
0.469113 1.000000 0.757654
0.624715 1.000000 0.754646
0.778136 1.000000 0.751634
0.929853 1.000000 0.748611
1.000000 1.000000 0.746536
1.000000 1.000000 0.746412
0.000000 0.000000 0.945250
0.162409 0.000000 0.943432
0.322838 0.000000 0.941617
0.478642 0.000000 0.939805
0.631504 0.000000 0.937978
0.782226 0.000000 0.936131
0.931277 0.000000 0.934258
1.000000 0.000000 0.932793
1.000000 0.000000 0.932780
0.000000 0.119154 0.940493
0.157016 0.117163 0.938503
0.317826 0.115296 0.936518
0.473998 0.113542 0.934538
0.627219 0.111876 0.932545
0.778292 0.110287 0.930531
0.927687 0.108768 0.928492
1.000000 0.107772 0.926883
1.000000 0.107810 0.926854
0.000000 0.257158 0.934618
0.152116 0.255349 0.932441
0.313290 0.253659 0.930288
0.469815 0.252075 0.928145
0.623382 0.250577 0.925992
0.774796 0.249154 0.923820
0.924528 0.247798 0.921626
1.000000 0.247001 0.919900
1.000000 0.247056 0.919856
0.000000 0.393591 0.928357
0.148347 0.391949 0.925984
0.309879 0.390432 0.923665
0.466752 0.389017 0.921362
0.620661 0.387684 0.919051
0.772411 0.386423 0.916725
0.922475 0.385228 0.914377
1.000000 0.384640 0.912549
1.000000 0.384712 0.912490
0.000000 0.529176 0.921695
0.145648 0.527686 0.919114
0.307536 0.526341 0.916632
0.464753 0.525092 0.914169
0.618999 0.523923 0.911703
0.771082 0.522823 0.909223
0.921475 0.521787 0.906724
1.000000 0.521419 0.904808
1.000000 0.521507 0.904734
0.000000 0.664226 0.914598
0.143986 0.662902 0.911827
0.306226 0.661728 0.909182
0.463785 0.660645 0.906562
0.618366 0.659637 0.903941
0.770779 0.658697 0.901309
0.921499 0.657820 0.898659
1.000000 0.657682 0.896668
1.000000 0.657786 0.896580
0.000000 0.798940 0.907065
0.143338 0.797797 0.904120
0.305928 0.796793 0.901314
0.463827 0.795874 0.898537
0.618741 0.795028 0.895762
0.771482 0.794247 0.892979
0.922526 0.793527 0.890179
1.000000 0.793631 0.888126
1.000000 0.793751 0.888023
0.000000 0.933465 0.899111
0.143686 0.932503 0.895994
0.306624 0.931667 0.893027
0.464861 0.930913 0.890094
0.620107 0.930227 0.887166
0.773174 0.929604 0.884232
0.924541 0.929040 0.881284
1.000000 0.929396 0.879181
1.000000 0.929533 0.879064
0.000000 1.000000 0.893052
0.147388 1.000000 0.889820
0.310729 1.000000 0.886749
0.469359 1.000000 0.883716
0.624992 1.000000 0.880694
0.778444 1.000000 0.877669
0.930193 1.000000 0.874633
1.000000 1.000000 0.872556
1.000000 1.000000 0.872430
