assets/luts/Golden Hour.cube
# StudioPhoto — LUT d'exemple : Golden Hour
TITLE "Golden Hour"
LUT_3D_SIZE 5
0.000000 0.000000 0.000000
0.327257 0.000000 0.000000
0.635429 0.000000 0.000000
0.934721 0.000000 0.000000
1.000000 0.000000 0.000000
0.000000 0.260803 0.000000
0.316170 0.257055 0.000000
0.625775 0.253737 0.000000
0.926449 0.250728 0.000000
1.000000 0.249833 0.000000
0.000000 0.532086 0.000000
0.308938 0.529018 0.000000
0.619912 0.526362 0.000000
0.921913 0.523994 0.000000
1.000000 0.523541 0.000000
0.000000 0.801162 0.000000
0.305868 0.798756 0.000000
0.618190 0.796750 0.000000
0.921497 0.795014 0.000000
1.000000 0.795047 0.000000
0.000000 1.000000 0.000000
0.309104 1.000000 0.000000
0.622863 1.000000 0.000000
0.927573 1.000000 0.000000
1.000000 1.000000 0.000000
0.000000 0.000000 0.197204
0.326268 0.000000 0.193738
0.634558 0.000000 0.190261
0.933965 0.000000 0.186699
1.000000 0.000000 0.185299
0.000000 0.260023 0.187078
0.315549 0.256336 0.182937
0.625273 0.253075 0.178811
0.926061 0.250123 0.174611
1.000000 0.249265 0.172909
0.000000 0.531485 0.174658
0.308677 0.528476 0.169797
0.619771 0.525879 0.165039
0.921889 0.523570 0.160225
1.000000 0.523160 0.158289
0.000000 0.800735 0.160555
0.305967 0.798394 0.154987
0.618412 0.796451 0.149606
0.921838 0.794777 0.144188
1.000000 0.794857 0.142073
0.000000 1.000000 0.146967
0.309592 1.000000 0.140839
0.623479 1.000000 0.134947
0.928314 1.000000 0.129044
1.000000 1.000000 0.126864
0.000000 0.000000 0.443123
0.325106 0.000000 0.439602
0.633520 0.000000 0.436071
0.933047 0.000000 0.432458
1.000000 0.000000 0.431031
0.000000 0.259065 0.432831
0.314773 0.255440 0.428628
0.624618 0.252238 0.424446
0.925524 0.249342 0.420191
1.000000 0.248522 0.418466
0.000000 0.530710 0.420245
0.308268 0.527758 0.415319
0.619484 0.525220 0.410504
0.921719 0.522968 0.405636
1.000000 0.522600 0.403682
0.000000 0.800128 0.405969
0.305921 0.797852 0.400342
0.618487 0.795968 0.394904
0.922031 0.794350 0.389432
1.000000 0.794477 0.387303
0.000000 1.000000 0.392241
0.309932 1.000000 0.386055
0.623943 1.000000 0.380110
0.928897 1.000000 0.374155
1.000000 1.000000 0.371967
0.000000 0.000000 0.692914
0.323960 0.000000 0.689338
0.632500 0.000000 0.685753
0.932149 0.000000 0.682087
1.000000 0.000000 0.680635
0.000000 0.258108 0.682454
0.314018 0.254546 0.678188
0.623986 0.251403 0.673949
0.925012 0.248566 0.669639
1.000000 0.247784 0.667891
0.000000 0.529938 0.669700
0.307887 0.527045 0.664706
0.619226 0.524566 0.659835
0.921581 0.522373 0.654911
1.000000 0.522048 0.652939
0.000000 0.799529 0.655248
0.305907 0.797317 0.649559
0.618596 0.795492 0.644065
0.922260 0.793932 0.638538
1.000000 0.794107 0.636395
0.000000 1.000000 0.641378
0.310311 1.000000 0.635134
0.624448 1.000000 0.629134
0.929524 1.000000 0.623126
1.000000 1.000000 0.620931
0.000000 0.000000 0.945250
0.322838 0.000000 0.941617
0.631504 0.000000 0.937978
0.931277 0.000000 0.934258
1.000000 0.000000 0.932780
0.000000 0.257158 0.934618
0.313290 0.253659 0.930288
0.623382 0.250577 0.925992
0.924528 0.247798 0.921626
1.000000 0.247056 0.919856
0.000000 0.529176 0.921695
0.307536 0.526341 0.916632
0.618999 0.523923 0.911703
0.921475 0.521787 0.906724
1.000000 0.521507 0.904734
0.000000 0.798940 0.907065
0.305928 0.796793 0.901314
0.618741 0.795028 0.895762
0.922526 0.793527 0.890179
1.000000 0.793751 0.888023
0.000000 1.000000 0.893052
0.310729 1.000000 0.886749
0.624992 1.000000 0.880694
0.930193 1.000000 0.874633
1.000000 1.000000 0.872430
