assets/luts/Light & Airy.cube
# StudioPhoto — LUT d'exemple : Light & Airy
TITLE "Light & Airy"
LUT_3D_SIZE 33
0.093270 0.097649 0.106192
0.130902 0.098066 0.106608
0.165434 0.098448 0.106990
0.198111 0.098810 0.107352
0.229480 0.099157 0.107699
0.259845 0.099493 0.108035
0.289401 0.099820 0.108362
0.318284 0.100139 0.108682
0.346590 0.100453 0.108995
0.374394 0.100760 0.109303
0.401754 0.101063 0.109605
0.428717 0.101361 0.109904
0.455321 0.101656 0.110198
0.481599 0.101947 0.110489
0.507577 0.102234 0.110776
0.533278 0.102518 0.111061
0.558722 0.102800 0.111342
0.583928 0.103079 0.111621
0.608910 0.103355 0.111898
0.633682 0.103629 0.112172
0.658256 0.103901 0.112444
0.682643 0.104171 0.112714
0.706853 0.104439 0.112981
0.730894 0.104705 0.113247
0.754776 0.104969 0.113512
0.778505 0.105232 0.113774
0.802088 0.105493 0.114035
0.825532 0.105752 0.114295
0.848842 0.106010 0.114553
0.872023 0.106267 0.114809
0.895081 0.106522 0.115064
0.918020 0.106776 0.115318
0.918935 0.106786 0.115328
0.094619 0.134842 0.107541
0.132251 0.135258 0.107957
0.166784 0.135640 0.108340
0.199461 0.136002 0.108701
0.230829 0.136349 0.109048
0.261194 0.136685 0.109384
0.290751 0.137012 0.109711
0.319633 0.137332 0.110031
0.347939 0.137645 0.110344
0.375743 0.137953 0.110652
0.403103 0.138255 0.110955
0.430066 0.138554 0.111253
0.456671 0.138848 0.111547
0.482948 0.139139 0.111838
0.508926 0.139426 0.112126
0.534627 0.139711 0.112410
0.560072 0.139992 0.112692
0.585277 0.140271 0.112970
0.610259 0.140548 0.113247
0.635031 0.140822 0.113521
0.659605 0.141094 0.113793
0.683992 0.141364 0.114063
0.708202 0.141632 0.114331
0.732244 0.141898 0.114597
0.756125 0.142162 0.114861
0.779854 0.142424 0.115124
0.803438 0.142685 0.115385
0.826881 0.142945 0.115644
0.850191 0.143203 0.115902
0.873373 0.143459 0.116158
0.896430 0.143714 0.116414
0.919369 0.143968 0.116667
0.920285 0.143978 0.116677
0.095873 0.169386 0.108794
0.133504 0.169802 0.109211
0.168037 0.170184 0.109593
0.200714 0.170546 0.109954
0.232082 0.170893 0.110301
0.262447 0.171229 0.110637
0.292004 0.171556 0.110964
0.320886 0.171875 0.111284
0.349192 0.172189 0.111597
0.376996 0.172496 0.111905
0.404356 0.172799 0.112208
0.431320 0.173097 0.112506
0.457924 0.173392 0.112800
0.484201 0.173683 0.113091
0.510179 0.173970 0.113379
0.535880 0.174254 0.113663
0.561325 0.174536 0.113945
0.586530 0.174815 0.114224
0.611512 0.175091 0.114500
0.636284 0.175366 0.114774
0.660858 0.175637 0.115046
0.685245 0.175907 0.115316
0.709455 0.176175 0.115584
0.733497 0.176441 0.115850
0.757379 0.176706 0.116114
0.781108 0.176968 0.116377
0.804691 0.177229 0.116638
0.828134 0.177488 0.116897
0.851444 0.177746 0.117155
0.874626 0.178003 0.117412
0.897684 0.178258 0.117667
0.920622 0.178512 0.117921
0.921538 0.178522 0.117931
0.097066 0.202277 0.109987
0.134698 0.202694 0.110404
0.169230 0.203076 0.110786
0.201907 0.203437 0.111147
0.233275 0.203784 0.111495
0.263640 0.204120 0.111831
0.293197 0.204448 0.112158
0.322079 0.204767 0.112477
0.350386 0.205080 0.112790
0.378190 0.205388 0.113098
0.405550 0.205691 0.113401
0.432513 0.205989 0.113699
0.459117 0.206284 0.113994
0.485394 0.206574 0.114284
0.511372 0.206862 0.114572
0.537073 0.207146 0.114856
0.562518 0.207428 0.115138
0.587724 0.207707 0.115417
0.612705 0.207983 0.115693
0.637477 0.208257 0.115967
0.662051 0.208529 0.116239
0.686438 0.208799 0.116509
0.710648 0.209067 0.116777
0.734690 0.209333 0.117043
0.758572 0.209597 0.117307
0.782301 0.209860 0.117570
0.805884 0.210121 0.117831
0.829328 0.210380 0.118090
0.852637 0.210638 0.118348
0.875819 0.210895 0.118605
0.898877 0.211150 0.118860
0.921816 0.211404 0.119114
0.922731 0.211414 0.119124
0.098216 0.233980 0.111137
0.135848 0.234397 0.111554
0.170380 0.234779 0.111936
0.203057 0.235141 0.112298
0.234425 0.235488 0.112645
0.264790 0.235824 0.112981
0.294347 0.236151 0.113308
0.323230 0.236470 0.113627
0.351536 0.236784 0.113941
0.379340 0.237091 0.114248
0.406700 0.237394 0.114551
0.433663 0.237692 0.114849
0.460267 0.237987 0.115144
0.486545 0.238278 0.115434
0.512522 0.238565 0.115722
0.538224 0.238849 0.116006
0.563668 0.239131 0.116288
0.588874 0.239410 0.116567
0.613855 0.239686 0.116843
0.638627 0.239960 0.117117
0.663201 0.240232 0.117389
0.687588 0.240502 0.117659
0.711798 0.240770 0.117927
0.735840 0.241036 0.118193
0.759722 0.241300 0.118457
0.783451 0.241563 0.118720
0.807034 0.241824 0.118981
0.830478 0.242083 0.119240
0.853787 0.242341 0.119498
0.876969 0.242598 0.119755
0.900027 0.242853 0.120010
0.922966 0.243107 0.120264
0.923881 0.243117 0.120274
0.099333 0.264762 0.112254
0.136964 0.265179 0.112670
0.171497 0.265561 0.113053
0.204174 0.265922 0.113414
0.235542 0.266269 0.113761
0.265907 0.266605 0.114097
0.295464 0.266932 0.114424
0.324346 0.267252 0.114744
0.352652 0.267565 0.115057
0.380456 0.267873 0.115365
0.407816 0.268176 0.115668
0.434779 0.268474 0.115966
0.461384 0.268768 0.116260
0.487661 0.269059 0.116551
0.513639 0.269347 0.116839
0.539340 0.269631 0.117123
0.564785 0.269913 0.117405
0.589990 0.270192 0.117683
0.614972 0.270468 0.117960
0.639744 0.270742 0.118234
0.664318 0.271014 0.118506
0.688705 0.271284 0.118776
0.712915 0.271552 0.119044
0.736957 0.271818 0.119310
0.760838 0.272082 0.119574
0.784567 0.272345 0.119837
0.808151 0.272606 0.120098
0.831594 0.272865 0.120357
0.854904 0.273123 0.120615
0.878085 0.273380 0.120871
0.901143 0.273635 0.121127
0.924082 0.273888 0.121380
0.924998 0.273899 0.121391
0.100422 0.294795 0.113344
0.138054 0.295211 0.113760
0.172586 0.295593 0.114142
0.205263 0.295955 0.114504
0.236631 0.296302 0.114851
0.266996 0.296638 0.115187
0.296553 0.296965 0.115514
0.325436 0.297285 0.115833
0.353742 0.297598 0.116147
0.381546 0.297906 0.116454
0.408906 0.298208 0.116757
0.435869 0.298507 0.117055
0.462473 0.298801 0.117350
0.488751 0.299092 0.117641
0.514728 0.299379 0.117928
0.540430 0.299664 0.118212
0.565874 0.299945 0.118494
0.591080 0.300224 0.118773
0.616062 0.300501 0.119049
0.640834 0.300775 0.119324
0.665407 0.301047 0.119595
0.689795 0.301317 0.119865
0.714004 0.301585 0.120133
0.738046 0.301851 0.120399
0.761928 0.302115 0.120664
0.785657 0.302377 0.120926
0.809240 0.302638 0.121187
0.832684 0.302898 0.121446
0.855994 0.303156 0.121704
0.879175 0.303412 0.121961
0.902233 0.303667 0.122216
0.925172 0.303921 0.122470
0.926087 0.303931 0.122480
0.101489 0.324199 0.114410
0.139121 0.324616 0.114827
0.173653 0.324998 0.115209
0.206330 0.325360 0.115570
0.237698 0.325707 0.115917
0.268063 0.326043 0.116253
0.297620 0.326370 0.116581
0.326502 0.326689 0.116900
0.354808 0.327003 0.117213
0.382612 0.327310 0.117521
0.409973 0.327613 0.117824
0.436936 0.327911 0.118122
0.463540 0.328206 0.118417
0.489817 0.328496 0.118707
0.515795 0.328784 0.118995
0.541496 0.329068 0.119279
0.566941 0.329350 0.119561
0.592147 0.329629 0.119840
0.617128 0.329905 0.120116
0.641900 0.330179 0.120390
0.666474 0.330451 0.120662
0.690861 0.330721 0.120932
0.715071 0.330989 0.121200
0.739113 0.331255 0.121466
0.762995 0.331519 0.121730
0.786724 0.331782 0.121993
0.810307 0.332043 0.122254
0.833750 0.332302 0.122513
0.857060 0.332560 0.122771
0.880242 0.332817 0.123028
0.903300 0.333072 0.123283
0.926239 0.333326 0.123537
0.927154 0.333336 0.123547
0.102536 0.353064 0.115457
0.140168 0.353481 0.115874
0.174700 0.353863 0.116256
0.207377 0.354224 0.116617
0.238745 0.354571 0.116965
0.269110 0.354907 0.117301
0.298667 0.355235 0.117628
0.327549 0.355554 0.117947
0.355856 0.355867 0.118260
0.383660 0.356175 0.118568
0.411020 0.356478 0.118871
0.437983 0.356776 0.119169
0.464587 0.357071 0.119464
0.490864 0.357361 0.119754
0.516842 0.357649 0.120042
0.542543 0.357933 0.120326
0.567988 0.358215 0.120608
0.593194 0.358494 0.120887
0.618175 0.358770 0.121163
0.642947 0.359044 0.121437
0.667521 0.359316 0.121709
0.691908 0.359586 0.121979
0.716118 0.359854 0.122247
0.740160 0.360120 0.122513
0.764042 0.360384 0.122777
0.787771 0.360647 0.123040
0.811354 0.360908 0.123301
0.834798 0.361167 0.123560
0.858107 0.361425 0.123818
0.881289 0.361682 0.124075
0.904347 0.361937 0.124330
0.927286 0.362191 0.124584
0.928201 0.362201 0.124594
0.103566 0.381457 0.116487
0.141198 0.381874 0.116904
0.175730 0.382256 0.117286
0.208407 0.382617 0.117647
0.239775 0.382964 0.117995
0.270140 0.383300 0.118331
0.299697 0.383628 0.118658
0.328579 0.383947 0.118977
0.356886 0.384260 0.119290
0.384690 0.384568 0.119598
0.412050 0.384871 0.119901
0.439013 0.385169 0.120199
0.465617 0.385464 0.120494
0.491894 0.385754 0.120784
0.517872 0.386042 0.121072
0.543573 0.386326 0.121356
0.569018 0.386608 0.121638
0.594224 0.386887 0.121917
0.619205 0.387163 0.122193
0.643977 0.387437 0.122467
0.668551 0.387709 0.122739
0.692938 0.387979 0.123009
0.717148 0.388247 0.123277
0.741190 0.388513 0.123543
0.765072 0.388777 0.123807
0.788801 0.389040 0.124070
0.812384 0.389301 0.124331
0.835828 0.389560 0.124590
0.859137 0.389818 0.124848
0.882319 0.390075 0.125105
0.905377 0.390330 0.125360
0.928316 0.390584 0.125614
0.929231 0.390594 0.125624
0.104581 0.409432 0.117502
0.142213 0.409848 0.117919
0.176745 0.410230 0.118301
0.209422 0.410592 0.118662
0.240790 0.410939 0.119009
0.271155 0.411275 0.119345
0.300712 0.411602 0.119672
0.329594 0.411922 0.119992
0.357900 0.412235 0.120305
0.385704 0.412542 0.120613
0.413065 0.412845 0.120916
0.440028 0.413144 0.121214
0.466632 0.413438 0.121508
0.492909 0.413729 0.121799
0.518887 0.414016 0.122087
0.544588 0.414301 0.122371
0.570033 0.414582 0.122653
0.595238 0.414861 0.122932
0.620220 0.415138 0.123208
0.644992 0.415412 0.123482
0.669566 0.415684 0.123754
0.693953 0.415953 0.124024
0.718163 0.416221 0.124292
0.742205 0.416487 0.124558
0.766087 0.416752 0.124822
0.789816 0.417014 0.125085
0.813399 0.417275 0.125346
0.836842 0.417535 0.125605
0.860152 0.417793 0.125863
0.883334 0.418049 0.126120
0.906392 0.418304 0.126375
0.929330 0.418558 0.126629
0.930246 0.418568 0.126639
0.105582 0.437031 0.118503
0.143214 0.437447 0.118920
0.177746 0.437829 0.119302
0.210423 0.438191 0.119663
0.241791 0.438538 0.120011
0.272156 0.438874 0.120347
0.301713 0.439201 0.120674
0.330595 0.439521 0.120993
0.358902 0.439834 0.121307
0.386706 0.440142 0.121614
0.414066 0.440444 0.121917
0.441029 0.440743 0.122215
0.467633 0.441037 0.122510
0.493910 0.441328 0.122800
0.519888 0.441615 0.123088
0.545589 0.441900 0.123372
0.571034 0.442181 0.123654
0.596240 0.442460 0.123933
0.621221 0.442737 0.124209
0.645993 0.443011 0.124483
0.670567 0.443283 0.124755
0.694954 0.443553 0.125025
0.719164 0.443820 0.125293
0.743206 0.444087 0.125559
0.767088 0.444351 0.125823
0.790817 0.444613 0.126086
0.814400 0.444874 0.126347
0.837844 0.445134 0.126606
0.861153 0.445392 0.126864
0.884335 0.445648 0.127121
0.907393 0.445903 0.127376
0.930332 0.446157 0.127630
0.931247 0.446167 0.127640
0.106571 0.464290 0.119492
0.144203 0.464706 0.119909
0.178735 0.465089 0.120291
0.211412 0.465450 0.120652
0.242780 0.465797 0.120999
0.273145 0.466133 0.121335
0.302702 0.466460 0.121663
0.331584 0.466780 0.121982
0.359890 0.467093 0.122295
0.387694 0.467401 0.122603
0.415055 0.467704 0.122906
0.442018 0.468002 0.123204
0.468622 0.468296 0.123499
0.494899 0.468587 0.123789
0.520877 0.468875 0.124077
0.546578 0.469159 0.124361
0.572023 0.469441 0.124643
0.597229 0.469719 0.124922
0.622210 0.469996 0.125198
0.646982 0.470270 0.125472
0.671556 0.470542 0.125744
0.695943 0.470812 0.126014
0.720153 0.471080 0.126282
0.744195 0.471346 0.126548
0.768077 0.471610 0.126812
0.791806 0.471873 0.127075
0.815389 0.472134 0.127336
0.838832 0.472393 0.127595
0.862142 0.472651 0.127853
0.885324 0.472907 0.128110
0.908382 0.473163 0.128365
0.931321 0.473416 0.128619
0.932236 0.473427 0.128629
0.107548 0.491239 0.120470
0.145180 0.491655 0.120886
0.179713 0.492038 0.121268
0.212390 0.492399 0.121630
0.243758 0.492746 0.121977
0.274123 0.493082 0.122313
0.303679 0.493409 0.122640
0.332562 0.493729 0.122960
0.360868 0.494042 0.123273
0.388672 0.494350 0.123581
0.416032 0.494653 0.123883
0.442995 0.494951 0.124182
0.469600 0.495245 0.124476
0.495877 0.495536 0.124767
0.521855 0.495824 0.125054
0.547556 0.496108 0.125339
0.573001 0.496390 0.125620
0.598206 0.496669 0.125899
0.623188 0.496945 0.126176
0.647960 0.497219 0.126450
0.672534 0.497491 0.126722
0.696921 0.497761 0.126992
0.721131 0.498029 0.127260
0.745173 0.498295 0.127526
0.769054 0.498559 0.127790
0.792783 0.498822 0.128052
0.816366 0.499083 0.128313
0.839810 0.499342 0.128573
0.863120 0.499600 0.128831
0.886301 0.499857 0.129087
0.909359 0.500112 0.129342
0.932298 0.500365 0.129596
0.933213 0.500376 0.129606
0.108516 0.517903 0.121437
0.146147 0.518320 0.121854
0.180680 0.518702 0.122236
0.213357 0.519063 0.122597
0.244725 0.519410 0.122944
0.275090 0.519746 0.123280
0.304647 0.520073 0.123607
0.333529 0.520393 0.123927
0.361835 0.520706 0.124240
0.389639 0.521014 0.124548
0.417000 0.521317 0.124851
0.443963 0.521615 0.125149
0.470567 0.521909 0.125443
0.496844 0.522200 0.125734
0.522822 0.522488 0.126022
0.548523 0.522772 0.126306
0.573968 0.523054 0.126588
0.599173 0.523333 0.126867
0.624155 0.523609 0.127143
0.648927 0.523883 0.127417
0.673501 0.524155 0.127689
0.697888 0.524425 0.127959
0.722098 0.524693 0.128227
0.746140 0.524959 0.128493
0.770022 0.525223 0.128757
0.793751 0.525486 0.129020
0.817334 0.525747 0.129281
0.840777 0.526006 0.129540
0.864087 0.526264 0.129798
0.887269 0.526520 0.130055
0.910327 0.526776 0.130310
0.933265 0.527030 0.130564
0.934181 0.527040 0.130574
0.109473 0.544304 0.122395
0.147105 0.544720 0.122811
0.181638 0.545102 0.123193
0.214315 0.545464 0.123555
0.245683 0.545811 0.123902
0.276048 0.546147 0.124238
0.305604 0.546474 0.124565
0.334487 0.546794 0.124885
0.362793 0.547107 0.125198
0.390597 0.547415 0.125506
0.417957 0.547717 0.125808
0.444920 0.548016 0.126107
0.471525 0.548310 0.126401
0.497802 0.548601 0.126692
0.523780 0.548888 0.126979
0.549481 0.549173 0.127264
0.574926 0.549454 0.127545
0.600131 0.549733 0.127824
0.625113 0.550010 0.128101
0.649885 0.550284 0.128375
0.674459 0.550556 0.128647
0.698846 0.550825 0.128917
0.723056 0.551093 0.129185
0.747097 0.551359 0.129451
0.770979 0.551624 0.129715
0.794708 0.551886 0.129977
0.818291 0.552147 0.130238
0.841735 0.552407 0.130498
0.865045 0.552665 0.130756
0.888226 0.552921 0.131012
0.911284 0.553176 0.131267
0.934223 0.553430 0.131521
0.935138 0.553440 0.131531
0.110422 0.570460 0.123344
0.148054 0.570876 0.123760
0.182586 0.571258 0.124142
0.215263 0.571620 0.124504
0.246632 0.571967 0.124851
0.276997 0.572303 0.125187
0.306553 0.572630 0.125514
0.335436 0.572950 0.125834
0.363742 0.573263 0.126147
0.391546 0.573570 0.126455
0.418906 0.573873 0.126757
0.445869 0.574172 0.127056
0.472473 0.574466 0.127350
0.498751 0.574757 0.127641
0.524729 0.575044 0.127928
0.550430 0.575329 0.128213
0.575874 0.575610 0.128494
0.601080 0.575889 0.128773
0.626062 0.576165 0.129050
0.650834 0.576440 0.129324
0.675408 0.576712 0.129596
0.699795 0.576981 0.129865
0.724005 0.577249 0.130133
0.748046 0.577515 0.130399
0.771928 0.577780 0.130664
0.795657 0.578042 0.130926
0.819240 0.578303 0.131187
0.842684 0.578563 0.131447
0.865994 0.578820 0.131705
0.889175 0.579077 0.131961
0.912233 0.579332 0.132216
0.935172 0.579586 0.132470
0.936087 0.579596 0.132480
0.111363 0.596387 0.124284
0.148995 0.596804 0.124701
0.183527 0.597186 0.125083
0.216204 0.597547 0.125444
0.247572 0.597894 0.125792
0.277937 0.598230 0.126128
0.307494 0.598558 0.126455
0.336376 0.598877 0.126774
0.364683 0.599190 0.127087
0.392487 0.599498 0.127395
0.419847 0.599801 0.127698
0.446810 0.600099 0.127996
0.473414 0.600394 0.128291
0.499691 0.600684 0.128581
0.525669 0.600972 0.128869
0.551370 0.601256 0.129153
0.576815 0.601538 0.129435
0.602021 0.601817 0.129714
0.627002 0.602093 0.129990
0.651774 0.602367 0.130264
0.676348 0.602639 0.130536
0.700735 0.602909 0.130806
0.724945 0.603177 0.131074
0.748987 0.603443 0.131340
0.772869 0.603707 0.131604
0.796598 0.603970 0.131867
0.820181 0.604231 0.132128
0.843625 0.604490 0.132387
0.866934 0.604748 0.132645
0.890116 0.605005 0.132902
0.913174 0.605260 0.133157
0.936113 0.605514 0.133411
0.937028 0.605524 0.133421
0.112296 0.622101 0.125217
0.149927 0.622517 0.125633
0.184460 0.622900 0.126016
0.217137 0.623261 0.126377
0.248505 0.623608 0.126724
0.278870 0.623944 0.127060
0.308427 0.624271 0.127387
0.337309 0.624591 0.127707
0.365615 0.624904 0.128020
0.393419 0.625212 0.128328
0.420779 0.625515 0.128631
0.447742 0.625813 0.128929
0.474347 0.626107 0.129223
0.500624 0.626398 0.129514
0.526602 0.626686 0.129802
0.552303 0.626970 0.130086
0.577748 0.627252 0.130368
0.602953 0.627530 0.130647
0.627935 0.627807 0.130923
0.652707 0.628081 0.131197
0.677281 0.628353 0.131469
0.701668 0.628623 0.131739
0.725878 0.628891 0.132007
0.749920 0.629157 0.132273
0.773801 0.629421 0.132537
0.797531 0.629684 0.132800
0.821114 0.629945 0.133061
0.844557 0.630204 0.133320
0.867867 0.630462 0.133578
0.891049 0.630718 0.133834
0.914106 0.630974 0.134090
0.937045 0.631227 0.134344
0.937961 0.631238 0.134354
0.113221 0.647614 0.126143
0.150853 0.648030 0.126559
0.185385 0.648412 0.126941
0.218062 0.648774 0.127303
0.249430 0.649121 0.127650
0.279796 0.649457 0.127986
0.309352 0.649784 0.128313
0.338235 0.650104 0.128633
0.366541 0.650417 0.128946
0.394345 0.650725 0.129253
0.421705 0.651027 0.129556
0.448668 0.651326 0.129855
0.475272 0.651620 0.130149
0.501550 0.651911 0.130440
0.527528 0.652198 0.130727
0.553229 0.652483 0.131012
0.578673 0.652764 0.131293
0.603879 0.653043 0.131572
0.628861 0.653320 0.131849
0.653633 0.653594 0.132123
0.678207 0.653866 0.132395
0.702594 0.654135 0.132664
0.726804 0.654403 0.132932
0.750845 0.654669 0.133198
0.774727 0.654934 0.133463
0.798456 0.655196 0.133725
0.822039 0.655457 0.133986
0.845483 0.655717 0.134246
0.868793 0.655975 0.134503
0.891974 0.656231 0.134760
0.915032 0.656486 0.135015
0.937971 0.656740 0.135269
0.938886 0.656750 0.135279
0.114140 0.672937 0.127061
0.151772 0.673353 0.127478
0.186304 0.673735 0.127860
0.218981 0.674097 0.128221
0.250349 0.674444 0.128568
0.280714 0.674780 0.128904
0.310271 0.675107 0.129232
0.339153 0.675427 0.129551
0.367459 0.675740 0.129864
0.395263 0.676048 0.130172
0.422624 0.676350 0.130475
0.449587 0.676649 0.130773
0.476191 0.676943 0.131068
0.502468 0.677234 0.131358
0.528446 0.677521 0.131646
0.554147 0.677806 0.131930
0.579592 0.678087 0.132212
0.604798 0.678366 0.132491
0.629779 0.678643 0.132767
0.654551 0.678917 0.133041
0.679125 0.679189 0.133313
0.703512 0.679459 0.133583
0.727722 0.679727 0.133851
0.751764 0.679993 0.134117
0.775646 0.680257 0.134381
0.799375 0.680519 0.134644
0.822958 0.680780 0.134905
0.846401 0.681040 0.135164
0.869711 0.681298 0.135422
0.892893 0.681554 0.135679
0.915951 0.681809 0.135934
0.938890 0.682063 0.136188
0.939805 0.682073 0.136198
0.115052 0.698081 0.127973
0.152684 0.698497 0.128390
0.187216 0.698879 0.128772
0.219893 0.699241 0.129133
0.251261 0.699588 0.129481
0.281626 0.699924 0.129817
0.311183 0.700251 0.130144
0.340065 0.700571 0.130463
0.368372 0.700884 0.130776
0.396176 0.701191 0.131084
0.423536 0.701494 0.131387
0.450499 0.701793 0.131685
0.477103 0.702087 0.131980
0.503380 0.702378 0.132270
0.529358 0.702665 0.132558
0.555059 0.702950 0.132842
0.580504 0.703231 0.133124
0.605710 0.703510 0.133403
0.630691 0.703786 0.133679
0.655463 0.704061 0.133953
0.680037 0.704333 0.134225
0.704424 0.704602 0.134495
0.728634 0.704870 0.134763
0.752676 0.705136 0.135029
0.776558 0.705401 0.135293
0.800287 0.705663 0.135556
0.823870 0.705924 0.135817
0.847314 0.706184 0.136076
0.870623 0.706441 0.136334
0.893805 0.706698 0.136591
0.916863 0.706953 0.136846
0.939802 0.707207 0.137100
0.940717 0.707217 0.137110
0.115958 0.723054 0.128879
0.153590 0.723471 0.129296
0.188122 0.723853 0.129678
0.220799 0.724215 0.130039
0.252167 0.724562 0.130387
0.282532 0.724898 0.130723
0.312089 0.725225 0.131050
0.340971 0.725544 0.131369
0.369278 0.725858 0.131682
0.397082 0.726165 0.131990
0.424442 0.726468 0.132293
0.451405 0.726766 0.132591
0.478009 0.727061 0.132886
0.504286 0.727352 0.133176
0.530264 0.727639 0.133464
0.555965 0.727923 0.133748
0.581410 0.728205 0.134030
0.606616 0.728484 0.134309
0.631597 0.728760 0.134585
0.656369 0.729034 0.134859
0.680943 0.729306 0.135131
0.705330 0.729576 0.135401
0.729540 0.729844 0.135669
0.753582 0.730110 0.135935
0.777464 0.730374 0.136199
0.801193 0.730637 0.136462
0.824776 0.730898 0.136723
0.848220 0.731157 0.136982
0.871529 0.731415 0.137240
0.894711 0.731672 0.137497
0.917769 0.731927 0.137752
0.940708 0.732181 0.138006
0.941623 0.732191 0.138016
0.116858 0.747867 0.129779
0.154490 0.748283 0.130196
0.189022 0.748665 0.130578
0.221699 0.749027 0.130940
0.253067 0.749374 0.131287
0.283432 0.749710 0.131623
0.312989 0.750037 0.131950
0.341872 0.750357 0.132269
0.370178 0.750670 0.132583
0.397982 0.750978 0.132890
0.425342 0.751280 0.133193
0.452305 0.751579 0.133491
0.478909 0.751873 0.133786
0.505187 0.752164 0.134077
0.531164 0.752451 0.134364
0.556866 0.752736 0.134648
0.582310 0.753017 0.134930
0.607516 0.753296 0.135209
0.632497 0.753573 0.135485
0.657269 0.753847 0.135759
0.681843 0.754119 0.136031
0.706230 0.754389 0.136301
0.730440 0.754656 0.136569
0.754482 0.754923 0.136835
0.778364 0.755187 0.137099
0.802093 0.755449 0.137362
0.825676 0.755710 0.137623
0.849120 0.755970 0.137882
0.872429 0.756228 0.138140
0.895611 0.756484 0.138397
0.918669 0.756739 0.138652
0.941608 0.756993 0.138906
0.942523 0.757003 0.138916
0.117752 0.772525 0.130674
0.155384 0.772942 0.131090
0.189917 0.773324 0.131472
0.222594 0.773685 0.131834
0.253962 0.774032 0.132181
0.284327 0.774368 0.132517
0.313884 0.774695 0.132844
0.342766 0.775015 0.133164
0.371072 0.775328 0.133477
0.398876 0.775636 0.133785
0.426236 0.775939 0.134088
0.453199 0.776237 0.134386
0.479804 0.776532 0.134680
0.506081 0.776822 0.134971
0.532059 0.777110 0.135259
0.557760 0.777394 0.135543
0.583205 0.777676 0.135825
0.608410 0.777955 0.136103
0.633392 0.778231 0.136380
0.658164 0.778505 0.136654
0.682738 0.778777 0.136926
0.707125 0.779047 0.137196
0.731335 0.779315 0.137464
0.755377 0.779581 0.137730
0.779258 0.779845 0.137994
0.802987 0.780108 0.138257
0.826571 0.780369 0.138517
0.850014 0.780628 0.138777
0.873324 0.780886 0.139035
0.896505 0.781143 0.139291
0.919563 0.781398 0.139547
0.942502 0.781652 0.139800
0.943417 0.781662 0.139811
0.118642 0.797037 0.131563
0.156273 0.797453 0.131980
0.190806 0.797835 0.132362
0.223483 0.798197 0.132723
0.254851 0.798544 0.133070
0.285216 0.798880 0.133406
0.314773 0.799207 0.133734
0.343655 0.799527 0.134053
0.371961 0.799840 0.134366
0.399765 0.800148 0.134674
0.427126 0.800450 0.134977
0.454089 0.800749 0.135275
0.480693 0.801043 0.135570
0.506970 0.801334 0.135860
0.532948 0.801621 0.136148
0.558649 0.801906 0.136432
0.584094 0.802187 0.136714
0.609299 0.802466 0.136993
0.634281 0.802743 0.137269
0.659053 0.803017 0.137543
0.683627 0.803289 0.137815
0.708014 0.803558 0.138085
0.732224 0.803826 0.138353
0.756266 0.804092 0.138619
0.780148 0.804357 0.138883
0.803877 0.804619 0.139146
0.827460 0.804880 0.139407
0.850903 0.805140 0.139666
0.874213 0.805398 0.139924
0.897395 0.805654 0.140181
0.920453 0.805909 0.140436
0.943391 0.806163 0.140690
0.944307 0.806173 0.140700
0.119526 0.821408 0.132447
0.157158 0.821824 0.132864
0.191690 0.822206 0.133246
0.224367 0.822568 0.133607
0.255735 0.822915 0.133955
0.286100 0.823251 0.134291
0.315657 0.823578 0.134618
0.344539 0.823898 0.134937
0.372846 0.824211 0.135250
0.400649 0.824519 0.135558
0.428010 0.824821 0.135861
0.454973 0.825120 0.136159
0.481577 0.825414 0.136454
0.507854 0.825705 0.136744
0.533832 0.825993 0.137032
0.559533 0.826277 0.137316
0.584978 0.826558 0.137598
0.610184 0.826837 0.137877
0.635165 0.827114 0.138153
0.659937 0.827388 0.138427
0.684511 0.827660 0.138699
0.708898 0.827930 0.138969
0.733108 0.828198 0.139237
0.757150 0.828464 0.139503
0.781032 0.828728 0.139767
0.804761 0.828991 0.140030
0.828344 0.829251 0.140291
