assets/luts/Light & Airy.cube
# StudioPhoto — LUT d'exemple : Light & Airy
TITLE "Light & Airy"
LUT_3D_SIZE 5
0.093270 0.097649 0.106192
0.346590 0.100453 0.108995
0.558722 0.102800 0.111342
0.754776 0.104969 0.113512
0.918935 0.106786 0.115328
0.102536 0.353064 0.115457
0.355856 0.355867 0.118260
0.567988 0.358215 0.120608
0.764042 0.360384 0.122777
0.928201 0.362201 0.124594
0.110422 0.570460 0.123344
0.363742 0.573263 0.126147
0.575874 0.575610 0.128494
0.771928 0.577780 0.130664
0.936087 0.579596 0.132480
0.117752 0.772525 0.130674
0.371072 0.775328 0.133477
0.583205 0.777676 0.135825
0.779258 0.779845 0.137994
0.943417 0.781662 0.139811
0.123774 0.938507 0.136695
0.377093 0.941310 0.139498
0.589226 0.943657 0.141846
0.785280 0.945827 0.144015
0.949439 0.947643 0.145832
0.094191 0.098570 0.349359
0.347511 0.101373 0.352162
0.559643 0.103721 0.354509
0.755697 0.105890 0.356679
0.919856 0.107707 0.358495
0.103456 0.353985 0.358624
0.356776 0.356788 0.361427
0.568909 0.359135 0.363775
0.764962 0.361305 0.365944
0.929121 0.363121 0.367761
0.111343 0.571380 0.366511
0.364663 0.574183 0.369314
0.576795 0.576531 0.371661
0.772849 0.578700 0.373831
0.937008 0.580517 0.375647
0.118673 0.773446 0.373841
0.371993 0.776249 0.376644
0.584125 0.778596 0.378991
0.780179 0.780766 0.381161
0.944338 0.782582 0.382977
0.124694 0.939427 0.379862
0.378014 0.942230 0.382665
0.590146 0.944578 0.385013
0.786200 0.946747 0.387182
0.950359 0.948564 0.388999
0.094989 0.099368 0.560169
0.348309 0.102171 0.562972
0.560441 0.104519 0.565319
0.756495 0.106688 0.567488
0.920654 0.108505 0.569305
0.104254 0.354783 0.569434
0.357574 0.357586 0.572237
0.569707 0.359933 0.574585
0.765760 0.362103 0.576754
0.929919 0.363919 0.578571
0.112141 0.572178 0.577320
0.365461 0.574981 0.580124
0.577593 0.577329 0.582471
0.773647 0.579498 0.584640
0.937806 0.581315 0.586457
0.119471 0.774244 0.584651
0.372791 0.777047 0.587454
0.584923 0.779394 0.589801
0.780977 0.781564 0.591971
0.945136 0.783380 0.593787
0.125492 0.940225 0.590672
0.378812 0.943028 0.593475
0.590944 0.945376 0.595822
0.786998 0.947545 0.597992
0.951157 0.949362 0.599808
0.095735 0.100114 0.757319
0.349055 0.102918 0.760122
0.561187 0.105265 0.762469
0.757241 0.107434 0.764639
0.921400 0.109251 0.766455
0.105001 0.355529 0.766584
0.358321 0.358332 0.769387
0.570453 0.360680 0.771735
0.766507 0.362849 0.773904
0.930666 0.364666 0.775721
0.112887 0.572924 0.774471
0.366207 0.575728 0.777274
0.578339 0.578075 0.779621
0.774393 0.580244 0.781791
0.938552 0.582061 0.783607
0.120217 0.774990 0.781801
0.373537 0.777793 0.784604
0.585670 0.780141 0.786951
0.781723 0.782310 0.789121
0.945882 0.784127 0.790937
0.126239 0.940972 0.787822
0.379558 0.943775 0.790625
0.591691 0.946122 0.792973
0.787745 0.948292 0.795142
0.951904 0.950108 0.796959
0.096269 0.100649 0.898434
0.349589 0.103452 0.901237
0.561722 0.105799 0.903584
0.757775 0.107969 0.905754
0.921934 0.109785 0.907570
0.105535 0.356063 0.907699
0.358855 0.358867 0.910503
0.570987 0.361214 0.912850
0.767041 0.363383 0.915019
0.931200 0.365200 0.916836
0.113421 0.573459 0.915586
0.366741 0.576262 0.918389
0.578874 0.578609 0.920736
0.774927 0.580779 0.922906
0.939086 0.582595 0.924722
0.120752 0.775524 0.922916
0.374071 0.778327 0.925719
0.586204 0.780675 0.928067
0.782257 0.782844 0.930236
0.946417 0.784661 0.932053
0.126773 0.941506 0.928937
0.380093 0.944309 0.931740
0.592225 0.946656 0.934088
0.788279 0.948826 0.936257
0.952438 0.950642 0.938074
