assets/luts/Light & Airy.cube
# StudioPhoto — LUT d'exemple : Light & Airy
TITLE "Light & Airy"
LUT_3D_SIZE 9
0.093270 0.097649 0.106192
0.229480 0.099157 0.107699
0.346590 0.100453 0.108995
0.455321 0.101656 0.110198
0.558722 0.102800 0.111342
0.658256 0.103901 0.112444
0.754776 0.104969 0.113512
0.848842 0.106010 0.114553
0.918935 0.106786 0.115328
0.098216 0.233980 0.111137
0.234425 0.235488 0.112645
0.351536 0.236784 0.113941
0.460267 0.237987 0.115144
0.563668 0.239131 0.116288
0.663201 0.240232 0.117389
0.759722 0.241300 0.118457
0.853787 0.242341 0.119498
0.923881 0.243117 0.120274
0.102536 0.353064 0.115457
0.238745 0.354571 0.116965
0.355856 0.355867 0.118260
0.464587 0.357071 0.119464
0.567988 0.358215 0.120608
0.667521 0.359316 0.121709
0.764042 0.360384 0.122777
0.858107 0.361425 0.123818
0.928201 0.362201 0.124594
0.106571 0.464290 0.119492
0.242780 0.465797 0.120999
0.359890 0.467093 0.122295
0.468622 0.468296 0.123499
0.572023 0.469441 0.124643
0.671556 0.470542 0.125744
0.768077 0.471610 0.126812
0.862142 0.472651 0.127853
0.932236 0.473427 0.128629
0.110422 0.570460 0.123344
0.246632 0.571967 0.124851
0.363742 0.573263 0.126147
0.472473 0.574466 0.127350
0.575874 0.575610 0.128494
0.675408 0.576712 0.129596
0.771928 0.577780 0.130664
0.865994 0.578820 0.131705
0.936087 0.579596 0.132480
0.114140 0.672937 0.127061
0.250349 0.674444 0.128568
0.367459 0.675740 0.129864
0.476191 0.676943 0.131068
0.579592 0.678087 0.132212
0.679125 0.679189 0.133313
0.775646 0.680257 0.134381
0.869711 0.681298 0.135422
0.939805 0.682073 0.136198
0.117752 0.772525 0.130674
0.253962 0.774032 0.132181
0.371072 0.775328 0.133477
0.479804 0.776532 0.134680
0.583205 0.777676 0.135825
0.682738 0.778777 0.136926
0.779258 0.779845 0.137994
0.873324 0.780886 0.139035
0.943417 0.781662 0.139811
0.121280 0.869752 0.134201
0.257489 0.871260 0.135708
0.374599 0.872555 0.137004
0.483331 0.873759 0.138207
0.586732 0.874903 0.139352
0.686265 0.876004 0.140453
0.782785 0.877072 0.141521
0.876851 0.878113 0.142562
0.946945 0.878889 0.143338
0.123774 0.938507 0.136695
0.259983 0.940014 0.138202
0.377093 0.941310 0.139498
0.485825 0.942513 0.140702
0.589226 0.943657 0.141846
0.688759 0.944759 0.142947
0.785280 0.945827 0.144015
0.879345 0.946868 0.145056
0.949439 0.947643 0.145832
0.093757 0.098137 0.234880
0.229967 0.099644 0.236388
0.347077 0.100940 0.237683
0.455809 0.102143 0.238887
0.559210 0.103287 0.240031
0.658743 0.104389 0.241132
0.755263 0.105457 0.242200
0.849329 0.106498 0.243241
0.919422 0.107273 0.244017
0.098703 0.234468 0.239826
0.234912 0.235975 0.241333
0.352023 0.237271 0.242629
0.460754 0.238474 0.243832
0.564155 0.239618 0.244976
0.663689 0.240720 0.246078
0.760209 0.241788 0.247146
0.854275 0.242829 0.248187
0.924368 0.243604 0.248962
0.103023 0.353551 0.244146
0.239232 0.355059 0.245653
0.356343 0.356355 0.246949
0.465074 0.357558 0.248152
0.568475 0.358702 0.249296
0.668008 0.359803 0.250398
0.764529 0.360871 0.251466
0.858595 0.361912 0.252507
0.928688 0.362688 0.253282
0.107058 0.464777 0.248181
0.243267 0.466284 0.249688
0.360378 0.467580 0.250984
0.469109 0.468784 0.252187
0.572510 0.469928 0.253331
0.672043 0.471029 0.254433
0.768564 0.472097 0.255501
0.862630 0.473138 0.256542
0.932723 0.473914 0.257317
0.110909 0.570947 0.252032
0.247119 0.572454 0.253539
0.364229 0.573750 0.254835
0.472961 0.574953 0.256039
0.576362 0.576097 0.257183
0.675895 0.577199 0.258284
0.772415 0.578267 0.259352
0.866481 0.579308 0.260393
0.936574 0.580083 0.261169
0.114627 0.673424 0.255750
0.250836 0.674931 0.257257
0.367947 0.676227 0.258553
0.476678 0.677430 0.259756
0.580079 0.678575 0.260900
0.679612 0.679676 0.262002
0.776133 0.680744 0.263070
0.870198 0.681785 0.264111
0.940292 0.682561 0.264886
0.118240 0.773012 0.259362
0.254449 0.774520 0.260870
0.371559 0.775815 0.262166
0.480291 0.777019 0.263369
0.583692 0.778163 0.264513
0.683225 0.779264 0.265614
0.779746 0.780332 0.266682
0.873811 0.781373 0.267723
0.943905 0.782149 0.268499
0.121767 0.870239 0.262890
0.257976 0.871747 0.264397
0.375086 0.873043 0.265693
0.483818 0.874246 0.266896
0.587219 0.875390 0.268040
0.686752 0.876491 0.269141
0.783273 0.877559 0.270210
0.877338 0.878600 0.271250
0.947432 0.879376 0.272026
0.124261 0.938994 0.265384
0.260470 0.940501 0.266891
0.377581 0.941797 0.268187
0.486312 0.943000 0.269390
0.589713 0.944144 0.270534
0.689246 0.945246 0.271636
0.785767 0.946314 0.272704
0.879832 0.947355 0.273745
0.949926 0.948130 0.274520
0.094191 0.098570 0.349359
0.230400 0.100077 0.350866
0.347511 0.101373 0.352162
0.456242 0.102576 0.353365
0.559643 0.103721 0.354509
0.659176 0.104822 0.355611
0.755697 0.105890 0.356679
0.849762 0.106931 0.357720
0.919856 0.107707 0.358495
0.099136 0.234901 0.354304
0.235346 0.236408 0.355811
0.352456 0.237704 0.357107
0.461188 0.238907 0.358311
0.564589 0.240052 0.359455
0.664122 0.241153 0.360556
0.760642 0.242221 0.361624
0.854708 0.243262 0.362665
0.924801 0.244038 0.363441
0.103456 0.353985 0.358624
0.239666 0.355492 0.360131
0.356776 0.356788 0.361427
0.465508 0.357991 0.362631
0.568909 0.359135 0.363775
0.668442 0.360237 0.364876
0.764962 0.361305 0.365944
0.859028 0.362346 0.366985
0.929121 0.363121 0.367761
0.107491 0.465211 0.362659
0.243701 0.466718 0.364166
0.360811 0.468014 0.365462
0.469542 0.469217 0.366665
0.572943 0.470361 0.367810
0.672477 0.471462 0.368911
0.768997 0.472531 0.369979
0.863063 0.473571 0.371020
0.933156 0.474347 0.371796
0.111343 0.571380 0.366511
0.247552 0.572887 0.368018
0.364663 0.574183 0.369314
0.473394 0.575386 0.370517
0.576795 0.576531 0.371661
0.676328 0.577632 0.372762
0.772849 0.578700 0.373831
0.866914 0.579741 0.374871
0.937008 0.580517 0.375647
0.115060 0.673857 0.370228
0.251270 0.675365 0.371735
0.368380 0.676661 0.373031
0.477111 0.677864 0.374234
0.580512 0.679008 0.375379
0.680046 0.680109 0.376480
0.776566 0.681177 0.377548
0.870632 0.682218 0.378589
0.940725 0.682994 0.379365
0.118673 0.773446 0.373841
0.254882 0.774953 0.375348
0.371993 0.776249 0.376644
0.480724 0.777452 0.377847
0.584125 0.778596 0.378991
0.683658 0.779698 0.380093
0.780179 0.780766 0.381161
0.874245 0.781807 0.382202
0.944338 0.782582 0.382977
0.122200 0.870673 0.377368
0.258409 0.872180 0.378875
0.375520 0.873476 0.380171
0.484251 0.874679 0.381374
0.587652 0.875823 0.382518
0.687186 0.876925 0.383620
0.783706 0.877993 0.384688
0.877772 0.879034 0.385729
0.947865 0.879809 0.386504
0.124694 0.939427 0.379862
0.260904 0.940934 0.381369
0.378014 0.942230 0.382665
0.486745 0.943434 0.383868
0.590146 0.944578 0.385013
0.689680 0.945679 0.386114
0.786200 0.946747 0.387182
0.880266 0.947788 0.388223
0.950359 0.948564 0.388999
0.094598 0.098978 0.457000
0.230808 0.100485 0.458507
0.347918 0.101781 0.459803
0.456649 0.102984 0.461006
0.560050 0.104128 0.462151
0.659584 0.105229 0.463252
0.756104 0.106298 0.464320
0.850170 0.107338 0.465361
0.920263 0.108114 0.466137
0.099544 0.235308 0.461946
0.235753 0.236816 0.463453
0.352864 0.238112 0.464749
0.461595 0.239315 0.465952
0.564996 0.240459 0.467096
0.664529 0.241560 0.468198
0.761050 0.242628 0.469266
0.855116 0.243669 0.470307
0.925209 0.244445 0.471082
0.103864 0.354392 0.466266
0.240073 0.355900 0.467773
0.357184 0.357195 0.469069
0.465915 0.358399 0.470272
0.569316 0.359543 0.471416
0.668849 0.360644 0.472518
0.765370 0.361712 0.473586
0.859435 0.362753 0.474627
0.929529 0.363529 0.475402
0.107899 0.465618 0.470300
0.244108 0.467125 0.471808
0.361219 0.468421 0.473104
0.469950 0.469624 0.474307
0.573351 0.470769 0.475451
0.672884 0.471870 0.476552
0.769405 0.472938 0.477621
0.863470 0.473979 0.478661
0.933564 0.474755 0.479437
0.111750 0.571788 0.474152
0.247960 0.573295 0.475659
0.365070 0.574591 0.476955
0.473801 0.575794 0.478158
0.577202 0.576938 0.479303
0.676736 0.578040 0.480404
0.773256 0.579108 0.481472
0.867322 0.580149 0.482513
0.937415 0.580924 0.483289
0.115468 0.674265 0.477870
0.251677 0.675772 0.479377
0.368788 0.677068 0.480673
0.477519 0.678271 0.481876
0.580920 0.679415 0.483020
0.680453 0.680517 0.484121
0.776974 0.681585 0.485189
0.871039 0.682626 0.486230
0.941133 0.683401 0.487006
0.119080 0.773853 0.481482
0.255290 0.775360 0.482989
0.372400 0.776656 0.484285
0.481132 0.777860 0.485489
0.584533 0.779004 0.486633
0.684066 0.780105 0.487734
0.780586 0.781173 0.488802
0.874652 0.782214 0.489843
0.944745 0.782990 0.490619
0.122608 0.871080 0.485009
0.258817 0.872588 0.486517
0.375927 0.873883 0.487812
0.484659 0.875087 0.489016
0.588060 0.876231 0.490160
0.687593 0.877332 0.491261
0.784113 0.878400 0.492329
0.878179 0.879441 0.493370
0.948273 0.880217 0.494146
0.125102 0.939835 0.487503
0.261311 0.941342 0.489011
0.378421 0.942638 0.490307
0.487153 0.943841 0.491510
0.590554 0.944985 0.492654
0.690087 0.946087 0.493755
0.786608 0.947155 0.494823
0.880673 0.948196 0.495864
0.950767 0.948971 0.496640
0.094989 0.099368 0.560169
0.231198 0.100875 0.561676
0.348309 0.102171 0.562972
0.457040 0.103374 0.564175
0.560441 0.104519 0.565319
0.659974 0.105620 0.566420
0.756495 0.106688 0.567488
0.850560 0.107729 0.568529
0.920654 0.108505 0.569305
0.099934 0.235699 0.565114
0.236144 0.237206 0.566621
0.353254 0.238502 0.567917
0.461986 0.239705 0.569120
0.565387 0.240850 0.570265
0.664920 0.241951 0.571366
0.761440 0.243019 0.572434
0.855506 0.244060 0.573475
0.925600 0.244836 0.574251
0.104254 0.354783 0.569434
0.240464 0.356290 0.570941
0.357574 0.357586 0.572237
0.466306 0.358789 0.573440
0.569707 0.359933 0.574585
0.669240 0.361035 0.575686
0.765760 0.362103 0.576754
0.859826 0.363144 0.577795
0.929919 0.363919 0.578571
0.108289 0.466009 0.573469
0.244499 0.467516 0.574976
0.361609 0.468812 0.576272
0.470340 0.470015 0.577475
0.573741 0.471159 0.578619
0.673275 0.472261 0.579721
0.769795 0.473329 0.580789
0.863861 0.474369 0.581830
0.933954 0.475145 0.582605
0.112141 0.572178 0.577320
0.248350 0.573685 0.578828
0.365461 0.574981 0.580124
0.474192 0.576185 0.581327
0.577593 0.577329 0.582471
0.677126 0.578430 0.583572
0.773647 0.579498 0.584640
0.867712 0.580539 0.585681
0.937806 0.581315 0.586457
0.115858 0.674655 0.581038
0.252068 0.676163 0.582545
0.369178 0.677459 0.583841
0.477909 0.678662 0.585044
0.581311 0.679806 0.586188
0.680844 0.680907 0.587290
0.777364 0.681975 0.588358
0.871430 0.683016 0.589399
0.941523 0.683792 0.590174
0.119471 0.774244 0.584651
0.255680 0.775751 0.586158
0.372791 0.777047 0.587454
0.481522 0.778250 0.588657
0.584923 0.779394 0.589801
0.684456 0.780496 0.590903
0.780977 0.781564 0.591971
0.875043 0.782605 0.593012
0.945136 0.783380 0.593787
0.122998 0.871471 0.588178
0.259207 0.872978 0.589685
0.376318 0.874274 0.590981
0.485049 0.875477 0.592184
0.588450 0.876621 0.593328
0.687984 0.877723 0.594430
0.784504 0.878791 0.595498
0.878570 0.879832 0.596539
0.948663 0.880607 0.597314
0.125492 0.940225 0.590672
0.261702 0.941733 0.592179
0.378812 0.943028 0.593475
0.487543 0.944232 0.594678
0.590944 0.945376 0.595822
0.690478 0.946477 0.596924
0.786998 0.947545 0.597992
0.881064 0.948586 0.599033
0.951157 0.949362 0.599808
0.095367 0.099746 0.660041
0.231576 0.101253 0.661548
0.348687 0.102549 0.662844
0.457418 0.103752 0.664047
0.560819 0.104897 0.665191
0.660352 0.105998 0.666293
0.756873 0.107066 0.667361
0.850938 0.108107 0.668402
0.921032 0.108883 0.669177
0.100313 0.236077 0.664986
0.236522 0.237584 0.666494
0.353632 0.238880 0.667789
0.462364 0.240083 0.668993
0.565765 0.241228 0.670137
0.665298 0.242329 0.671238
0.761818 0.243397 0.672306
0.855884 0.244438 0.673347
0.925978 0.245214 0.674123
0.104633 0.355161 0.669306
0.240842 0.356668 0.670814
0.357952 0.357964 0.672109
0.466684 0.359167 0.673313
0.570085 0.360311 0.674457
0.669618 0.361413 0.675558
0.766138 0.362481 0.676626
0.860204 0.363522 0.677667
0.930297 0.364297 0.678443
0.108667 0.466387 0.673341
0.244877 0.467894 0.674848
0.361987 0.469190 0.676144
0.470719 0.470393 0.677347
0.574120 0.471537 0.678492
0.673653 0.472639 0.679593
0.770173 0.473707 0.680661
0.864239 0.474748 0.681702
0.934332 0.475523 0.682478
0.112519 0.572556 0.677193
0.248728 0.574063 0.678700
0.365839 0.575359 0.679996
0.474570 0.576563 0.681199
0.577971 0.577707 0.682343
0.677504 0.578808 0.683445
0.774025 0.579876 0.684513
0.868090 0.580917 0.685553
0.938184 0.581693 0.686329
0.116236 0.675034 0.680910
0.252446 0.676541 0.682417
0.369556 0.677837 0.683713
0.478288 0.679040 0.684916
0.581689 0.680184 0.686061
0.681222 0.681285 0.687162
0.777742 0.682353 0.688230
0.871808 0.683394 0.689271
0.941901 0.684170 0.690047
0.119849 0.774622 0.684523
0.256058 0.776129 0.686030
0.373169 0.777425 0.687326
0.481900 0.778628 0.688529
0.585301 0.779772 0.689673
0.684835 0.780874 0.690775
0.781355 0.781942 0.691843
0.875421 0.782983 0.692884
0.945514 0.783758 0.693659
0.123376 0.871849 0.688050
0.259586 0.873356 0.689557
0.376696 0.874652 0.690853
0.485427 0.875855 0.692056
0.588828 0.876999 0.693200
0.688362 0.878101 0.694302
0.784882 0.879169 0.695370
0.878948 0.880210 0.696411
0.949041 0.880985 0.697186
0.125870 0.940603 0.690544
0.262080 0.942111 0.692051
0.379190 0.943406 0.693347
0.487922 0.944610 0.694550
0.591323 0.945754 0.695695
0.690856 0.946855 0.696796
0.787376 0.947923 0.697864
0.881442 0.948964 0.698905
0.951535 0.949740 0.699681
0.095735 0.100114 0.757319
0.231945 0.101622 0.758826
0.349055 0.102918 0.760122
0.457786 0.104121 0.761325
0.561187 0.105265 0.762469
0.660721 0.106366 0.763571
0.757241 0.107434 0.764639
0.851307 0.108475 0.765679
0.921400 0.109251 0.766455
0.100681 0.236445 0.762264
0.236890 0.237953 0.763771
0.354001 0.239249 0.765067
0.462732 0.240452 0.766271
0.566133 0.241596 0.767415
0.665666 0.242697 0.768516
0.762187 0.243765 0.769584
0.856252 0.244806 0.770625
0.926346 0.245582 0.771401
0.105001 0.355529 0.766584
0.241210 0.357036 0.768091
0.358321 0.358332 0.769387
0.467052 0.359535 0.770591
0.570453 0.360680 0.771735
0.669986 0.361781 0.772836
0.766507 0.362849 0.773904
0.860572 0.363890 0.774945
0.930666 0.364666 0.775721
0.109036 0.466755 0.770619
0.245245 0.468262 0.772126
0.362355 0.469558 0.773422
0.471087 0.470761 0.774625
0.574488 0.471905 0.775770
0.674021 0.473007 0.776871
0.770542 0.474075 0.777939
0.864607 0.475116 0.778980
0.934701 0.475891 0.779756
0.112887 0.572924 0.774471
0.249096 0.574432 0.775978
0.366207 0.575728 0.777274
0.474938 0.576931 0.778477
0.578339 0.578075 0.779621
0.677873 0.579176 0.780722
0.774393 0.580244 0.781791
0.868459 0.581285 0.782831
0.938552 0.582061 0.783607
0.116605 0.675402 0.778188
0.252814 0.676909 0.779695
0.369924 0.678205 0.780991
0.478656 0.679408 0.782194
0.582057 0.680552 0.783339
0.681590 0.681654 0.784440
0.778111 0.682722 0.785508
0.872176 0.683763 0.786549
0.942270 0.684538 0.787325
0.120217 0.774990 0.781801
0.256427 0.776497 0.783308
0.373537 0.777793 0.784604
0.482269 0.778996 0.785807
0.585670 0.780141 0.786951
0.685203 0.781242 0.788053
0.781723 0.782310 0.789121
0.875789 0.783351 0.790162
0.945882 0.784127 0.790937
0.123744 0.872217 0.785328
0.259954 0.873724 0.786835
0.377064 0.875020 0.788131
0.485796 0.876224 0.789334
0.589197 0.877368 0.790478
0.688730 0.878469 0.791580
0.785250 0.879537 0.792648
0.879316 0.880578 0.793689
0.949409 0.881354 0.794464
0.126239 0.940972 0.787822
0.262448 0.942479 0.789329
0.379558 0.943775 0.790625
0.488290 0.944978 0.791828
0.591691 0.946122 0.792973
0.691224 0.947224 0.794074
0.787745 0.948292 0.795142
0.881810 0.949332 0.796183
0.951904 0.950108 0.796959
0.096095 0.100475 0.852467
0.232305 0.101982 0.853974
0.349415 0.103278 0.855270
0.458147 0.104481 0.856473
0.561548 0.105625 0.857617
0.661081 0.106727 0.858719
0.757601 0.107795 0.859787
0.851667 0.108835 0.860828
0.921760 0.109611 0.861603
0.101041 0.236806 0.857412
0.237250 0.238313 0.858920
0.354361 0.239609 0.860216
0.463092 0.240812 0.861419
0.566493 0.241956 0.862563
0.666026 0.243058 0.863664
0.762547 0.244126 0.864732
0.856613 0.245166 0.865773
0.926706 0.245942 0.866549
0.105361 0.355889 0.861732
0.241570 0.357397 0.863240
0.358681 0.358692 0.864536
0.467412 0.359896 0.865739
0.570813 0.361040 0.866883
0.670346 0.362141 0.867984
0.766867 0.363209 0.869052
0.860933 0.364250 0.870093
0.931026 0.365026 0.870869
0.109396 0.467115 0.865767
0.245605 0.468622 0.867275
0.362716 0.469918 0.868570
0.471447 0.471121 0.869774
0.574848 0.472266 0.870918
0.674381 0.473367 0.872019
0.770902 0.474435 0.873087
0.864967 0.475476 0.874128
0.935061 0.476252 0.874904
0.113247 0.573285 0.869619
0.249457 0.574792 0.871126
0.366567 0.576088 0.872422
0.475298 0.577291 0.873625
0.578700 0.578435 0.874769
0.678233 0.579537 0.875871
0.774753 0.580605 0.876939
0.868819 0.581646 0.877980
0.938912 0.582421 0.878755
0.116965 0.675762 0.873336
0.253174 0.677269 0.874844
0.370285 0.678565 0.876139
0.479016 0.679768 0.877343
0.582417 0.680912 0.878487
0.681950 0.682014 0.879588
0.778471 0.683082 0.880656
0.872536 0.684123 0.881697
0.942630 0.684898 0.882473
0.120578 0.775350 0.876949
0.256787 0.776857 0.878456
0.373897 0.778153 0.879752
0.482629 0.779357 0.880955
0.586030 0.780501 0.882100
0.685563 0.781602 0.883201
0.782083 0.782670 0.884269
0.876149 0.783711 0.885310
0.946243 0.784487 0.886086
0.124105 0.872577 0.880476
0.260314 0.874085 0.881983
0.377424 0.875381 0.883279
0.486156 0.876584 0.884482
0.589557 0.877728 0.885627
0.689090 0.878829 0.886728
0.785611 0.879897 0.887796
0.879676 0.880938 0.888837
0.949770 0.881714 0.889613
0.126599 0.941332 0.882970
0.262808 0.942839 0.884477
0.379919 0.944135 0.885773
0.488650 0.945338 0.886977
0.592051 0.946482 0.888121
0.691584 0.947584 0.889222
0.788105 0.948652 0.890290
0.882170 0.949693 0.891331
0.952264 0.950468 0.892107
0.096269 0.100649 0.898434
0.232479 0.102156 0.899941
0.349589 0.103452 0.901237
0.458321 0.104655 0.902440
0.561722 0.105799 0.903584
0.661255 0.106901 0.904686
0.757775 0.107969 0.905754
0.851841 0.109010 0.906795
0.921934 0.109785 0.907570
0.101215 0.236980 0.903379
0.237424 0.238487 0.904887
0.354535 0.239783 0.906183
0.463266 0.240986 0.907386
0.566667 0.242130 0.908530
0.666200 0.243232 0.909631
0.762721 0.244300 0.910699
0.856787 0.245340 0.911740
0.926880 0.246116 0.912516
0.105535 0.356063 0.907699
0.241744 0.357571 0.909207
0.358855 0.358867 0.910503
0.467586 0.360070 0.911706
0.570987 0.361214 0.912850
0.670520 0.362315 0.913951
0.767041 0.363383 0.915019
0.861107 0.364424 0.916060
0.931200 0.365200 0.916836
0.109570 0.467289 0.911734
0.245779 0.468796 0.913242
0.362890 0.470092 0.914537
0.471621 0.471295 0.915741
0.575022 0.472440 0.916885
0.674555 0.473541 0.917986
0.771076 0.474609 0.919054
0.865141 0.475650 0.920095
0.935235 0.476426 0.920871
0.113421 0.573459 0.915586
0.249631 0.574966 0.917093
0.366741 0.576262 0.918389
0.475472 0.577465 0.919592
0.578874 0.578609 0.920736
0.678407 0.579711 0.921838
0.774927 0.580779 0.922906
0.868993 0.581820 0.923947
0.939086 0.582595 0.924722
0.117139 0.675936 0.919303
0.253348 0.677443 0.920811
0.370459 0.678739 0.922107
0.479190 0.679942 0.923310
0.582591 0.681086 0.924454
0.682124 0.682188 0.925555
0.778645 0.683256 0.926623
0.872710 0.684297 0.927664
0.942804 0.685072 0.928440
0.120752 0.775524 0.922916
0.256961 0.777032 0.924423
0.374071 0.778327 0.925719
0.482803 0.779531 0.926922
0.586204 0.780675 0.928067
0.685737 0.781776 0.929168
0.782257 0.782844 0.930236
0.876323 0.783885 0.931277
0.946417 0.784661 0.932053
0.124279 0.872751 0.926443
0.260488 0.874259 0.927950
0.377598 0.875555 0.929246
0.486330 0.876758 0.930449
0.589731 0.877902 0.931594
0.689264 0.879003 0.932695
0.785785 0.880071 0.933763
0.879850 0.881112 0.934804
0.949944 0.881888 0.935580
0.126773 0.941506 0.928937
0.262982 0.943013 0.930445
0.380093 0.944309 0.931740
0.488824 0.945512 0.932944
0.592225 0.946656 0.934088
0.691758 0.947758 0.935189
0.788279 0.948826 0.936257
0.882344 0.949867 0.937298
0.952438 0.950642 0.938074
