assets/luts/Moody Cool.cube
# StudioPhoto — LUT d'exemple : Moody Cool
TITLE "Moody Cool"
LUT_3D_SIZE 9
0.000000 0.000000 0.000000
0.050019 0.001154 0.001154
0.162433 0.003748 0.003748
0.278413 0.006425 0.006425
0.396765 0.009156 0.009156
0.516909 0.011929 0.011929
0.638498 0.014735 0.014735
0.761298 0.017569 0.017569
0.885143 0.020427 0.020427
0.005907 0.080236 0.005907
0.057815 0.081434 0.007105
0.170182 0.084027 0.009698
0.286112 0.086702 0.012373
0.404415 0.089432 0.015103
0.524508 0.092204 0.017875
0.646046 0.095008 0.020679
0.768795 0.097841 0.023512
0.892587 0.100698 0.026369
0.015415 0.209399 0.015415
0.069114 0.210638 0.016654
0.181432 0.213230 0.019246
0.297311 0.215905 0.021921
0.415562 0.218633 0.024649
0.535603 0.221404 0.027420
0.657087 0.224207 0.030223
0.779782 0.227039 0.033055
0.903520 0.229894 0.035910
0.025074 0.340605 0.025074
0.080406 0.341881 0.026351
0.192673 0.344472 0.028942
0.308501 0.347145 0.031615
0.426699 0.349873 0.034342
0.546686 0.352642 0.037111
0.668116 0.355444 0.039914
0.790756 0.358274 0.042744
0.914439 0.361128 0.045598
0.034832 0.473154 0.034832
0.091623 0.474464 0.036143
0.203840 0.477054 0.038732
0.319615 0.479726 0.041404
0.437760 0.482452 0.044130
0.557693 0.485220 0.046898
0.679068 0.488021 0.049699
0.801653 0.490850 0.052528
0.925280 0.493703 0.055381
0.044664 0.606712 0.044664
0.102732 0.608052 0.046004
0.214897 0.610640 0.048593
0.330621 0.613311 0.051263
0.448711 0.616036 0.053988
0.568590 0.618802 0.056755
0.689910 0.621602 0.059554
0.812439 0.624430 0.062382
0.936010 0.627281 0.065234
0.054556 0.741078 0.054556
0.113712 0.742444 0.055921
0.225826 0.745031 0.058508
0.341496 0.747700 0.061177
0.459533 0.750424 0.063901
0.579357 0.753189 0.066667
0.700621 0.755988 0.069465
0.823094 0.758814 0.072291
0.946608 0.761664 0.075142
0.064497 0.876122 0.064497
0.124549 0.877508 0.065883
0.236612 0.880094 0.068469
0.352229 0.882762 0.071137
0.470211 0.885484 0.073860
0.589980 0.888248 0.076624
0.711188 0.891046 0.079421
0.833605 0.893871 0.082246
0.957062 0.896720 0.085095
0.071520 0.971520 0.071520
0.132272 0.972922 0.072922
0.244282 0.975507 0.075507
0.359846 0.978174 0.078174
0.477774 0.980895 0.080895
0.597487 0.983658 0.083658
0.718639 0.986454 0.086454
0.840999 0.989277 0.089277
0.964400 0.992125 0.092125
0.001068 0.001068 0.134150
0.051315 0.002217 0.134031
0.163712 0.004800 0.135257
0.279675 0.007466 0.136543
0.398010 0.010186 0.137876
0.518137 0.012947 0.139251
0.639709 0.015742 0.140666
0.762492 0.018564 0.142119
0.886319 0.021411 0.143607
0.006936 0.081265 0.135245
0.059053 0.082458 0.135234
0.171403 0.085041 0.136528
0.287318 0.087706 0.137885
0.405603 0.090425 0.139290
0.525681 0.093186 0.140740
0.647201 0.095980 0.142229
0.769933 0.098802 0.143757
0.893709 0.101649 0.145321
0.016407 0.210391 0.140002
0.070294 0.211625 0.140099
0.182595 0.214207 0.141465
0.298459 0.216872 0.142896
0.416694 0.219590 0.144377
0.536719 0.222350 0.145903
0.658187 0.225144 0.147470
0.780866 0.227966 0.149076
0.904588 0.230811 0.150720
0.026029 0.341560 0.145109
0.081529 0.342832 0.145312
0.193780 0.345414 0.146751
0.309593 0.348077 0.148257
0.427776 0.350795 0.149815
0.547748 0.353555 0.151418
0.669162 0.356348 0.153065
0.791787 0.359169 0.154750
0.915454 0.362014 0.156474
0.035753 0.474075 0.150550
0.092690 0.475381 0.150855
0.204892 0.477962 0.152368
0.320653 0.480625 0.153949
0.438783 0.483342 0.155585
0.558701 0.486101 0.157267
0.680062 0.488894 0.158993
0.802631 0.491714 0.160759
0.926244 0.494558 0.162564
0.045553 0.607600 0.156319
0.103745 0.608936 0.156721
0.215897 0.611516 0.158309
0.331606 0.614178 0.159967
0.449682 0.616895 0.161680
0.569547 0.619654 0.163442
0.690853 0.622445 0.165248
0.813367 0.625265 0.167096
0.936924 0.628109 0.168982
0.055414 0.741937 0.162412
0.114673 0.743297 0.162909
0.226774 0.745877 0.164571
0.342431 0.748539 0.166306
0.460454 0.751255 0.168098
0.580265 0.754013 0.169940
0.701515 0.756804 0.171826
0.823975 0.759623 0.173755
0.947476 0.762466 0.175724
0.065327 0.876952 0.168828
0.125461 0.878334 0.169415
0.237511 0.880913 0.171152
0.353115 0.883574 0.172965
0.471084 0.886290 0.174836
0.590840 0.889047 0.176758
0.712036 0.891837 0.178726
0.834440 0.894656 0.180737
0.957884 0.897498 0.182789
0.072325 0.972324 0.172606
0.133136 0.973722 0.173279
0.245135 0.976301 0.175092
0.360686 0.978961 0.176982
0.478601 0.981676 0.178932
0.598303 0.984433 0.180935
0.719443 0.987223 0.182984
0.841791 0.990040 0.185077
0.965179 0.992882 0.187212
0.002158 0.002158 0.271210
0.052639 0.003313 0.271104
0.165031 0.005897 0.272338
0.280987 0.008562 0.273632
0.399317 0.011282 0.274974
0.519438 0.014043 0.276358
0.641003 0.016838 0.277782
0.763780 0.019660 0.279244
0.887602 0.022507 0.280742
0.008027 0.082356 0.272334
0.060357 0.083554 0.272336
0.172702 0.086137 0.273639
0.288610 0.088802 0.275003
0.406890 0.091521 0.276418
0.526961 0.094282 0.277876
0.648476 0.097076 0.279374
0.771202 0.099898 0.280911
0.894972 0.102744 0.282485
0.017498 0.211482 0.277122
0.071577 0.212721 0.277231
0.183873 0.215303 0.278606
0.299731 0.217967 0.280045
0.417960 0.220686 0.281535
0.537979 0.223446 0.283070
0.659441 0.226239 0.284646
0.782113 0.229061 0.286261
0.905830 0.231907 0.287914
0.027121 0.342651 0.282261
0.082791 0.343928 0.282475
0.195037 0.346509 0.283923
0.310844 0.349173 0.285437
0.429021 0.351891 0.287003
0.548987 0.354650 0.288616
0.670395 0.357443 0.290271
0.793014 0.360264 0.291966
0.916675 0.363109 0.293699
0.036845 0.475166 0.287734
0.093931 0.476476 0.288049
0.206128 0.479057 0.289571
0.321883 0.481720 0.291161
0.440007 0.484437 0.292805
0.559919 0.487196 0.294496
0.681273 0.489988 0.296231
0.803837 0.492809 0.298006
0.927443 0.495653 0.299820
0.046645 0.608692 0.293534
0.104965 0.610031 0.293947
0.217111 0.612611 0.295543
0.332814 0.615273 0.297210
0.450885 0.617990 0.298932
0.570743 0.620748 0.300703
0.692043 0.623540 0.302518
0.814552 0.626360 0.304374
0.938102 0.629203 0.306270
0.056506 0.743029 0.299659
0.115872 0.744392 0.300166
0.227967 0.746972 0.301837
0.343618 0.749634 0.303580
0.461635 0.752350 0.305381
0.581439 0.755108 0.307232
0.702684 0.757899 0.309127
0.825137 0.760718 0.311065
0.948632 0.763561 0.313044
0.066420 0.878045 0.306108
0.126638 0.879428 0.306705
0.238682 0.882007 0.308450
0.354280 0.884668 0.310271
0.472244 0.887384 0.312151
0.591994 0.890141 0.314082
0.713183 0.892931 0.316059
0.835581 0.895750 0.318079
0.959019 0.898592 0.320140
0.073417 0.973417 0.309918
0.134291 0.974816 0.310601
0.246284 0.977395 0.312421
0.361830 0.980055 0.314320
0.479739 0.982771 0.316279
0.599434 0.985527 0.318291
0.720568 0.988317 0.320349
0.842910 0.991134 0.322451
0.966292 0.993976 0.324595
0.003244 0.003244 0.407574
0.053954 0.004404 0.407481
0.166340 0.006987 0.408724
0.282291 0.009652 0.410026
0.400614 0.012372 0.411377
0.520729 0.015133 0.412770
0.642289 0.017928 0.414203
0.765060 0.020750 0.415673
0.888875 0.023597 0.417180
0.009112 0.083442 0.408728
0.061653 0.084645 0.408742
0.173992 0.087227 0.410053
0.289894 0.089892 0.411427
0.408168 0.092611 0.412850
0.528233 0.095372 0.414317
0.649742 0.098166 0.415824
0.772462 0.100988 0.417370
0.896225 0.103834 0.418952
0.018584 0.212568 0.413547
0.072852 0.213811 0.413668
0.185142 0.216393 0.415051
0.300995 0.219057 0.416498
0.419217 0.221776 0.417997
0.539230 0.224536 0.419541
0.660686 0.227329 0.421126
0.783353 0.230151 0.422750
0.907063 0.232996 0.424412
0.028207 0.343737 0.418717
0.084045 0.345018 0.418943
0.196285 0.347599 0.420398
0.312087 0.350262 0.421921
0.430257 0.352980 0.423496
0.550217 0.355740 0.425118
0.671620 0.358533 0.426782
0.794232 0.361353 0.428486
0.917887 0.364198 0.430228
0.037931 0.476253 0.424221
0.095164 0.477566 0.424548
0.207355 0.480147 0.426077
0.323104 0.482809 0.427676
0.441222 0.485527 0.429329
0.561128 0.488286 0.431029
0.682477 0.491078 0.432773
0.805034 0.493898 0.434557
0.928634 0.496742 0.436380
0.047731 0.609779 0.430053
0.106176 0.611120 0.430477
0.218317 0.613700 0.432081
0.334014 0.616363 0.433756
0.452079 0.619079 0.435487
0.571931 0.621838 0.437267
0.693225 0.624629 0.439091
0.815728 0.627449 0.440956
0.939272 0.630292 0.442861
0.057593 0.744116 0.436210
0.117062 0.745481 0.436728
0.229151 0.748061 0.438406
0.344796 0.750723 0.440158
0.462808 0.753439 0.441968
0.582606 0.756196 0.443827
0.703845 0.758987 0.445732
0.826292 0.761806 0.447679
0.949781 0.764649 0.449666
0.067507 0.879132 0.442691
0.127806 0.880517 0.443298
0.239845 0.883096 0.445051
0.355437 0.885757 0.446881
0.473395 0.888473 0.448770
0.593139 0.891230 0.450709
0.714322 0.894020 0.452695
0.836714 0.896838 0.454724
0.960146 0.899681 0.456794
0.074504 0.974504 0.446534
0.135438 0.975905 0.447226
0.247425 0.978484 0.449055
0.362965 0.981144 0.450962
0.480869 0.983859 0.452930
0.600558 0.986615 0.454950
0.721686 0.989405 0.457017
0.844021 0.992223 0.459128
0.967397 0.995064 0.461281
0.004325 0.004325 0.543486
0.055262 0.005491 0.543407
0.167643 0.008074 0.544657
0.283588 0.010739 0.545968
0.401905 0.013459 0.547327
0.522015 0.016220 0.548729
0.643568 0.019014 0.550171
0.766333 0.021837 0.551650
0.890142 0.024684 0.553166
0.010194 0.084524 0.544670
0.062941 0.085731 0.544696
0.175275 0.088314 0.546016
0.291171 0.090978 0.547397
0.409440 0.093698 0.548829
0.529499 0.096458 0.550305
0.651001 0.099252 0.551821
0.773715 0.102074 0.553376
0.897473 0.104920 0.554967
0.019666 0.213650 0.549519
0.074120 0.214898 0.549652
0.186405 0.217480 0.551044
0.302251 0.220143 0.552499
0.420468 0.222862 0.554007
0.540475 0.225622 0.555559
0.661925 0.228415 0.557153
0.784585 0.231237 0.558786
0.908289 0.234082 0.560457
0.029289 0.344820 0.554721
0.085292 0.346104 0.554958
0.197527 0.348685 0.556422
0.313323 0.351348 0.557953
0.431487 0.354066 0.559537
0.551441 0.356826 0.561167
0.672837 0.359619 0.562840
0.795444 0.362439 0.564552
0.919093 0.365284 0.566304
0.039014 0.477335 0.560256
0.096390 0.478652 0.560594
0.208575 0.481232 0.562131
0.324319 0.483895 0.563739
0.442431 0.486613 0.565400
0.562331 0.489371 0.567109
0.683674 0.492163 0.568861
0.806225 0.494984 0.570655
0.929819 0.497828 0.572487
0.048814 0.610861 0.566120
0.107381 0.612206 0.566555
0.219516 0.614786 0.568166
0.335208 0.617448 0.569850
0.453267 0.620165 0.571590
0.573113 0.622923 0.573378
0.694401 0.625715 0.575211
0.816897 0.628534 0.577085
0.940436 0.631378 0.578999
0.058676 0.745199 0.572309
0.118245 0.746567 0.572836
0.230329 0.749146 0.574523
0.345969 0.751808 0.576284
0.463974 0.754524 0.578102
0.583767 0.757282 0.579970
0.704999 0.760073 0.581883
0.827440 0.762891 0.583839
0.950923 0.765734 0.585836
0.068590 0.880215 0.578822
0.128968 0.881602 0.579438
0.241001 0.884181 0.581200
0.356588 0.886842 0.583038
0.474540 0.889558 0.584935
0.594278 0.892315 0.586883
0.715455 0.895105 0.588878
0.837840 0.897923 0.590916
0.961267 0.900765 0.592995
0.075588 0.975588 0.582697
0.136578 0.976990 0.583398
0.248560 0.979568 0.585235
0.364094 0.982229 0.587150
0.481992 0.984944 0.589127
0.601675 0.987700 0.591156
0.722797 0.990490 0.593232
0.845127 0.993307 0.595352
0.968496 0.996149 0.597514
0.005404 0.005404 0.679063
0.056565 0.006575 0.678996
0.168940 0.009158 0.680255
0.284879 0.011823 0.681574
0.403191 0.014543 0.682942
0.523294 0.017304 0.684352
0.644841 0.020098 0.685803
0.767600 0.022921 0.687292
0.891403 0.025767 0.688816
0.011274 0.085603 0.680275
0.064224 0.086815 0.680314
0.176552 0.089398 0.681642
0.292443 0.092062 0.683032
0.410705 0.094781 0.684472
0.530759 0.097542 0.685957
0.652255 0.100336 0.687482
0.774963 0.103158 0.689046
0.898714 0.106004 0.690646
0.020745 0.214729 0.685156
0.075382 0.215981 0.685301
0.187662 0.218563 0.686700
0.303503 0.221227 0.688164
0.421713 0.223946 0.689680
0.541715 0.226706 0.691241
0.663158 0.229499 0.692844
0.785813 0.232320 0.694486
0.909510 0.235165 0.696166
0.030369 0.345899 0.690388
0.086534 0.347187 0.690636
0.198763 0.349769 0.692109
0.314553 0.352432 0.693648
0.432712 0.355150 0.695241
0.552660 0.357909 0.696880
0.674050 0.360702 0.698561
0.796650 0.363522 0.700283
0.920293 0.366367 0.702043
0.040093 0.478415 0.695955
0.097611 0.479735 0.696304
0.209790 0.482316 0.697850
0.325528 0.484978 0.699465
0.443634 0.487696 0.701135
0.563529 0.490454 0.702853
0.684865 0.493246 0.704614
0.807411 0.496066 0.706416
0.930999 0.498911 0.708258
0.049894 0.611942 0.701851
0.108581 0.613289 0.702296
0.220710 0.615869 0.703916
0.336396 0.618531 0.705608
0.454449 0.621248 0.707356
0.574290 0.624006 0.709153
0.695571 0.626797 0.710994
0.818062 0.629617 0.712878
0.941594 0.632460 0.714801
0.059757 0.746279 0.708071
0.119423 0.747650 0.708609
0.231502 0.750229 0.710303
0.347136 0.752891 0.712072
0.465135 0.755607 0.713899
0.584922 0.758364 0.715776
0.706148 0.761155 0.717698
0.828583 0.763974 0.719663
0.952060 0.766817 0.721669
0.069671 0.881296 0.714616
0.130125 0.882685 0.715242
0.242152 0.885264 0.717012
0.357734 0.887925 0.718858
0.475679 0.890640 0.720764
0.595411 0.893397 0.722721
0.716583 0.896187 0.724724
0.838962 0.899005 0.726771
0.962382 0.901847 0.728859
0.076669 0.976669 0.718523
0.137714 0.978072 0.719233
0.249690 0.980651 0.721078
0.365218 0.983311 0.723002
0.483110 0.986026 0.724987
0.602787 0.988782 0.727025
0.723904 0.991572 0.729110
0.846227 0.994389 0.731239
0.969590 0.997231 0.733410
0.006481 0.006481 0.814372
0.057863 0.007657 0.814318
0.170232 0.010240 0.815585
0.286166 0.012905 0.816913
0.404471 0.015625 0.818289
0.524569 0.018386 0.819709
0.646110 0.021180 0.821168
0.768863 0.024002 0.822665
0.892659 0.026849 0.824199
0.012351 0.086680 0.815614
0.065502 0.087897 0.815665
0.177824 0.090480 0.817001
0.293710 0.093144 0.818400
0.411966 0.095863 0.819849
0.532014 0.098623 0.821342
0.653504 0.101417 0.822876
0.776206 0.104239 0.824448
0.899951 0.107085 0.826058
0.021823 0.215807 0.820525
0.076640 0.217063 0.820682
0.188914 0.219645 0.822089
0.304749 0.222309 0.823562
0.422954 0.225027 0.825087
0.542949 0.227787 0.826656
0.664387 0.230580 0.828268
0.787035 0.233401 0.829919
0.910727 0.236247 0.831608
0.031447 0.346977 0.825788
0.087770 0.348269 0.826048
0.199995 0.350850 0.827529
0.315779 0.353513 0.829076
0.433931 0.356231 0.830678
0.553874 0.358990 0.832325
0.675258 0.361783 0.834016
0.797852 0.364603 0.835747
0.921489 0.367448 0.837516
0.041171 0.479493 0.831387
0.098827 0.480816 0.831746
0.211001 0.483397 0.833300
0.326733 0.486059 0.834924
0.444833 0.488777 0.836603
0.564722 0.491535 0.838329
0.686052 0.494327 0.840099
0.808591 0.497147 0.841910
0.932173 0.499991 0.843761
0.050972 0.613020 0.837314
0.109775 0.614370 0.837769
0.221899 0.616950 0.839397
0.337580 0.619612 0.841098
0.455627 0.622328 0.842855
0.575461 0.625086 0.844660
0.696737 0.627878 0.846511
0.819221 0.630697 0.848403
0.942747 0.633541 0.850335
0.060835 0.747358 0.843566
0.120597 0.748730 0.844114
0.232670 0.751310 0.845817
0.348298 0.753971 0.847594
0.466292 0.756687 0.849429
0.586072 0.759445 0.851315
0.707293 0.762235 0.853246
0.829722 0.765054 0.855220
0.953192 0.767897 0.857234
0.070750 0.882374 0.850143
0.131277 0.883765 0.850778
0.243299 0.886344 0.852556
0.358875 0.889005 0.854411
0.476815 0.891720 0.856325
0.596541 0.894477 0.858291
0.717706 0.897267 0.860303
0.840079 0.900085 0.862359
0.963493 0.902927 0.864456
0.077748 0.977748 0.854082
0.138844 0.979152 0.854801
0.250815 0.981731 0.856654
0.366338 0.984391 0.858587
0.484224 0.987106 0.860580
0.603895 0.989862 0.862627
0.725005 0.992651 0.864721
0.847322 0.995469 0.866859
0.970680 0.998310 0.869039
0.007220 0.007220 0.907220
0.058830 0.008411 0.908411
0.171204 0.011004 0.911004
0.287142 0.013680 0.913680
0.405453 0.016410 0.916410
0.525555 0.019182 0.919182
0.647101 0.021987 0.921987
0.769858 0.024819 0.924819
0.893659 0.027676 0.927676
0.013127 0.087456 0.913127
0.066486 0.088687 0.914358
0.178812 0.091279 0.916950
0.294702 0.093954 0.919625
0.412963 0.096683 0.922354
0.533015 0.099453 0.925124
0.654509 0.102257 0.927928
0.777215 0.105089 0.930760
0.900964 0.107945 0.933615
0.022635 0.216619 0.922635
0.077639 0.217889 0.923905
0.189917 0.220480 0.926496
0.305756 0.223153 0.929169
0.423964 0.225881 0.931897
0.543963 0.228650 0.934666
0.665404 0.231452 0.937468
0.788056 0.234283 0.940299
0.911750 0.237137 0.943153
0.032294 0.347825 0.932294
0.088783 0.349128 0.933598
0.201010 0.351718 0.936188
0.316797 0.354390 0.938860
0.434953 0.357117 0.941586
0.554899 0.359885 0.944354
0.676286 0.362686 0.947156
0.798882 0.365515 0.949985
0.922522 0.368368 0.952838
0.042052 0.480374 0.942052
0.099850 0.481708 0.943386
0.212027 0.484296 0.945975
0.327762 0.486967 0.948645
0.445865 0.489693 0.951371
0.565756 0.492459 0.954138
0.687088 0.495259 0.956938
0.809629 0.498087 0.959765
0.933213 0.500939 0.962617
0.051884 0.613931 0.951884
0.110809 0.615291 0.953244
0.222934 0.617879 0.955831
0.338617 0.620548 0.958501
0.456666 0.623273 0.961225
0.576502 0.626038 0.963991
0.697779 0.628837 0.966789
0.820265 0.631664 0.969616
0.943792 0.634514 0.972467
0.061776 0.748298 0.961776
0.121637 0.749680 0.963157
0.233711 0.752266 0.965743
0.349341 0.754934 0.968412
0.467336 0.757657 0.971135
0.587117 0.760422 0.973899
0.708339 0.763219 0.976696
0.830768 0.766044 0.979522
0.954239 0.768894 0.982371
0.071717 0.883342 0.971717
0.132322 0.884740 0.973116
0.244345 0.887326 0.975701
0.359921 0.889993 0.978368
0.477861 0.892714 0.981090
0.597588 0.895477 0.983853
0.718753 0.898273 0.986649
0.841127 0.901097 0.989473
0.964540 0.903946 0.992321
0.078740 0.978740 0.978740
0.139891 0.980151 0.980151
0.251862 0.982735 0.982735
0.367385 0.985401 0.985401
0.485271 0.988122 0.988122
0.604942 0.990883 0.990883
0.726052 0.993678 0.993678
0.848368 0.996501 0.996501
0.971725 0.999348 0.999348
0.007220 0.007220 0.907220
0.058883 0.008412 0.908412
0.171256 0.011005 0.911005
0.287193 0.013681 0.913681
0.405502 0.016411 0.916411
0.525603 0.019183 0.919183
0.647147 0.021988 0.921988
0.769903 0.024821 0.924820
0.893703 0.027677 0.927677
0.013127 0.087456 0.913127
0.066534 0.088688 0.914359
0.178860 0.091280 0.916951
0.294748 0.093955 0.919626
0.413007 0.096684 0.922355
0.533057 0.099454 0.925125
0.654551 0.102258 0.927929
0.777254 0.105090 0.930761
0.901002 0.107945 0.933616
0.022635 0.216619 0.922635
0.077683 0.217890 0.923906
0.189959 0.220481 0.926497
0.305796 0.223154 0.929170
0.424004 0.225882 0.931898
0.544001 0.228651 0.934667
0.665441 0.231453 0.937469
0.788091 0.234284 0.940300
0.911784 0.237138 0.943154
0.032294 0.347825 0.932294
0.088821 0.349129 0.933599
0.201047 0.351719 0.936188
0.316833 0.354391 0.938860
0.434988 0.357118 0.941587
0.554931 0.359885 0.944355
0.676317 0.362687 0.947156
0.798912 0.365516 0.949985
0.922550 0.368369 0.952839
0.042052 0.480374 0.942052
0.099884 0.481708 0.943387
0.212059 0.484297 0.945975
0.327792 0.486968 0.948646
0.445894 0.489693 0.951371
0.565783 0.492460 0.954138
0.687114 0.495260 0.956938
0.809654 0.498088 0.959766
0.933236 0.500940 0.962618
0.051884 0.613931 0.951884
0.110836 0.615292 0.953244
0.222961 0.617879 0.955832
0.338642 0.620549 0.958502
0.456689 0.623273 0.961226
0.576524 0.626039 0.963991
0.697800 0.628837 0.966790
0.820284 0.631664 0.969616
0.943810 0.634515 0.972467
0.061776 0.748298 0.961776
0.121660 0.749680 0.963158
0.233732 0.752267 0.965744
0.349360 0.754935 0.968412
0.467354 0.757658 0.971135
0.587134 0.760422 0.973899
0.708354 0.763219 0.976697
0.830782 0.766045 0.979522
0.954251 0.768894 0.982371
0.071717 0.883342 0.971717
0.132339 0.884741 0.973116
0.244360 0.887326 0.975701
0.359935 0.889993 0.978368
0.477874 0.892715 0.981090
0.597599 0.895478 0.983853
0.718763 0.898274 0.986649
0.841135 0.901098 0.989473
0.964547 0.903946 0.992321
0.078740 0.978740 0.978740
0.139903 0.980151 0.980151
0.251873 0.982735 0.982735
0.367394 0.985401 0.985401
0.485279 0.988122 0.988122
0.604948 0.990883 0.990883
0.726056 0.993678 0.993678
0.848371 0.996501 0.996501
0.971726 0.999348 0.999348
