assets/luts/Moody Cool.cube
# StudioPhoto — LUT d'exemple : Moody Cool
TITLE "Moody Cool"
LUT_3D_SIZE 5
0.000000 0.000000 0.000000
0.162433 0.003748 0.003748
0.396765 0.009156 0.009156
0.638498 0.014735 0.014735
0.885143 0.020427 0.020427
0.015415 0.209399 0.015415
0.181432 0.213230 0.019246
0.415562 0.218633 0.024649
0.657087 0.224207 0.030223
0.903520 0.229894 0.035910
0.034832 0.473154 0.034832
0.203840 0.477054 0.038732
0.437760 0.482452 0.044130
0.679068 0.488021 0.049699
0.925280 0.493703 0.055381
0.054556 0.741078 0.054556
0.225826 0.745031 0.058508
0.459533 0.750424 0.063901
0.700621 0.755988 0.069465
0.946608 0.761664 0.075142
0.071520 0.971520 0.071520
0.244282 0.975507 0.075507
0.477774 0.980895 0.080895
0.718639 0.986454 0.086454
0.964400 0.992125 0.092125
0.002158 0.002158 0.271210
0.165031 0.005897 0.272338
0.399317 0.011282 0.274974
0.641003 0.016838 0.277782
0.887602 0.022507 0.280742
0.017498 0.211482 0.277122
0.183873 0.215303 0.278606
0.417960 0.220686 0.281535
0.659441 0.226239 0.284646
0.905830 0.231907 0.287914
0.036845 0.475166 0.287734
0.206128 0.479057 0.289571
0.440007 0.484437 0.292805
0.681273 0.489988 0.296231
0.927443 0.495653 0.299820
0.056506 0.743029 0.299659
0.227967 0.746972 0.301837
0.461635 0.752350 0.305381
0.702684 0.757899 0.309127
0.948632 0.763561 0.313044
0.073417 0.973417 0.309918
0.246284 0.977395 0.312421
0.479739 0.982771 0.316279
0.720568 0.988317 0.320349
0.966292 0.993976 0.324595
0.004325 0.004325 0.543486
0.167643 0.008074 0.544657
0.401905 0.013459 0.547327
0.643568 0.019014 0.550171
0.890142 0.024684 0.553166
0.019666 0.213650 0.549519
0.186405 0.217480 0.551044
0.420468 0.222862 0.554007
0.661925 0.228415 0.557153
0.908289 0.234082 0.560457
0.039014 0.477335 0.560256
0.208575 0.481232 0.562131
0.442431 0.486613 0.565400
0.683674 0.492163 0.568861
0.929819 0.497828 0.572487
0.058676 0.745199 0.572309
0.230329 0.749146 0.574523
0.463974 0.754524 0.578102
0.704999 0.760073 0.581883
0.950923 0.765734 0.585836
0.075588 0.975588 0.582697
0.248560 0.979568 0.585235
0.481992 0.984944 0.589127
0.722797 0.990490 0.593232
0.968496 0.996149 0.597514
0.006481 0.006481 0.814372
0.170232 0.010240 0.815585
0.404471 0.015625 0.818289
0.646110 0.021180 0.821168
0.892659 0.026849 0.824199
0.021823 0.215807 0.820525
0.188914 0.219645 0.822089
0.422954 0.225027 0.825087
0.664387 0.230580 0.828268
0.910727 0.236247 0.831608
0.041171 0.479493 0.831387
0.211001 0.483397 0.833300
0.444833 0.488777 0.836603
0.686052 0.494327 0.840099
0.932173 0.499991 0.843761
0.060835 0.747358 0.843566
0.232670 0.751310 0.845817
0.466292 0.756687 0.849429
0.707293 0.762235 0.853246
0.953192 0.767897 0.857234
0.077748 0.977748 0.854082
0.250815 0.981731 0.856654
0.484224 0.987106 0.860580
0.725005 0.992651 0.864721
0.970680 0.998310 0.869039
0.007220 0.007220 0.907220
0.171256 0.011005 0.911005
0.405502 0.016411 0.916411
0.647147 0.021988 0.921988
0.893703 0.027677 0.927677
0.022635 0.216619 0.922635
0.189959 0.220481 0.926497
0.424004 0.225882 0.931898
0.665441 0.231453 0.937469
0.911784 0.237138 0.943154
0.042052 0.480374 0.942052
0.212059 0.484297 0.945975
0.445894 0.489693 0.951371
0.687114 0.495260 0.956938
0.933236 0.500940 0.962618
0.061776 0.748298 0.961776
0.233732 0.752267 0.965744
0.467354 0.757658 0.971135
0.708354 0.763219 0.976697
0.954251 0.768894 0.982371
0.078740 0.978740 0.978740
0.251873 0.982735 0.982735
0.485279 0.988122 0.988122
0.726056 0.993678 0.993678
0.971726 0.999348 0.999348
