assets/luts/Moody Cool.cube
# StudioPhoto — LUT d'exemple : Moody Cool
TITLE "Moody Cool"
LUT_3D_SIZE 33
0.000000 0.000000 0.000000
0.000000 0.000000 0.000000
0.000000 0.000000 0.000000
0.022784 0.000526 0.000526
0.050019 0.001154 0.001154
0.077670 0.001792 0.001792
0.105655 0.002438 0.002438
0.133922 0.003091 0.003091
0.162433 0.003748 0.003748
0.191158 0.004411 0.004411
0.220074 0.005079 0.005079
0.249164 0.005750 0.005750
0.278413 0.006425 0.006425
0.307807 0.007103 0.007103
0.337336 0.007785 0.007785
0.366991 0.008469 0.008469
0.396765 0.009156 0.009156
0.426649 0.009846 0.009846
0.456638 0.010538 0.010538
0.486727 0.011232 0.011232
0.516909 0.011929 0.011929
0.547181 0.012627 0.012627
0.577540 0.013328 0.013328
0.607979 0.014030 0.014030
0.638498 0.014735 0.014735
0.669092 0.015441 0.015441
0.699758 0.016148 0.016148
0.730495 0.016858 0.016858
0.761298 0.017569 0.017569
0.792167 0.018281 0.018281
0.823099 0.018995 0.018995
0.854091 0.019710 0.019710
0.885143 0.020427 0.020427
0.000000 0.000000 0.000000
0.000000 0.000000 0.000000
0.000000 0.000000 0.000000
0.023255 0.000537 0.000537
0.050488 0.001165 0.001165
0.078135 0.001803 0.001803
0.106118 0.002449 0.002449
0.134382 0.003101 0.003101
0.162890 0.003759 0.003759
0.191612 0.004422 0.004422
0.220525 0.005089 0.005089
0.249612 0.005760 0.005760
0.278858 0.006435 0.006435
0.308249 0.007113 0.007113
0.337775 0.007795 0.007795
0.367428 0.008479 0.008479
0.397198 0.009166 0.009166
0.427079 0.009856 0.009856
0.457065 0.010548 0.010548
0.487151 0.011242 0.011242
0.517330 0.011938 0.011938
0.547599 0.012637 0.012637
0.577955 0.013338 0.013338
0.608391 0.014040 0.014040
0.638907 0.014744 0.014744
0.669498 0.015450 0.015450
0.700161 0.016158 0.016158
0.730894 0.016867 0.016867
0.761695 0.017578 0.017578
0.792561 0.018290 0.018290
0.823489 0.019004 0.019004
0.854479 0.019719 0.019719
0.885527 0.020435 0.020435
0.001250 0.016983 0.001250
0.001250 0.016983 0.001250
0.001250 0.016983 0.001250
0.024986 0.017531 0.001798
0.052216 0.018159 0.002426
0.079860 0.018797 0.003064
0.107840 0.019443 0.003710
0.136101 0.020095 0.004362
0.164606 0.020753 0.005020
0.193325 0.021416 0.005683
0.222236 0.022083 0.006350
0.251319 0.022754 0.007021
0.280562 0.023429 0.007696
0.309950 0.024107 0.008374
0.339473 0.024788 0.009055
0.369122 0.025473 0.009740
0.398890 0.026160 0.010427
0.428768 0.026849 0.011116
0.458751 0.027541 0.011808
0.488833 0.028235 0.012502
0.519009 0.028932 0.013199
0.549275 0.029630 0.013897
0.579627 0.030331 0.014598
0.610061 0.031033 0.015300
0.640573 0.031737 0.016004
0.671160 0.032443 0.016710
0.701821 0.033150 0.017417
0.732551 0.033860 0.018127
0.763348 0.034570 0.018837
0.794210 0.035282 0.019549
0.825136 0.035996 0.020263
0.856122 0.036711 0.020978
0.887167 0.037428 0.021695
0.003567 0.048448 0.003567
0.003567 0.048448 0.003567
0.003567 0.048448 0.003567
0.027780 0.049007 0.004125
0.055007 0.049635 0.004754
0.082648 0.050273 0.005392
0.110625 0.050919 0.006037
0.138884 0.051571 0.006689
0.167385 0.052229 0.007347
0.196101 0.052892 0.008010
0.225008 0.053559 0.008677
0.254089 0.054230 0.009348
0.283328 0.054904 0.010023
0.312713 0.055583 0.010701
0.342233 0.056264 0.011382
0.371879 0.056948 0.012066
0.401643 0.057635 0.012753
0.431518 0.058324 0.013442
0.461498 0.059016 0.014134
0.491577 0.059710 0.014828
0.521750 0.060407 0.015525
0.552013 0.061105 0.016223
0.582362 0.061805 0.016924
0.612792 0.062508 0.017626
0.643301 0.063212 0.018330
0.673885 0.063917 0.019036
0.704542 0.064625 0.019743
0.735269 0.065334 0.020452
0.766063 0.066045 0.021163
0.796922 0.066757 0.021875
0.827844 0.067470 0.022589
0.858827 0.068185 0.023304
0.889869 0.068902 0.024020
0.005907 0.080236 0.005907
0.005907 0.080236 0.005907
0.005907 0.080236 0.005907
0.030591 0.080805 0.006476
0.057815 0.081434 0.007105
0.085454 0.082072 0.007742
0.113428 0.082717 0.008388
0.141683 0.083369 0.009040
0.170182 0.084027 0.009698
0.198894 0.084689 0.010360
0.227799 0.085356 0.011027
0.256876 0.086027 0.011698
0.286112 0.086702 0.012373
0.315494 0.087380 0.013051
0.345011 0.088061 0.013732
0.374654 0.088745 0.014416
0.404415 0.089432 0.015103
0.434286 0.090122 0.015792
0.464263 0.090813 0.016484
0.494339 0.091507 0.017178
0.524508 0.092204 0.017875
0.554768 0.092902 0.018573
0.585113 0.093602 0.019273
0.615540 0.094304 0.019975
0.646046 0.095008 0.020679
0.676627 0.095714 0.021385
0.707281 0.096421 0.022092
0.738004 0.097131 0.022801
0.768795 0.097841 0.023512
0.799650 0.098553 0.024224
0.830569 0.099267 0.024937
0.861549 0.099982 0.025652
0.892587 0.100698 0.026369
0.008265 0.112265 0.008265
0.008265 0.112265 0.008265
0.008265 0.112265 0.008265
0.033413 0.112845 0.008845
0.060634 0.113474 0.009473
0.088270 0.114111 0.010111
0.116241 0.114757 0.010756
0.144493 0.115409 0.011408
0.172988 0.116066 0.012066
0.201698 0.116729 0.012728
0.230599 0.117396 0.013395
0.259674 0.118067 0.014066
0.288906 0.118742 0.014741
0.318285 0.119419 0.015419
0.347799 0.120101 0.016100
0.377438 0.120785 0.016784
0.407196 0.121471 0.017471
0.437064 0.122161 0.018160
0.467038 0.122852 0.018852
0.497110 0.123546 0.019546
0.527277 0.124242 0.020242
0.557533 0.124941 0.020940
0.587875 0.125641 0.021640
0.618299 0.126343 0.022342
0.648801 0.127047 0.023046
0.679379 0.127752 0.023752
0.710029 0.128460 0.024459
0.740749 0.129169 0.025168
0.771536 0.129879 0.025879
0.802389 0.130591 0.026591
0.833304 0.131305 0.027304
0.864280 0.132019 0.028019
0.895315 0.132736 0.028735
0.010637 0.144488 0.010637
0.010637 0.144488 0.010637
0.010637 0.144488 0.010637
0.036241 0.145079 0.011228
0.063459 0.145707 0.011856
0.091091 0.146345 0.012493
0.119059 0.146991 0.013139
0.147308 0.147642 0.013791
0.175801 0.148300 0.014448
0.204507 0.148962 0.015111
0.233405 0.149629 0.015778
0.262476 0.150300 0.016448
0.291706 0.150975 0.017123
0.321081 0.151653 0.017801
0.350592 0.152334 0.018482
0.380228 0.153018 0.019166
0.409983 0.153704 0.019852
0.439848 0.154393 0.020542
0.469818 0.155085 0.021233
0.499887 0.155779 0.021927
0.530050 0.156475 0.022623
0.560303 0.157173 0.023321
0.590642 0.157873 0.024022
0.621062 0.158575 0.024724
0.651561 0.159279 0.025427
0.682135 0.159985 0.026133
0.712782 0.160692 0.026840
0.743499 0.161401 0.027549
0.774283 0.162111 0.028259
0.805132 0.162823 0.028971
0.836044 0.163536 0.029685
0.867017 0.164251 0.030400
0.898048 0.164967 0.031116
0.013021 0.176874 0.013021
0.013021 0.176874 0.013021
0.013021 0.176874 0.013021
0.039071 0.177475 0.013622
0.066286 0.178103 0.014250
0.093916 0.178741 0.014888
0.121881 0.179386 0.015533
0.150127 0.180038 0.016185
0.178616 0.180695 0.016842
0.207319 0.181358 0.017505
0.236214 0.182025 0.018172
0.265282 0.182695 0.018842
0.294508 0.183370 0.019517
0.323880 0.184048 0.020195
0.353388 0.184729 0.020876
0.383021 0.185413 0.021559
0.412772 0.186099 0.022246
0.442634 0.186788 0.022935
0.472600 0.187480 0.023627
0.502666 0.188174 0.024320
0.532826 0.188870 0.025016
0.563076 0.189568 0.025715
0.593411 0.190268 0.026415
0.623828 0.190970 0.027117
0.654324 0.191673 0.027820
0.684895 0.192379 0.028526
0.715538 0.193086 0.029233
0.746251 0.193795 0.029942
0.777032 0.194505 0.030652
0.807878 0.195217 0.031364
0.838786 0.195930 0.032077
0.869756 0.196645 0.032792
0.900784 0.197361 0.033508
0.015415 0.209399 0.015415
0.015415 0.209399 0.015415
0.015415 0.209399 0.015415
0.041903 0.210010 0.016027
0.069114 0.210638 0.016654
0.096741 0.211276 0.017292
0.124703 0.211921 0.017937
0.152946 0.212573 0.018589
0.181432 0.213230 0.019246
0.210132 0.213893 0.019909
0.239023 0.214559 0.020575
0.268088 0.215230 0.021246
0.297311 0.215905 0.021921
0.326680 0.216582 0.022598
0.356184 0.217263 0.023279
0.385814 0.217947 0.023963
0.415562 0.218633 0.024649
0.445420 0.219322 0.025339
0.475384 0.220014 0.026030
0.505446 0.220708 0.026724
0.535603 0.221404 0.027420
0.565849 0.222102 0.028118
0.596181 0.222802 0.028818
0.626595 0.223503 0.029519
0.657087 0.224207 0.030223
0.687654 0.224912 0.030929
0.718295 0.225620 0.031636
0.749004 0.226328 0.032344
0.779782 0.227039 0.033055
0.810624 0.227750 0.033766
0.841529 0.228463 0.034480
0.872495 0.229178 0.035194
0.903520 0.229894 0.035910
0.017819 0.242047 0.017819
0.017819 0.242047 0.017819
0.018072 0.242053 0.017825
0.044733 0.242668 0.018440
0.071942 0.243296 0.019068
0.099565 0.243933 0.019705
0.127524 0.244579 0.020350
0.155763 0.245230 0.021002
0.184246 0.245888 0.021659
0.212943 0.246550 0.022322
0.241832 0.247216 0.022988
0.270893 0.247887 0.023659
0.300113 0.248561 0.024333
0.329479 0.249239 0.025011
0.358979 0.249920 0.025692
0.388606 0.250604 0.026375
0.418350 0.251290 0.027062
0.448206 0.251979 0.027751
0.478166 0.252670 0.028442
0.508225 0.253364 0.029136
0.538378 0.254060 0.029832
0.568621 0.254758 0.030530
0.598950 0.255458 0.031229
0.629360 0.256159 0.031931
0.659849 0.256863 0.032635
0.690413 0.257568 0.033340
0.721050 0.258275 0.034047
0.751756 0.258984 0.034756
0.782530 0.259694 0.035466
0.813369 0.260406 0.036178
0.844270 0.261119 0.036891
0.875233 0.261833 0.037605
0.906254 0.262549 0.038321
0.020230 0.274804 0.020230
0.020230 0.274804 0.020230
0.020903 0.274819 0.020246
0.047561 0.275434 0.020861
0.074767 0.276062 0.021489
0.102387 0.276700 0.022126
0.130342 0.277345 0.022771
0.158579 0.277996 0.023423
0.187059 0.278654 0.024080
0.215753 0.279316 0.024742
0.244638 0.279982 0.025409
0.273696 0.280653 0.026079
0.302913 0.281327 0.026754
0.332275 0.282005 0.027431
0.361773 0.282686 0.028112
0.391396 0.283369 0.028796
0.421137 0.284055 0.029482
0.450989 0.284744 0.030171
0.480946 0.285436 0.030862
0.511001 0.286129 0.031556
0.541151 0.286825 0.032251
0.571391 0.287523 0.032949
0.601716 0.288223 0.033649
0.632123 0.288924 0.034351
0.662608 0.289628 0.035054
0.693169 0.290333 0.035760
0.723802 0.291040 0.036467
0.754505 0.291749 0.037175
0.785276 0.292459 0.037885
0.816111 0.293170 0.038597
0.847009 0.293883 0.039310
0.877968 0.294598 0.040024
0.908986 0.295314 0.040740
0.022649 0.307659 0.022649
0.022649 0.307659 0.022649
0.023731 0.307684 0.022674
0.050386 0.308299 0.023289
0.077589 0.308927 0.023917
0.105206 0.309564 0.024554
0.133158 0.310209 0.025199
0.161392 0.310861 0.025851
0.189868 0.311518 0.026508
0.218559 0.312180 0.027170
0.247441 0.312847 0.027836
0.276496 0.313517 0.028507
0.305709 0.314191 0.029181
0.335068 0.314869 0.029859
0.364562 0.315550 0.030539
0.394182 0.316233 0.031223
0.423920 0.316919 0.031909
0.453769 0.317608 0.032598
0.483722 0.318299 0.033289
0.513774 0.318993 0.033983
0.543921 0.319689 0.034678
0.574157 0.320386 0.035376
0.604479 0.321086 0.036076
0.634882 0.321788 0.036777
0.665364 0.322491 0.037481
0.695922 0.323196 0.038186
0.726552 0.323903 0.038893
0.757251 0.324612 0.039601
0.788018 0.325322 0.040311
0.818850 0.326033 0.041023
0.849745 0.326746 0.041736
0.880700 0.327461 0.042450
0.911715 0.328176 0.043166
0.025074 0.340605 0.025074
0.025074 0.340605 0.025074
0.026555 0.340639 0.025108
0.053207 0.341254 0.025723
0.080406 0.341881 0.026351
0.108021 0.342519 0.026988
0.135970 0.343164 0.027633
0.164200 0.343815 0.028285
0.192673 0.344472 0.028942
0.221361 0.345134 0.029604
0.250239 0.345801 0.030270
0.279291 0.346471 0.030941
0.308501 0.347145 0.031615
0.337857 0.347823 0.032292
0.367348 0.348503 0.032973
0.396964 0.349187 0.033656
0.426699 0.349873 0.034342
0.456544 0.350562 0.035031
0.486494 0.351253 0.035722
0.516543 0.351946 0.036416
0.546686 0.352642 0.037111
0.576919 0.353339 0.037809
0.607237 0.354039 0.038509
0.637638 0.354741 0.039210
0.668116 0.355444 0.039914
0.698670 0.356149 0.040619
0.729297 0.356856 0.041326
0.759993 0.357564 0.042034
0.790756 0.358274 0.042744
0.821585 0.358986 0.043455
0.852476 0.359699 0.044168
0.883428 0.360413 0.044882
0.914439 0.361128 0.045598
0.027506 0.373632 0.027506
0.027506 0.373632 0.027506
0.029374 0.373676 0.027549
0.056023 0.374290 0.028164
0.083219 0.374918 0.028791
0.110830 0.375555 0.029428
0.138776 0.376200 0.030073
0.167003 0.376852 0.030725
0.195473 0.377509 0.031382
0.224158 0.378171 0.032044
0.253033 0.378837 0.032710
0.282082 0.379507 0.033380
0.311289 0.380181 0.034054
0.340641 0.380859 0.034732
0.370128 0.381539 0.035412
0.399742 0.382223 0.036096
0.429473 0.382909 0.036782
0.459315 0.383597 0.037470
0.489261 0.384288 0.038162
0.519307 0.384982 0.038855
0.549447 0.385677 0.039550
0.579676 0.386375 0.040248
0.609991 0.387075 0.040948
0.640388 0.387776 0.041649
0.670863 0.388479 0.042352
0.701414 0.389184 0.043057
0.732037 0.389891 0.043764
0.762729 0.390599 0.044472
0.793489 0.391309 0.045182
0.824314 0.392020 0.045894
0.855202 0.392733 0.046606
0.886151 0.393447 0.047321
0.917158 0.394163 0.048036
0.029943 0.406737 0.029943
0.029943 0.406737 0.029943
0.032187 0.406788 0.029994
0.058833 0.407403 0.030609
0.086027 0.408031 0.031237
0.113635 0.408668 0.031874
0.141577 0.409313 0.032519
0.169801 0.409964 0.033170
0.198268 0.410621 0.033827
0.226949 0.411283 0.034489
0.255821 0.411949 0.035155
0.284867 0.412620 0.035825
0.314070 0.413294 0.036499
0.343419 0.413971 0.037177
0.372904 0.414651 0.037857
0.402514 0.415335 0.038540
0.432241 0.416021 0.039226
0.462080 0.416709 0.039915
0.492023 0.417400 0.040606
0.522065 0.418093 0.041299
0.552202 0.418789 0.041995
0.582428 0.419486 0.042692
0.612739 0.420186 0.043392
0.643133 0.420887 0.044093
0.673604 0.421591 0.044796
0.704151 0.422295 0.045501
0.734771 0.423002 0.046208
0.765460 0.423710 0.046916
0.796217 0.424420 0.047626
0.827038 0.425131 0.048337
0.857923 0.425844 0.049050
0.888868 0.426558 0.049764
0.919872 0.427274 0.050480
0.032385 0.439912 0.032385
0.032385 0.439912 0.032385
0.034995 0.439972 0.032445
0.061638 0.440587 0.033060
0.088828 0.441215 0.033687
0.116433 0.441852 0.034324
0.144373 0.442496 0.034969
0.172594 0.443148 0.035620
0.201057 0.443804 0.036277
0.229735 0.444466 0.036939
0.258604 0.445132 0.037605
0.287646 0.445803 0.038276
0.316846 0.446477 0.038949
0.346192 0.447154 0.039627
0.375673 0.447834 0.040307
0.405279 0.448517 0.040990
0.435004 0.449203 0.041676
0.464839 0.449892 0.042365
0.494779 0.450583 0.043056
0.524818 0.451276 0.043749
0.554951 0.451971 0.044444
0.585173 0.452669 0.045142
0.615481 0.453368 0.045841
0.645871 0.454069 0.046542
0.676340 0.454773 0.047245
0.706883 0.455477 0.047950
0.737499 0.456184 0.048657
0.768185 0.456892 0.049365
0.798938 0.457602 0.050075
0.829756 0.458313 0.050786
0.860637 0.459026 0.051498
0.891579 0.459740 0.052213
0.922579 0.460455 0.052928
0.034832 0.473154 0.034832
0.034832 0.473154 0.034832
0.037796 0.473222 0.034900
0.064436 0.473837 0.035515
0.091623 0.474464 0.036143
0.119225 0.475101 0.036780
0.147162 0.475746 0.037424
0.175379 0.476397 0.038075
0.203840 0.477054 0.038732
0.232514 0.477716 0.039394
0.261380 0.478382 0.040060
0.290419 0.479052 0.040730
0.319615 0.479726 0.041404
0.348958 0.480403 0.042081
0.378435 0.481083 0.042761
0.408039 0.481766 0.043445
0.437760 0.482452 0.044130
0.467592 0.483141 0.044819
0.497528 0.483831 0.045510
0.527564 0.484525 0.046203
0.557693 0.485220 0.046898
0.587912 0.485917 0.047595
0.618217 0.486617 0.048295
0.648603 0.487318 0.048996
0.679068 0.488021 0.049699
0.709608 0.488726 0.050404
0.740221 0.489432 0.051110
0.770903 0.490140 0.051818
0.801653 0.490850 0.052528
0.832467 0.491561 0.053239
0.863345 0.492273 0.053952
0.894283 0.492987 0.054666
0.925280 0.493703 0.055381
0.037284 0.506458 0.037284
0.037284 0.506458 0.037284
0.040590 0.506534 0.037360
0.067227 0.507149 0.037975
0.094412 0.507776 0.038602
0.122010 0.508413 0.039239
0.149944 0.509058 0.039884
0.178158 0.509709 0.040535
0.206615 0.510366 0.041191
0.235286 0.511027 0.041853
0.264149 0.511693 0.042519
0.293184 0.512363 0.043189
0.322378 0.513037 0.043863
0.351717 0.513714 0.044540
0.381191 0.514394 0.045220
0.410791 0.515077 0.045903
0.440509 0.515763 0.046589
0.470337 0.516452 0.047277
0.500270 0.517142 0.047968
0.530302 0.517835 0.048661
0.560429 0.518531 0.049356
0.590644 0.519228 0.050054
0.620946 0.519927 0.050753
0.651328 0.520628 0.051454
0.681790 0.521331 0.052157
0.712327 0.522036 0.052862
0.742936 0.522742 0.053568
0.773615 0.523450 0.054276
0.804361 0.524160 0.054986
0.835172 0.524871 0.055697
0.866045 0.525583 0.056409
0.896980 0.526297 0.057123
0.927974 0.527013 0.057838
0.039740 0.539821 0.039740
0.039740 0.539821 0.039740
0.043378 0.539905 0.039824
0.070012 0.540520 0.040438
0.097193 0.541147 0.041066
0.124788 0.541784 0.041702
0.152718 0.542428 0.042347
0.180930 0.543079 0.042998
0.209384 0.543736 0.043655
0.238051 0.544398 0.044316
0.266911 0.545064 0.044982
0.295943 0.545734 0.045652
0.325133 0.546407 0.046326
0.354469 0.547084 0.047003
0.383940 0.547764 0.047683
0.413536 0.548447 0.048366
0.443251 0.549133 0.049052
0.473076 0.549821 0.049740
0.503005 0.550512 0.050431
0.533034 0.551205 0.051124
0.563157 0.551900 0.051819
0.593369 0.552597 0.052516
0.623667 0.553297 0.053215
0.654046 0.553998 0.053916
0.684504 0.554700 0.054619
0.715037 0.555405 0.055324
0.745643 0.556111 0.056030
0.776318 0.556819 0.056738
0.807061 0.557529 0.057447
0.837869 0.558240 0.058158
0.868739 0.558952 0.058871
0.899670 0.559666 0.059584
0.930660 0.560381 0.060300
0.042200 0.573240 0.042200
0.042200 0.573240 0.042200
0.046157 0.573331 0.042291
0.072788 0.573946 0.042906
0.099966 0.574573 0.043533
0.127559 0.575210 0.044170
0.155486 0.575854 0.044814
0.183694 0.576505 0.045465
0.212144 0.577162 0.046122
0.240809 0.577823 0.046783
0.269665 0.578489 0.047449
0.298694 0.579159 0.048119
0.327881 0.579833 0.048793
0.357213 0.580509 0.049470
0.386681 0.581190 0.050150
0.416274 0.581872 0.050833
0.445985 0.582558 0.051518
0.475807 0.583246 0.052206
0.505733 0.583937 0.052897
0.535758 0.584630 0.053590
0.565877 0.585325 0.054285
0.596086 0.586022 0.054982
0.626380 0.586721 0.055681
0.656757 0.587422 0.056382
0.687211 0.588125 0.057085
0.717741 0.588829 0.057790
0.748343 0.589536 0.058496
0.779015 0.590243 0.059204
0.809754 0.590953 0.059913
0.840558 0.591664 0.060624
0.871425 0.592376 0.061336
0.902352 0.593090 0.062050
0.933339 0.593805 0.062765
0.044664 0.606712 0.044664
0.044664 0.606712 0.044664
0.048929 0.606810 0.044762
0.075557 0.607424 0.045377
0.102732 0.608052 0.046004
0.130321 0.608688 0.046641
0.158245 0.609333 0.047285
0.186450 0.609984 0.047936
0.214897 0.610640 0.048593
0.243559 0.611301 0.049254
0.272411 0.611967 0.049920
0.301437 0.612637 0.050590
0.330621 0.613311 0.051263
0.359950 0.613987 0.051940
0.389414 0.614667 0.052620
0.419004 0.615350 0.053303
0.448711 0.616036 0.053988
0.478529 0.616724 0.054676
0.508452 0.617414 0.055367
0.538474 0.618107 0.056060
0.568590 0.618802 0.056755
0.598795 0.619499 0.057452
0.629086 0.620198 0.058151
0.659459 0.620899 0.058852
0.689910 0.621602 0.059554
0.720436 0.622306 0.060259
0.751035 0.623012 0.060965
0.781703 0.623720 0.061673
0.812439 0.624430 0.062382
0.843239 0.625140 0.063093
0.874103 0.625853 0.063805
0.905027 0.626566 0.064519
0.936010 0.627281 0.065234
0.047132 0.640233 0.047132
0.047132 0.640233 0.047132
0.051693 0.640339 0.047237
0.078318 0.640953 0.047852
0.105490 0.641580 0.048479
0.133076 0.642217 0.049115
0.160996 0.642861 0.049759
0.189198 0.643512 0.050410
0.217642 0.644168 0.051067
0.246300 0.644830 0.051728
0.275150 0.645495 0.052394
0.304172 0.646165 0.053064
0.333352 0.646839 0.053737
0.362678 0.647515 0.054414
0.392139 0.648195 0.055094
0.421725 0.648878 0.055776
0.451429 0.649563 0.056462
0.481244 0.650251 0.057150
0.511164 0.650942 0.057840
0.541182 0.651635 0.058533
0.571294 0.652330 0.059228
0.601496 0.653027 0.059925
0.631784 0.653725 0.060624
0.662153 0.654426 0.061325
0.692601 0.655129 0.062027
0.723123 0.655833 0.062732
0.753718 0.656539 0.063438
0.784383 0.657247 0.064145
0.815115 0.657956 0.064855
0.845912 0.658667 0.065565
0.876772 0.659379 0.066278
0.907693 0.660093 0.066991
0.938672 0.660808 0.067706
0.049603 0.673803 0.049603
0.049603 0.673803 0.049603
0.054449 0.673915 0.049715
0.081070 0.674529 0.050329
0.108239 0.675156 0.050956
0.135822 0.675793 0.051593
0.163740 0.676437 0.052237
0.191938 0.677088 0.052888
0.220379 0.677744 0.053544
0.249034 0.678406 0.054205
0.277880 0.679071 0.054871
0.306899 0.679741 0.055541
0.336076 0.680414 0.056214
0.365398 0.681091 0.056891
0.394855 0.681771 0.057571
0.424439 0.682453 0.058253
0.454139 0.683139 0.058939
0.483951 0.683827 0.059627
0.513867 0.684517 0.060317
0.543882 0.685210 0.061010
0.573991 0.685905 0.061704
0.604189 0.686601 0.062401
0.634473 0.687300 0.063100
0.664839 0.688001 0.063801
0.695283 0.688704 0.064504
0.725802 0.689408 0.065208
0.756394 0.690114 0.065914
0.787055 0.690821 0.066621
0.817784 0.691531 0.067330
0.848577 0.692241 0.068041
0.879433 0.692953 0.068753
0.910350 0.693667 0.069467
0.941326 0.694382 0.070181
0.052078 0.707419 0.052078
0.052078 0.707419 0.052078
0.057196 0.707537 0.052196
0.083814 0.708151 0.052810
0.110980 0.708778 0.053437
0.138560 0.709415 0.054074
0.166474 0.710059 0.054718
0.194669 0.710709 0.055368
0.223107 0.711366 0.056025
0.251758 0.712027 0.056686
0.280601 0.712692 0.057351
0.309617 0.713362 0.058021
0.338790 0.714035 0.058694
0.368109 0.714712 0.059371
0.397564 0.715392 0.060051
0.427143 0.716074 0.060733
0.456840 0.716760 0.061419
0.486649 0.717447 0.062106
0.516561 0.718138 0.062797
0.546573 0.718830 0.063489
0.576678 0.719525 0.064184
0.606873 0.720222 0.064881
0.637154 0.720921 0.065580
0.667516 0.721621 0.066280
0.697956 0.722324 0.066983
0.728472 0.723028 0.067687
0.759060 0.723734 0.068393
0.789718 0.724441 0.069100
0.820443 0.725150 0.069809
0.851233 0.725861 0.070520
0.882086 0.726573 0.071232
0.912999 0.727286 0.071945
0.943972 0.728001 0.072660
0.054556 0.741078 0.054556
0.054556 0.741078 0.054556
0.059934 0.741202 0.054680
0.086550 0.741817 0.055294
0.113712 0.742444 0.055921
0.141289 0.743080 0.056557
0.169200 0.743724 0.057201
0.197392 0.744375 0.057852
0.225826 0.745031 0.058508
0.254474 0.745692 0.059169
0.283314 0.746357 0.059835
0.312326 0.747027 0.060504
0.341496 0.747700 0.061177
0.370812 0.748377 0.061854
0.400263 0.749056 0.062534
0.429839 0.749739 0.063216
0.459533 0.750424 0.063901
0.489338 0.751112 0.064589
0.519247 0.751802 0.065279
0.549255 0.752495 0.065972
0.579357 0.753189 0.066667
0.609548 0.753886 0.067363
0.639825 0.754585 0.068062
0.670184 0.755285 0.068763
0.700621 0.755988 0.069465
0.731133 0.756692 0.070169
0.761718 0.757398 0.070875
0.792372 0.758105 0.071582
0.823094 0.758814 0.072291
0.853880 0.759524 0.073002
0.884729 0.760236 0.073714
0.915639 0.760950 0.074427
0.946608 0.761664 0.075142
0.057037 0.774780 0.057037
0.057037 0.774780 0.057037
0.062663 0.774910 0.057167
0.089276 0.775524 0.057781
0.116435 0.776151 0.058407
0.144009 0.776787 0.059044
0.171917 0.777431 0.059688
0.200105 0.778082 0.060338
0.228536 0.778738 0.060994
0.257181 0.779399 0.061655
0.286017 0.780064 0.062321
0.315026 0.780734 0.062990
0.344193 0.781407 0.063663
0.373506 0.782083 0.064340
0.402953 0.782763 0.065019
0.432526 0.783445 0.065702
0.462216 0.784130 0.066387
0.492018 0.784818 0.067075
0.521923 0.785508 0.067765
0.551928 0.786201 0.068457
0.582026 0.786895 0.069152
0.612215 0.787592 0.069849
0.642488 0.788290 0.070547
0.672843 0.788991 0.071248
0.703277 0.789693 0.071950
0.733786 0.790397 0.072654
0.764367 0.791103 0.073360
0.795018 0.791810 0.074067
0.825736 0.792519 0.074776
0.856518 0.793230 0.075486
0.887364 0.793941 0.076198
0.918270 0.794655 0.076911
0.949236 0.795369 0.077626
0.059521 0.808522 0.059521
0.059521 0.808522 0.059521
0.065384 0.808657 0.059656
0.091993 0.809271 0.060270
0.119149 0.809898 0.060897
0.146720 0.810534 0.061533
0.174624 0.811178 0.062177
0.202810 0.811829 0.062827
0.231238 0.812485 0.063483
0.259879 0.813146 0.064144
0.288712 0.813811 0.064810
0.317718 0.814480 0.065479
0.346881 0.815153 0.066152
0.376190 0.815830 0.066828
0.405634 0.816509 0.067508
0.435203 0.817192 0.068190
0.464891 0.817877 0.068875
0.494688 0.818564 0.069563
0.524591 0.819255 0.070253
0.554592 0.819947 0.070945
0.584687 0.820641 0.071640
0.614872 0.821338 0.072337
0.645142 0.822036 0.073035
0.675493 0.822737 0.073736
0.705923 0.823439 0.074438
0.736429 0.824143 0.075142
0.767006 0.824849 0.075847
0.797653 0.825556 0.076555
