assets/luts/Soft Romance.cube
# StudioPhoto — LUT d'exemple : Soft Romance
TITLE "Soft Romance"
LUT_3D_SIZE 9
0.071755 0.048999 0.075331
0.204829 0.051122 0.076353
0.325407 0.053065 0.077311
0.440471 0.054936 0.078254
0.551988 0.056766 0.079195
0.660911 0.058569 0.080140
0.767801 0.060352 0.081091
0.873026 0.062122 0.082050
0.921710 0.062959 0.082432
0.075921 0.181217 0.078733
0.209277 0.183416 0.079877
0.330110 0.185429 0.080947
0.445417 0.187367 0.081996
0.557170 0.189261 0.083039
0.666323 0.191126 0.084083
0.773438 0.192971 0.085132
0.878886 0.194802 0.086189
0.928477 0.195685 0.086637
0.080552 0.303139 0.082211
0.214168 0.305410 0.083468
0.335235 0.307486 0.084639
0.450766 0.309485 0.085786
0.562736 0.311439 0.086923
0.672101 0.313362 0.088060
0.779424 0.315264 0.089199
0.885076 0.317150 0.090344
0.934718 0.318064 0.090842
0.085729 0.420648 0.085870
0.219594 0.422986 0.087236
0.340888 0.425125 0.088505
0.456634 0.427182 0.089745
0.568813 0.429193 0.090974
0.678382 0.431172 0.092199
0.785904 0.433128 0.093425
0.891753 0.435068 0.094655
0.940734 0.436000 0.095190
0.091454 0.535351 0.089732
0.225562 0.537756 0.091203
0.347076 0.539955 0.092569
0.463033 0.542070 0.093900
0.575415 0.544136 0.095217
0.685182 0.546169 0.096528
0.792900 0.548179 0.097839
0.898940 0.550171 0.099153
0.946607 0.551111 0.099712
0.097721 0.648026 0.093803
0.232068 0.650497 0.095378
0.353797 0.652754 0.096837
0.469960 0.654925 0.098258
0.582542 0.657046 0.099661
0.692504 0.659132 0.101057
0.800412 0.661194 0.102451
0.906640 0.663238 0.103847
0.952377 0.664174 0.104420
0.104521 0.759129 0.098085
0.239103 0.761663 0.099762
0.361045 0.763979 0.101313
0.477411 0.766205 0.102822
0.590189 0.768380 0.104311
0.700343 0.770518 0.105790
0.808439 0.772631 0.107266
0.914852 0.774725 0.108742
0.958068 0.775649 0.109320
0.111847 0.868959 0.102578
0.246661 0.871556 0.104356
0.368813 0.873929 0.105999
0.485379 0.876211 0.107594
0.598351 0.878438 0.109168
0.708694 0.880628 0.110729
0.816976 0.882792 0.112286
0.923571 0.884936 0.113841
0.963693 0.885837 0.114413
0.118101 0.954506 0.106215
0.253080 0.956630 0.108049
0.375382 0.958555 0.109742
0.492089 0.960392 0.111386
0.605197 0.962173 0.113004
0.715672 0.963912 0.114608
0.824083 0.965619 0.116206
0.930805 0.967299 0.117802
0.967883 0.967883 0.118347
0.072124 0.049665 0.197802
0.205227 0.051795 0.198836
0.325830 0.053745 0.199805
0.440917 0.055623 0.200759
0.552458 0.057459 0.201710
0.661404 0.059267 0.202664
0.768315 0.061057 0.203625
0.873562 0.062833 0.204594
0.922376 0.063675 0.204983
0.076379 0.181906 0.201242
0.209763 0.184113 0.202399
0.330621 0.186133 0.203479
0.445952 0.188077 0.204538
0.557729 0.189978 0.205592
0.666904 0.191849 0.206646
0.774042 0.193700 0.207705
0.879511 0.195537 0.208771
0.929144 0.196424 0.209225
0.081092 0.303851 0.204756
0.214736 0.306129 0.206025
0.335828 0.308212 0.207207
0.451383 0.310218 0.208364
0.563376 0.312178 0.209512
0.672764 0.314107 0.210658
0.780109 0.316015 0.211807
0.885783 0.317907 0.212961
0.935386 0.318824 0.213464
0.086347 0.421381 0.208449
0.220240 0.423727 0.209827
0.341559 0.425872 0.211107
0.457330 0.427936 0.212358
0.569532 0.429953 0.213596
0.679123 0.431938 0.214831
0.786668 0.433901 0.216067
0.892538 0.435847 0.217307
0.941403 0.436780 0.217845
0.092149 0.536105 0.212344
0.226285 0.538518 0.213828
0.347824 0.540723 0.215204
0.463805 0.542845 0.216545
0.576210 0.544917 0.217872
0.686000 0.546957 0.219193
0.793740 0.548972 0.220514
0.899801 0.550970 0.221837
0.947277 0.551910 0.222399
0.098491 0.648801 0.216448
0.232865 0.651279 0.218035
0.354620 0.653543 0.219505
0.470807 0.655721 0.220936
0.583412 0.657848 0.222350
0.693396 0.659940 0.223755
0.801327 0.662008 0.225159
0.907577 0.664057 0.226564
0.953048 0.664993 0.227138
0.105365 0.759923 0.220762
0.239975 0.762465 0.222451
0.361942 0.764788 0.224013
0.478332 0.767021 0.225533
0.591133 0.769202 0.227032
0.701309 0.771346 0.228521
0.809428 0.773465 0.230006
0.915863 0.775566 0.231492
0.958740 0.776487 0.232069
0.112764 0.869773 0.225287
0.247605 0.872378 0.227077
0.369783 0.874758 0.228730
0.486372 0.877046 0.230336
0.599367 0.879279 0.231920
0.709733 0.881476 0.233491
0.818038 0.883646 0.235057
0.924655 0.885796 0.236622
0.964367 0.886694 0.237193
0.119070 0.955174 0.228941
0.254077 0.957299 0.230788
0.376403 0.959224 0.232491
0.493134 0.961062 0.234145
0.606265 0.962843 0.235773
0.716762 0.964582 0.237387
0.825195 0.966290 0.238994
0.931938 0.967971 0.240599
0.968547 0.968547 0.241142
0.072479 0.050290 0.312505
0.205607 0.052427 0.313550
0.326234 0.054383 0.314530
0.441344 0.056267 0.315493
0.552906 0.058109 0.316454
0.661873 0.059924 0.317417
0.768805 0.061719 0.318387
0.874073 0.063500 0.319365
0.922999 0.064347 0.319761
0.076817 0.182554 0.315982
0.210227 0.184768 0.317150
0.331108 0.186794 0.318240
0.446462 0.188745 0.319309
0.558259 0.190651 0.320372
0.667456 0.192528 0.321436
0.774615 0.194385 0.322503
0.880104 0.196227 0.323578
0.929768 0.197118 0.324038
0.081606 0.304520 0.319529
0.215275 0.306805 0.320809
0.336392 0.308895 0.322001
0.451969 0.310906 0.323168
0.563984 0.312872 0.324325
0.673393 0.314807 0.325480
0.780759 0.316721 0.326639
0.886452 0.318618 0.327802
0.936011 0.319537 0.328309
0.086935 0.422069 0.323254
0.220854 0.424423 0.324643
0.342196 0.426574 0.325934
0.457989 0.428645 0.327194
0.570212 0.430667 0.328442
0.679825 0.432658 0.329686
0.787391 0.434626 0.330931
0.893281 0.436578 0.332179
0.942029 0.437513 0.332720
0.092808 0.536814 0.327180
0.226970 0.539233 0.328675
0.348532 0.541445 0.330061
0.464535 0.543573 0.331413
0.576962 0.545651 0.332749
0.686774 0.547696 0.334079
0.794534 0.549718 0.335409
0.900616 0.551721 0.336741
0.947905 0.552661 0.337304
0.099220 0.649528 0.331314
0.233621 0.652013 0.332913
0.355399 0.654284 0.334393
0.471608 0.656468 0.335834
0.584235 0.658601 0.337257
0.694240 0.660699 0.338672
0.802192 0.662772 0.340084
0.908462 0.664828 0.341498
0.953677 0.665762 0.342073
0.106163 0.760670 0.335659
0.240799 0.763219 0.337359
0.362790 0.765548 0.338931
0.479202 0.767787 0.340461
0.592025 0.769973 0.341969
0.702222 0.772124 0.343467
0.810362 0.774249 0.344962
0.916817 0.776355 0.346456
0.959370 0.777274 0.347033
0.113631 0.870538 0.340213
0.248498 0.873150 0.342014
0.370699 0.875537 0.343678
0.487311 0.877831 0.345294
0.600328 0.880070 0.346887
0.710715 0.882272 0.348467
0.819040 0.884448 0.350042
0.925678 0.886603 0.351616
0.964998 0.887498 0.352185
0.119986 0.955800 0.343884
0.255018 0.957925 0.345741
0.377368 0.959851 0.347455
0.494120 0.961689 0.349118
0.607273 0.963470 0.350755
0.717791 0.965210 0.352378
0.826245 0.966918 0.353994
0.933008 0.968599 0.355608
0.969169 0.969169 0.356148
0.072829 0.050897 0.423553
0.205983 0.053041 0.424609
0.326632 0.055004 0.425598
0.441763 0.056894 0.426571
0.553347 0.058741 0.427541
0.662334 0.060561 0.428513
0.769287 0.062362 0.429491
0.874574 0.064149 0.430478
0.923602 0.065000 0.430880
0.077247 0.183183 0.427064
0.210683 0.185404 0.428243
0.331587 0.187436 0.429343
0.446962 0.189393 0.430422
0.558781 0.191305 0.431494
0.667998 0.193188 0.432566
0.775177 0.195050 0.433643
0.880686 0.196897 0.434726
0.930372 0.197791 0.435191
0.082111 0.305169 0.430643
0.215805 0.307461 0.431934
0.336944 0.309557 0.433137
0.452543 0.311575 0.434312
0.564579 0.313546 0.435479
0.674008 0.315487 0.436643
0.781394 0.317406 0.437810
0.887108 0.319309 0.438982
0.936617 0.320230 0.439493
0.087510 0.422738 0.434399
0.221455 0.425098 0.435799
0.342820 0.427256 0.437100
0.458634 0.429333 0.438369
0.570879 0.431361 0.439626
0.680512 0.433357 0.440879
0.788098 0.435331 0.442133
0.894008 0.437288 0.443390
0.942636 0.438224 0.443934
0.093453 0.537501 0.438356
0.227640 0.539928 0.439861
0.349226 0.542146 0.441257
0.465250 0.544280 0.442618
0.577698 0.546364 0.443964
0.687530 0.548414 0.445303
0.795311 0.550441 0.446641
0.901413 0.552450 0.447982
0.948513 0.553390 0.448547
0.099933 0.650235 0.442519
0.234359 0.652726 0.444128
0.356160 0.655003 0.445619
0.472391 0.657193 0.447069
0.585038 0.659332 0.448501
0.695065 0.661436 0.449925
0.803037 0.663515 0.451346
0.909326 0.665575 0.452769
0.954286 0.666508 0.453345
0.106944 0.761394 0.446893
0.241604 0.763950 0.448604
0.363618 0.766285 0.450186
0.480052 0.768531 0.451725
0.592896 0.770723 0.453242
0.703114 0.772879 0.454750
0.811274 0.775009 0.456253
0.917749 0.777120 0.457756
0.959979 0.778038 0.458332
0.114477 0.871281 0.451476
0.249369 0.873900 0.453288
0.371593 0.876292 0.454962
0.488227 0.878592 0.456587
0.601265 0.880837 0.458189
0.711672 0.883045 0.459778
0.820018 0.885226 0.461362
0.926675 0.887387 0.462944
0.965609 0.888279 0.463513
0.120879 0.956406 0.455163
0.255936 0.958532 0.457031
0.378308 0.960458 0.458754
0.495082 0.962296 0.460426
0.608256 0.964078 0.462072
0.718794 0.965818 0.463704
0.827268 0.967526 0.465329
0.934051 0.969208 0.466950
0.969770 0.969770 0.467489
0.073179 0.051493 0.532189
0.206357 0.053644 0.533256
0.327028 0.055612 0.534255
0.442181 0.057508 0.535237
0.553785 0.059361 0.536216
0.662792 0.061187 0.537197
0.769765 0.062993 0.538184
0.875072 0.064785 0.539179
0.924192 0.065641 0.539587
0.077676 0.183800 0.535735
0.211135 0.186028 0.536924
0.332062 0.188066 0.538034
0.447458 0.190029 0.539122
0.559298 0.191946 0.540203
0.668535 0.193835 0.541284
0.775733 0.195702 0.542369
0.881262 0.197555 0.543461
0.930964 0.198452 0.543931
0.082611 0.305806 0.539345
0.216330 0.308105 0.540647
0.337492 0.310207 0.541859
0.453112 0.312230 0.543044
0.565168 0.314207 0.544220
0.674618 0.316153 0.545393
0.782024 0.318078 0.546568
0.887757 0.319986 0.547749
0.937209 0.320909 0.548263
0.088081 0.423394 0.543132
0.222049 0.425761 0.544542
0.343437 0.427925 0.545853
0.459273 0.430007 0.547131
0.571538 0.432041 0.548397
0.681191 0.434043 0.549659
0.788797 0.436022 0.550921
0.894726 0.437984 0.552187
0.943230 0.438921 0.552733
0.094091 0.538176 0.547118
0.228303 0.540609 0.548634
0.349911 0.542834 0.550040
0.465956 0.544973 0.551410
0.578425 0.547063 0.552764
0.688277 0.549119 0.554112
0.796077 0.551151 0.555459
0.902198 0.553165 0.556808
0.949107 0.554105 0.557375
0.100638 0.650927 0.551310
0.235088 0.653426 0.552930
0.356912 0.655709 0.554430
0.473164 0.657905 0.555890
0.585832 0.660049 0.557331
0.695878 0.662158 0.558763
0.803870 0.664242 0.560193
0.910179 0.666308 0.561624
0.954882 0.667240 0.562200
0.107714 0.762105 0.555712
0.242399 0.764668 0.557434
0.364435 0.767009 0.559026
0.480890 0.769260 0.560574
0.593754 0.771458 0.562100
0.703993 0.773619 0.563616
0.812172 0.775755 0.565128
0.918667 0.777871 0.566639
0.960576 0.778786 0.567216
0.115312 0.872009 0.560323
0.250229 0.874635 0.562146
0.372475 0.877033 0.563829
0.489130 0.879339 0.565464
0.602188 0.881590 0.567075
0.712616 0.883803 0.568673
0.820981 0.885990 0.570266
0.927658 0.888156 0.571856
0.966206 0.889045 0.572423
0.121760 0.956999 0.564027
0.256842 0.959125 0.565905
0.379236 0.961052 0.567637
0.496031 0.962890 0.569318
0.609224 0.964673 0.570973
0.719783 0.966413 0.572613
0.828276 0.968122 0.574246
0.935077 0.969804 0.575876
0.970359 0.970359 0.576412
0.073529 0.052081 0.639033
0.206732 0.054238 0.640110
0.327425 0.056213 0.641119
0.442599 0.058114 0.642110
0.554223 0.059973 0.643097
0.663250 0.061804 0.644087
0.770242 0.063615 0.645082
0.875567 0.065413 0.646086
0.924773 0.066272 0.646499
0.078103 0.184409 0.642612
0.211587 0.186644 0.643812
0.332536 0.188688 0.644931
0.447953 0.190656 0.646028
0.559813 0.192579 0.647118
0.669070 0.194473 0.648208
0.776287 0.196346 0.649301
0.881835 0.198204 0.650401
0.931546 0.199104 0.650876
0.083110 0.306434 0.646253
0.216854 0.308740 0.647566
0.338037 0.310848 0.648787
0.453678 0.312877 0.649981
0.565755 0.314859 0.651165
0.675224 0.316811 0.652347
0.782649 0.318741 0.653531
0.888401 0.320655 0.654720
0.937792 0.321579 0.655238
0.088648 0.424041 0.650070
0.222641 0.426415 0.651491
0.344050 0.428585 0.652810
0.459907 0.430673 0.654098
0.572193 0.432712 0.655373
0.681865 0.434719 0.656643
0.789490 0.436704 0.657914
0.895439 0.438671 0.659188
0.943814 0.439609 0.659737
0.094725 0.538841 0.654085
0.228961 0.541281 0.655611
0.350591 0.543511 0.657027
0.466658 0.545657 0.658406
0.579147 0.547752 0.659769
0.689018 0.549813 0.661126
0.796838 0.551851 0.662481
0.902978 0.553870 0.663838
0.949692 0.554810 0.664406
0.101338 0.651611 0.658306
0.235812 0.654116 0.659936
0.357658 0.656405 0.661445
0.473930 0.658606 0.662914
0.586619 0.660756 0.664364
0.696685 0.662871 0.665805
0.804696 0.664960 0.667243
0.911024 0.667031 0.668682
0.955468 0.667962 0.669259
0.108478 0.762806 0.662735
0.243187 0.765375 0.664468
0.365245 0.767722 0.666069
0.481721 0.769979 0.667626
0.594606 0.772182 0.669161
0.704864 0.774349 0.670686
0.813063 0.776490 0.672206
0.919576 0.778612 0.673726
0.961163 0.779525 0.674301
0.116140 0.872727 0.667374
0.251081 0.875360 0.669207
0.373349 0.877764 0.670900
0.490024 0.880076 0.672544
0.603103 0.882332 0.674164
0.713550 0.884551 0.675770
0.821935 0.886742 0.677371
0.928631 0.888914 0.678970
0.966794 0.889799 0.679535
0.122633 0.957582 0.671093
0.257739 0.959709 0.672981
0.380154 0.961636 0.674723
0.496970 0.963475 0.676413
0.610183 0.965257 0.678076
0.720761 0.966998 0.679724
0.829273 0.968707 0.681365
0.936094 0.970389 0.683003
0.970938 0.970938 0.683537
0.073882 0.052662 0.744452
0.207108 0.054827 0.745540
0.327823 0.056807 0.746558
0.443017 0.058714 0.747558
0.554661 0.060578 0.748554
0.663708 0.062415 0.749552
0.770719 0.064231 0.750556
0.876063 0.066034 0.751567
0.925346 0.066897 0.751987
0.078532 0.185012 0.748065
0.212040 0.187253 0.749275
0.333010 0.189303 0.750404
0.448448 0.191277 0.751510
0.560327 0.193205 0.752608
0.669604 0.195104 0.753706
0.776841 0.196983 0.754808
0.882407 0.198846 0.755916
0.932120 0.199748 0.756395
0.083609 0.307056 0.751736
0.217376 0.309368 0.753059
0.338581 0.311482 0.754290
0.454243 0.313517 0.755493
0.566340 0.315505 0.756686
0.675828 0.317462 0.757876
0.783272 0.319397 0.759068
0.889043 0.321315 0.760265
0.938367 0.322242 0.760787
0.089215 0.424682 0.755582
0.223231 0.427062 0.757013
0.344662 0.429237 0.758343
0.460540 0.431331 0.759639
0.572845 0.433376 0.760923
0.682537 0.435388 0.762202
0.790181 0.437378 0.763481
0.896149 0.439351 0.764763
0.944390 0.440289 0.765314
0.095358 0.539500 0.759626
0.229618 0.541946 0.761163
0.351269 0.544182 0.762588
0.467356 0.546333 0.763976
0.579865 0.548433 0.765347
0.689756 0.550500 0.766712
0.797595 0.552543 0.768076
0.903754 0.554568 0.769442
0.950269 0.555507 0.770011
0.102034 0.652287 0.763875
0.236533 0.654798 0.765515
0.358400 0.657093 0.767034
0.474693 0.659300 0.768512
0.587402 0.661455 0.769970
0.697487 0.663575 0.771420
0.805517 0.665670 0.772867
0.911864 0.667746 0.774314
0.956046 0.668676 0.774891
0.109238 0.763499 0.768332
0.243972 0.766075 0.770075
0.366051 0.768428 0.771686
0.482547 0.770690 0.773252
0.595452 0.772899 0.774796
0.705730 0.775071 0.776329
0.813948 0.777217 0.777857
0.920480 0.779344 0.779385
0.961742 0.780255 0.779960
0.116963 0.873438 0.772998
0.251928 0.876077 0.774842
0.374217 0.878487 0.776544
0.490914 0.880804 0.778197
0.604012 0.883066 0.779825
0.714479 0.885290 0.781440
0.822883 0.887487 0.783049
0.929597 0.889663 0.784657
0.967374 0.890545 0.785220
0.123501 0.958158 0.776732
0.258630 0.960285 0.778630
0.381067 0.962212 0.780381
0.497903 0.964052 0.782080
0.611136 0.965834 0.783751
0.721733 0.967576 0.785408
0.830264 0.969285 0.787057
0.937103 0.970968 0.788703
0.971509 0.971509 0.789234
0.074237 0.053239 0.848693
0.207486 0.055410 0.849791
0.328222 0.057396 0.850818
0.443437 0.059309 0.851827
0.555101 0.061179 0.852832
0.664167 0.063020 0.853838
0.771197 0.064842 0.854850
0.876560 0.066649 0.855870
0.925912 0.067517 0.856295
0.078962 0.185610 0.852339
0.212494 0.187857 0.853559
0.333485 0.189913 0.854697
0.448943 0.191892 0.855812
0.560843 0.193826 0.856919
0.670139 0.195730 0.858025
0.777394 0.197614 0.859135
0.882979 0.199482 0.860252
0.932688 0.200387 0.860735
0.084109 0.307673 0.856040
0.217900 0.309991 0.857373
0.339126 0.312111 0.858614
0.454808 0.314151 0.859826
0.566924 0.316145 0.861027
0.676432 0.318107 0.862225
0.783895 0.320047 0.863426
0.889685 0.321971 0.864631
0.938936 0.322899 0.865155
0.089781 0.425316 0.859915
0.223822 0.427703 0.861357
0.345274 0.429884 0.862695
0.461171 0.431984 0.864001
0.573496 0.434034 0.865293
0.683208 0.436052 0.866580
0.790871 0.438046 0.867867
0.896857 0.440024 0.869158
0.944960 0.440963 0.869711
0.095989 0.540152 0.863987
0.230273 0.542605 0.865534
0.351945 0.544847 0.866968
0.468053 0.547003 0.868365
0.580581 0.549109 0.869746
0.690492 0.551181 0.871119
0.798349 0.553229 0.872491
0.904527 0.555259 0.873865
0.950840 0.556197 0.874435
0.102730 0.652956 0.868264
0.237252 0.655475 0.869915
0.359140 0.657775 0.871443
0.475454 0.659988 0.872929
0.588182 0.662148 0.874396
0.698287 0.664274 0.875854
0.806336 0.666374 0.877309
0.912701 0.668455 0.878765
0.956618 0.669383 0.879342
0.109997 0.764186 0.872748
0.244754 0.766768 0.874501
0.366855 0.769127 0.876122
0.483371 0.771395 0.877696
0.596296 0.773609 0.879249
0.706592 0.775787 0.880790
0.814829 0.777938 0.882327
0.921380 0.780070 0.883863
0.962315 0.780978 0.884437
0.117783 0.874142 0.877442
0.252772 0.876787 0.879295
0.375083 0.879203 0.881007
0.491799 0.881526 0.882669
0.604918 0.883793 0.884305
0.715404 0.886022 0.885929
0.823826 0.888224 0.887546
0.930560 0.890406 0.889162
0.967948 0.891285 0.889723
0.124365 0.958727 0.881190
0.259517 0.960855 0.883098
0.381975 0.962782 0.884858
0.498831 0.964622 0.886565
0.612084 0.966405 0.888245
0.722700 0.968147 0.889910
0.831250 0.969857 0.891567
0.938107 0.971539 0.893221
0.972074 0.972074 0.893749
0.074430 0.053597 0.912829
0.207703 0.055778 0.914933
0.328460 0.057774 0.916839
0.443695 0.059695 0.918660
0.555377 0.061573 0.920425
0.664461 0.063422 0.922149
0.771509 0.065251 0.923842
0.876890 0.067066 0.925510
0.926293 0.067938 0.926293
0.079229 0.186000 0.919563
0.212783 0.188257 0.921675
0.333795 0.190321 0.923589
0.449272 0.192308 0.925416
0.561190 0.194250 0.927188
0.670504 0.196162 0.928919
0.777777 0.198052 0.930618
0.883379 0.199927 0.932292
0.933082 0.200836 0.933082
0.084442 0.308091 0.925785
0.218254 0.310418 0.927903
0.339500 0.312546 0.929824
0.455201 0.314594 0.931658
0.567335 0.316594 0.933436
0.676861 0.318563 0.935173
0.784341 0.320510 0.936879
0.890147 0.322440 0.938558
0.939341 0.323371 0.939341
0.090176 0.425759 0.931791
0.224238 0.428154 0.933917
0.345709 0.430344 0.935844
0.461625 0.432450 0.937684
0.573967 0.434507 0.939468
0.683696 0.436531 0.941211
0.791375 0.438532 0.942922
0.897378 0.440515 0.944608
0.945373 0.441455 0.945373
0.096442 0.540618 0.937665
0.230747 0.543079 0.939797
0.352438 0.545328 0.941731
0.468563 0.547491 0.943577
0.581109 0.549603 0.945366
0.691036 0.551681 0.947115
0.798910 0.553735 0.948832
0.905103 0.555770 0.950523
0.951260 0.556709 0.951260
0.103239 0.653444 0.943444
0.237782 0.655969 0.945583
0.359688 0.658276 0.947523
0.476019 0.660495 0.949374
0.588764 0.662662 0.951170
0.698885 0.664792 0.952924
0.806949 0.666898 0.954646
0.913330 0.668984 0.956343
0.957043 0.669911 0.957043
0.110560 0.764693 0.949151
0.245337 0.767282 0.951297
0.367455 0.769647 0.953243
0.483989 0.771921 0.955100
0.596929 0.774140 0.956901
0.707242 0.776323 0.958661
0.815494 0.778479 0.960389
0.922060 0.780616 0.962090
0.962744 0.781522 0.962744
0.118398 0.874666 0.954802
0.253406 0.877318 0.956955
0.375734 0.879740 0.958906
0.492467 0.882068 0.960769
0.605602 0.884340 0.962576
0.716103 0.886574 0.964341
0.824540 0.888780 0.966074
0.931288 0.890966 0.967781
0.968380 0.891843 0.968380
0.125017 0.959152 0.959152
0.260187 0.961281 0.961281
0.382662 0.963210 0.963210
0.499534 0.965051 0.965051
0.612802 0.966835 0.966835
0.723433 0.968577 0.968577
0.831997 0.970287 0.970287
0.938868 0.971970 0.971970
0.972500 0.972500 0.972500
