assets/luts/Soft Romance.cube
# StudioPhoto — LUT d'exemple : Soft Romance
TITLE "Soft Romance"
LUT_3D_SIZE 5
0.071755 0.048999 0.075331
0.325407 0.053065 0.077311
0.551988 0.056766 0.079195
0.767801 0.060352 0.081091
0.921710 0.062959 0.082432
0.080552 0.303139 0.082211
0.335235 0.307486 0.084639
0.562736 0.311439 0.086923
0.779424 0.315264 0.089199
0.934718 0.318064 0.090842
0.091454 0.535351 0.089732
0.347076 0.539955 0.092569
0.575415 0.544136 0.095217
0.792900 0.548179 0.097839
0.946607 0.551111 0.099712
0.104521 0.759129 0.098085
0.361045 0.763979 0.101313
0.590189 0.768380 0.104311
0.808439 0.772631 0.107266
0.958068 0.775649 0.109320
0.118101 0.954506 0.106215
0.375382 0.958555 0.109742
0.605197 0.962173 0.113004
0.824083 0.965619 0.116206
0.967883 0.967883 0.118347
0.072479 0.050290 0.312505
0.326234 0.054383 0.314530
0.552906 0.058109 0.316454
0.768805 0.061719 0.318387
0.922999 0.064347 0.319761
0.081606 0.304520 0.319529
0.336392 0.308895 0.322001
0.563984 0.312872 0.324325
0.780759 0.316721 0.326639
0.936011 0.319537 0.328309
0.092808 0.536814 0.327180
0.348532 0.541445 0.330061
0.576962 0.545651 0.332749
0.794534 0.549718 0.335409
0.947905 0.552661 0.337304
0.106163 0.760670 0.335659
0.362790 0.765548 0.338931
0.592025 0.769973 0.341969
0.810362 0.774249 0.344962
0.959370 0.777274 0.347033
0.119986 0.955800 0.343884
0.377368 0.959851 0.347455
0.607273 0.963470 0.350755
0.826245 0.966918 0.353994
0.969169 0.969169 0.356148
0.073179 0.051493 0.532189
0.327028 0.055612 0.534255
0.553785 0.059361 0.536216
0.769765 0.062993 0.538184
0.924192 0.065641 0.539587
0.082611 0.305806 0.539345
0.337492 0.310207 0.541859
0.565168 0.314207 0.544220
0.782024 0.318078 0.546568
0.937209 0.320909 0.548263
0.094091 0.538176 0.547118
0.349911 0.542834 0.550040
0.578425 0.547063 0.552764
0.796077 0.551151 0.555459
0.949107 0.554105 0.557375
0.107714 0.762105 0.555712
0.364435 0.767009 0.559026
0.593754 0.771458 0.562100
0.812172 0.775755 0.565128
0.960576 0.778786 0.567216
0.121760 0.956999 0.564027
0.379236 0.961052 0.567637
0.609224 0.964673 0.570973
0.828276 0.968122 0.574246
0.970359 0.970359 0.576412
0.073882 0.052662 0.744452
0.327823 0.056807 0.746558
0.554661 0.060578 0.748554
0.770719 0.064231 0.750556
0.925346 0.066897 0.751987
0.083609 0.307056 0.751736
0.338581 0.311482 0.754290
0.566340 0.315505 0.756686
0.783272 0.319397 0.759068
0.938367 0.322242 0.760787
0.095358 0.539500 0.759626
0.351269 0.544182 0.762588
0.579865 0.548433 0.765347
0.797595 0.552543 0.768076
0.950269 0.555507 0.770011
0.109238 0.763499 0.768332
0.366051 0.768428 0.771686
0.595452 0.772899 0.774796
0.813948 0.777217 0.777857
0.961742 0.780255 0.779960
0.123501 0.958158 0.776732
0.381067 0.962212 0.780381
0.611136 0.965834 0.783751
0.830264 0.969285 0.787057
0.971509 0.971509 0.789234
0.074430 0.053597 0.912829
0.328460 0.057774 0.916839
0.555377 0.061573 0.920425
0.771509 0.065251 0.923842
0.926293 0.067938 0.926293
0.084442 0.308091 0.925785
0.339500 0.312546 0.929824
0.567335 0.316594 0.933436
0.784341 0.320510 0.936879
0.939341 0.323371 0.939341
0.096442 0.540618 0.937665
0.352438 0.545328 0.941731
0.581109 0.549603 0.945366
0.798910 0.553735 0.948832
0.951260 0.556709 0.951260
0.110560 0.764693 0.949151
0.367455 0.769647 0.953243
0.596929 0.774140 0.956901
0.815494 0.778479 0.960389
0.962744 0.781522 0.962744
0.125017 0.959152 0.959152
0.382662 0.963210 0.963210
0.612802 0.966835 0.966835
0.831997 0.970287 0.970287
0.972500 0.972500 0.972500
