assets/luts/Soft Romance.cube
# StudioPhoto — LUT d'exemple : Soft Romance
TITLE "Soft Romance"
LUT_3D_SIZE 33
0.071755 0.048999 0.075331
0.107391 0.049566 0.075601
0.140961 0.050101 0.075858
0.173321 0.050618 0.076107
0.204829 0.051122 0.076353
0.235685 0.051618 0.076595
0.266013 0.052106 0.076835
0.295899 0.052588 0.077074
0.325407 0.053065 0.077311
0.354584 0.053538 0.077548
0.383468 0.054007 0.077784
0.412088 0.054473 0.078019
0.440471 0.054936 0.078254
0.468635 0.055397 0.078489
0.496600 0.055855 0.078725
0.524380 0.056312 0.078960
0.551988 0.056766 0.079195
0.579436 0.057219 0.079431
0.606733 0.057670 0.079667
0.633889 0.058120 0.079903
0.660911 0.058569 0.080140
0.687807 0.059016 0.080377
0.714584 0.059462 0.080614
0.741246 0.059908 0.080852
0.767801 0.060352 0.081091
0.794251 0.060796 0.081330
0.820603 0.061239 0.081569
0.846860 0.061681 0.081810
0.873026 0.062122 0.082050
0.899104 0.062563 0.082292
0.921710 0.062950 0.082481
0.921710 0.062959 0.082432
0.921710 0.062959 0.082432
0.072772 0.084064 0.076196
0.108429 0.084636 0.076474
0.142018 0.085176 0.076739
0.174395 0.085698 0.076997
0.205922 0.086207 0.077250
0.236795 0.086708 0.077500
0.267140 0.087200 0.077747
0.297043 0.087687 0.077993
0.326567 0.088169 0.078238
0.355761 0.088646 0.078481
0.384661 0.089120 0.078724
0.413297 0.089590 0.078967
0.441696 0.090058 0.079209
0.469876 0.090523 0.079451
0.497857 0.090985 0.079693
0.525652 0.091446 0.079935
0.553275 0.091905 0.080177
0.580738 0.092362 0.080419
0.608051 0.092817 0.080662
0.635222 0.093271 0.080905
0.662259 0.093724 0.081148
0.689171 0.094175 0.081392
0.715962 0.094626 0.081636
0.742640 0.095075 0.081880
0.769209 0.095524 0.082125
0.795674 0.095971 0.082371
0.822041 0.096418 0.082617
0.848312 0.096864 0.082863
0.874493 0.097310 0.083110
0.900586 0.097754 0.083358
0.923505 0.098150 0.083558
0.923505 0.098160 0.083511
0.923505 0.098160 0.083511
0.073797 0.117350 0.077041
0.109472 0.117927 0.077328
0.143079 0.118472 0.077601
0.175474 0.118999 0.077866
0.207017 0.119513 0.078127
0.237907 0.120018 0.078384
0.268268 0.120515 0.078638
0.298187 0.121006 0.078891
0.327727 0.121492 0.079142
0.356936 0.121974 0.079393
0.385851 0.122451 0.079642
0.414503 0.122926 0.079892
0.442916 0.123398 0.080140
0.471112 0.123867 0.080389
0.499107 0.124333 0.080637
0.526918 0.124798 0.080886
0.554556 0.125261 0.081134
0.582033 0.125722 0.081383
0.609360 0.126181 0.081632
0.636546 0.126639 0.081881
0.663598 0.127096 0.082130
0.690523 0.127551 0.082380
0.717329 0.128005 0.082630
0.744021 0.128459 0.082881
0.770604 0.128911 0.083132
0.797083 0.129362 0.083384
0.823464 0.129813 0.083636
0.849749 0.130263 0.083889
0.875944 0.130712 0.084142
0.902051 0.131161 0.084396
0.925208 0.131564 0.084605
0.925208 0.131575 0.084560
0.925208 0.131575 0.084560
0.074844 0.149632 0.077885
0.110538 0.150214 0.078180
0.144162 0.150764 0.078460
0.176574 0.151295 0.078733
0.208133 0.151813 0.079000
0.239039 0.152322 0.079264
0.269416 0.152824 0.079526
0.299350 0.153319 0.079785
0.328905 0.153809 0.080043
0.358129 0.154295 0.080300
0.387060 0.154777 0.080556
0.415726 0.155256 0.080812
0.444154 0.155731 0.081067
0.472364 0.156204 0.081322
0.500374 0.156675 0.081576
0.528199 0.157143 0.081831
0.555851 0.157610 0.082086
0.583343 0.158075 0.082341
0.610684 0.158538 0.082596
0.637883 0.159000 0.082851
0.664949 0.159460 0.083106
0.691889 0.159920 0.083362
0.718708 0.160378 0.083618
0.745414 0.160835 0.083875
0.772011 0.161291 0.084132
0.798504 0.161746 0.084390
0.824898 0.162200 0.084648
0.851197 0.162654 0.084906
0.877405 0.163107 0.085165
0.903525 0.163559 0.085425
0.926860 0.163968 0.085643
0.926861 0.163980 0.085599
0.926861 0.163980 0.085599
0.075921 0.181217 0.078733
0.111632 0.181804 0.079036
0.145274 0.182358 0.079323
0.177702 0.182893 0.079603
0.209277 0.183416 0.079877
0.240198 0.183930 0.080148
0.270590 0.184435 0.080416
0.300540 0.184935 0.080682
0.330110 0.185429 0.080947
0.359349 0.185919 0.081210
0.388294 0.186405 0.081472
0.416975 0.186887 0.081734
0.445417 0.187367 0.081996
0.473641 0.187844 0.082257
0.501665 0.188318 0.082517
0.529504 0.188791 0.082778
0.557170 0.189261 0.083039
0.584676 0.189730 0.083300
0.612031 0.190197 0.083561
0.639244 0.190662 0.083822
0.666323 0.191126 0.084083
0.693276 0.191589 0.084345
0.720109 0.192051 0.084607
0.746828 0.192512 0.084870
0.773438 0.192971 0.085132
0.799945 0.193430 0.085396
0.826352 0.193888 0.085660
0.852664 0.194345 0.085924
0.878886 0.194802 0.086189
0.905019 0.195258 0.086454
0.928477 0.195672 0.086679
0.928477 0.195685 0.086637
0.928477 0.195685 0.086637
0.077029 0.212271 0.079588
0.112758 0.212862 0.079898
0.146416 0.213421 0.080193
0.178860 0.213961 0.080480
0.210451 0.214488 0.080761
0.241387 0.215006 0.081038
0.271794 0.215516 0.081313
0.301759 0.216019 0.081585
0.331344 0.216517 0.081856
0.360597 0.217011 0.082126
0.389556 0.217501 0.082395
0.418252 0.217987 0.082663
0.446708 0.218471 0.082930
0.474946 0.218952 0.083197
0.502984 0.219430 0.083464
0.530836 0.219906 0.083731
0.558516 0.220380 0.083997
0.586035 0.220852 0.084264
0.613404 0.221323 0.084531
0.640630 0.221792 0.084798
0.667723 0.222260 0.085065
0.694690 0.222727 0.085333
0.721536 0.223192 0.085601
0.748268 0.223656 0.085869
0.774891 0.224120 0.086137
0.801411 0.224582 0.086406
0.827831 0.225044 0.086676
0.854157 0.225504 0.086946
0.880391 0.225964 0.087216
0.906537 0.226424 0.087487
0.930066 0.226843 0.087719
0.930067 0.226857 0.087679
0.930067 0.226857 0.087679
0.078169 0.242898 0.080452
0.113916 0.243495 0.080770
0.147590 0.244058 0.081072
0.180051 0.244602 0.081365
0.211657 0.245134 0.081653
0.242608 0.245655 0.081937
0.273030 0.246169 0.082218
0.303009 0.246677 0.082497
0.332609 0.247179 0.082774
0.361876 0.247677 0.083050
0.390849 0.248170 0.083325
0.419559 0.248660 0.083599
0.448029 0.249148 0.083872
0.476281 0.249632 0.084145
0.504333 0.250114 0.084418
0.532198 0.250594 0.084691
0.559892 0.251072 0.084963
0.587425 0.251548 0.085236
0.614806 0.252022 0.085509
0.642046 0.252495 0.085781
0.669152 0.252966 0.086054
0.696132 0.253436 0.086328
0.722991 0.253905 0.086601
0.749736 0.254373 0.086875
0.776373 0.254840 0.087149
0.802905 0.255306 0.087424
0.829338 0.255771 0.087699
0.855676 0.256235 0.087974
0.881923 0.256699 0.088250
0.908082 0.257162 0.088527
0.931634 0.257584 0.088764
0.931634 0.257599 0.088726
0.931634 0.257599 0.088726
0.079344 0.273171 0.081326
0.115108 0.273772 0.081651
0.148798 0.274339 0.081960
0.181274 0.274888 0.082261
0.212896 0.275424 0.082555
0.243862 0.275949 0.082846
0.274299 0.276467 0.083133
0.304292 0.276979 0.083418
0.333906 0.277485 0.083701
0.363187 0.277986 0.083983
0.392175 0.278484 0.084264
0.420898 0.278978 0.084544
0.449382 0.279469 0.084824
0.477647 0.279957 0.085103
0.505712 0.280442 0.085382
0.533592 0.280926 0.085660
0.561298 0.281407 0.085938
0.588844 0.281887 0.086217
0.616239 0.282365 0.086495
0.643492 0.282841 0.086773
0.670611 0.283316 0.087052
0.697604 0.283790 0.087331
0.724476 0.284262 0.087610
0.751234 0.284734 0.087890
0.777883 0.285204 0.088169
0.804429 0.285674 0.088450
0.830874 0.286142 0.088730
0.857225 0.286610 0.089011
0.883484 0.287077 0.089293
0.909656 0.287543 0.089575
0.933183 0.287968 0.089817
0.933184 0.287984 0.089780
0.933184 0.287984 0.089780
0.080552 0.303139 0.082211
0.116333 0.303745 0.082544
0.150040 0.304317 0.082860
0.182531 0.304870 0.083167
0.214168 0.305410 0.083468
0.245149 0.305939 0.083765
0.275600 0.306461 0.084058
0.305608 0.306976 0.084350
0.335235 0.307486 0.084639
0.364531 0.307992 0.084927
0.393532 0.308493 0.085214
0.422269 0.308991 0.085500
0.450766 0.309485 0.085786
0.479046 0.309977 0.086070
0.507124 0.310467 0.086355
0.535016 0.310954 0.086639
0.562736 0.311439 0.086923
0.590295 0.311922 0.087207
0.617703 0.312403 0.087491
0.644969 0.312883 0.087775
0.672101 0.313362 0.088060
0.699107 0.313839 0.088344
0.725992 0.314315 0.088629
0.752762 0.314790 0.088914
0.779424 0.315264 0.089199
0.805982 0.315737 0.089485
0.832441 0.316208 0.089771
0.858804 0.316680 0.090057
0.885076 0.317150 0.090344
0.911260 0.317620 0.090631
0.934717 0.318047 0.090878
0.934718 0.318064 0.090842
0.934718 0.318064 0.090842
0.081795 0.332843 0.083107
0.117593 0.333454 0.083448
0.151315 0.334030 0.083771
0.183822 0.334587 0.084084
0.215474 0.335131 0.084392
0.246469 0.335665 0.084695
0.276935 0.336190 0.084995
0.306957 0.336710 0.085292
0.336598 0.337223 0.085588
0.365908 0.337732 0.085882
0.394922 0.338237 0.086175
0.423673 0.338739 0.086467
0.452184 0.339237 0.086758
0.480476 0.339733 0.087049
0.508568 0.340226 0.087339
0.536474 0.340716 0.087629
0.564207 0.341205 0.087919
0.591779 0.341692 0.088208
0.619199 0.342177 0.088498
0.646478 0.342660 0.088788
0.673623 0.343142 0.089078
0.700641 0.343623 0.089367
0.727539 0.344102 0.089658
0.754322 0.344581 0.089948
0.780997 0.345058 0.090239
0.807567 0.345534 0.090530
0.834038 0.346009 0.090821
0.860414 0.346484 0.091113
0.886698 0.346958 0.091406
0.912894 0.347431 0.091698
0.936238 0.347859 0.091948
0.936239 0.347877 0.091914
0.936239 0.347877 0.091914
0.083072 0.362314 0.084016
0.118887 0.362929 0.084364
0.152625 0.363510 0.084693
0.185147 0.364071 0.085014
0.216813 0.364619 0.085328
0.247823 0.365156 0.085637
0.278303 0.365686 0.085943
0.308339 0.366209 0.086247
0.337995 0.366726 0.086548
0.367318 0.367239 0.086848
0.396346 0.367748 0.087147
0.425110 0.368253 0.087445
0.453634 0.368755 0.087742
0.481940 0.369254 0.088038
0.510045 0.369751 0.088334
0.537963 0.370245 0.088630
0.565709 0.370737 0.088925
0.593294 0.371227 0.089221
0.620728 0.371716 0.089516
0.648019 0.372203 0.089811
0.675177 0.372688 0.090106
0.702208 0.373172 0.090402
0.729118 0.373655 0.090697
0.755914 0.374137 0.090993
0.782601 0.374618 0.091290
0.809183 0.375097 0.091586
0.835667 0.375576 0.091883
0.862055 0.376054 0.092180
0.888351 0.376531 0.092478
0.914560 0.377007 0.092776
0.937747 0.377437 0.093028
0.937747 0.377455 0.092995
0.937747 0.377455 0.092995
0.084383 0.391575 0.084937
0.120215 0.392195 0.085292
0.153968 0.392780 0.085628
0.186505 0.393345 0.085955
0.218187 0.393897 0.086276
0.249211 0.394438 0.086591
0.279705 0.394972 0.086904
0.309755 0.395499 0.087213
0.339424 0.396020 0.087521
0.368761 0.396536 0.087827
0.397803 0.397049 0.088131
0.426580 0.397558 0.088435
0.455118 0.398063 0.088738
0.483436 0.398566 0.089040
0.511554 0.399066 0.089341
0.539486 0.399564 0.089643
0.567245 0.400060 0.089944
0.594842 0.400553 0.090244
0.622289 0.401045 0.090545
0.649593 0.401536 0.090846
0.676763 0.402025 0.091147
0.703806 0.402512 0.091448
0.730729 0.402998 0.091749
0.757537 0.403483 0.092050
0.784236 0.403967 0.092351
0.810832 0.404450 0.092653
0.837327 0.404933 0.092955
0.863727 0.405414 0.093258
0.890036 0.405894 0.093561
0.916257 0.406374 0.093864
0.939245 0.406803 0.094118
0.939246 0.406823 0.094087
0.939246 0.406823 0.094087
0.085729 0.420648 0.085870
0.121577 0.421272 0.086232
0.155346 0.421861 0.086576
0.187898 0.422430 0.086909
0.219594 0.422986 0.087236
0.250633 0.423532 0.087558
0.281141 0.424069 0.087876
0.311205 0.424600 0.088192
0.340888 0.425125 0.088505
0.370238 0.425645 0.088817
0.399293 0.426161 0.089128
0.428083 0.426673 0.089437
0.456634 0.427182 0.089745
0.484966 0.427689 0.090053
0.513097 0.428192 0.090360
0.541041 0.428694 0.090667
0.568813 0.429193 0.090974
0.596423 0.429690 0.091280
0.623882 0.430185 0.091586
0.651199 0.430679 0.091892
0.678382 0.431172 0.092199
0.705437 0.431662 0.092505
0.732372 0.432152 0.092811
0.759193 0.432641 0.093118
0.785904 0.433128 0.093425
0.812512 0.433614 0.093732
0.839020 0.434100 0.094039
0.865432 0.434584 0.094347
0.891753 0.435068 0.094655
0.917985 0.435551 0.094964
0.940733 0.435980 0.095219
0.940734 0.436000 0.095190
0.940734 0.436000 0.095190
0.087109 0.449548 0.086816
0.122973 0.450177 0.087185
0.156758 0.450770 0.087536
0.189325 0.451344 0.087875
0.221035 0.451903 0.088208
0.252088 0.452453 0.088537
0.282610 0.452994 0.088861
0.312688 0.453528 0.089183
0.342385 0.454057 0.089502
0.371748 0.454581 0.089820
0.400817 0.455101 0.090136
0.429620 0.455617 0.090451
0.458184 0.456129 0.090765
0.486529 0.456639 0.091079
0.514672 0.457146 0.091391
0.542630 0.457651 0.091704
0.570414 0.458154 0.092016
0.598037 0.458654 0.092328
0.625509 0.459153 0.092639
0.652838 0.459650 0.092951
0.680033 0.460146 0.093263
0.707101 0.460640 0.093574
0.734048 0.461133 0.093886
0.760881 0.461625 0.094198
0.787605 0.462116 0.094510
0.814224 0.462606 0.094823
0.840744 0.463094 0.095135
0.867168 0.463582 0.095448
0.893501 0.464069 0.095762
0.919746 0.464555 0.096075
0.942213 0.464983 0.096331
0.942214 0.465004 0.096303
0.942214 0.465004 0.096303
0.088523 0.478291 0.087775
0.124404 0.478924 0.088152
0.158204 0.479522 0.088508
0.190786 0.480099 0.088855
0.222511 0.480663 0.089194
0.253578 0.481216 0.089528
0.284114 0.481761 0.089859
0.314205 0.482299 0.090186
0.343915 0.482832 0.090512
0.373292 0.483359 0.090835
0.402374 0.483882 0.091157
0.431190 0.484402 0.091478
0.459767 0.484918 0.091798
0.488125 0.485432 0.092117
0.516281 0.485942 0.092435
0.544251 0.486451 0.092753
0.572048 0.486957 0.093070
0.599684 0.487461 0.093388
0.627168 0.487963 0.093705
0.654509 0.488464 0.094022
0.681717 0.488963 0.094339
0.708797 0.489460 0.094656
0.735756 0.489957 0.094973
0.762601 0.490452 0.095290
0.789337 0.490946 0.095608
0.815969 0.491439 0.095925
0.842501 0.491931 0.096243
0.868937 0.492422 0.096561
0.895282 0.492912 0.096880
0.921539 0.493402 0.097199
0.943684 0.493827 0.097455
0.943685 0.493849 0.097428
0.943685 0.493849 0.097428
0.089971 0.506889 0.088747
0.125868 0.507526 0.089130
0.159684 0.508128 0.089494
0.192280 0.508709 0.089847
0.224020 0.509277 0.090192
0.255101 0.509834 0.090533
0.285650 0.510383 0.090869
0.315755 0.510925 0.091203
0.345479 0.511461 0.091534
0.374869 0.511992 0.091863
0.403964 0.512519 0.092191
0.432794 0.513042 0.092517
0.461383 0.513562 0.092842
0.489754 0.514078 0.093167
0.517923 0.514593 0.093491
0.545906 0.515104 0.093814
0.573715 0.515614 0.094137
0.601363 0.516121 0.094460
0.628859 0.516627 0.094782
0.656213 0.517131 0.095105
0.683433 0.517633 0.095427
0.710525 0.518134 0.095749
0.737497 0.518634 0.096072
0.764354 0.519132 0.096394
0.791102 0.519630 0.096717
0.817746 0.520126 0.097040
0.844290 0.520621 0.097363
0.870738 0.521116 0.097686
0.897095 0.521609 0.098010
0.923363 0.522102 0.098334
0.945149 0.522525 0.098589
0.945150 0.522548 0.098564
0.945150 0.522548 0.098564
0.091454 0.535351 0.089732
0.127367 0.535993 0.090122
0.161198 0.536599 0.090493
0.193809 0.537185 0.090852
0.225562 0.537756 0.091203
0.256657 0.538317 0.091550
0.287221 0.538870 0.091892
0.317339 0.539415 0.092232
0.347076 0.539955 0.092569
0.376480 0.540490 0.092903
0.405587 0.541020 0.093237
0.434430 0.541547 0.093569
0.463033 0.542070 0.093900
0.491416 0.542590 0.094230
0.519597 0.543108 0.094559
0.547593 0.543623 0.094888
0.575415 0.544136 0.095217
0.603075 0.544647 0.095545
0.630584 0.545156 0.095873
0.657950 0.545663 0.096200
0.685182 0.546169 0.096528
0.712287 0.546673 0.096855
0.739271 0.547176 0.097183
0.766140 0.547678 0.097511
0.792900 0.548179 0.097839
0.819555 0.548678 0.098167
0.846111 0.549177 0.098495
0.872571 0.549674 0.098824
0.898940 0.550171 0.099153
0.925220 0.550667 0.099482
0.946606 0.551086 0.099736
0.946607 0.551111 0.099712
0.946607 0.551111 0.099712
0.092970 0.563689 0.090730
0.128899 0.564335 0.091127
0.162745 0.564945 0.091504
0.195371 0.565535 0.091870
0.227138 0.566110 0.092227
0.258248 0.566675 0.092580
0.288825 0.567231 0.092928
0.318957 0.567780 0.093274
0.348707 0.568324 0.093616
0.378123 0.568862 0.093957
0.407244 0.569396 0.094296
0.436100 0.569926 0.094634
0.464715 0.570453 0.094970
0.493111 0.570977 0.095306
0.521305 0.571498 0.095641
0.549313 0.572016 0.095975
0.577147 0.572533 0.096309
0.604820 0.573047 0.096642
0.632341 0.573559 0.096975
0.659720 0.574070 0.097308
0.686964 0.574579 0.097641
0.714080 0.575087 0.097974
0.741076 0.575593 0.098307
0.767958 0.576098 0.098640
0.794729 0.576602 0.098973
0.821397 0.577105 0.099306
0.847964 0.577606 0.099640
0.874436 0.578107 0.099973
0.900817 0.578607 0.100307
0.927109 0.579106 0.100642
0.948057 0.579522 0.100893
0.948058 0.579547 0.100871
0.948058 0.579547 0.100871
0.094520 0.591909 0.091741
0.130465 0.592560 0.092145
0.164326 0.593174 0.092529
0.196966 0.593768 0.092900
0.228748 0.594347 0.093264
0.259871 0.594915 0.093623
0.290462 0.595475 0.093977
0.320607 0.596028 0.094328
0.350371 0.596575 0.094677
0.379800 0.597117 0.095023
0.408934 0.597654 0.095368
0.437802 0.598188 0.095711
0.466430 0.598718 0.096053
0.494839 0.599246 0.096394
0.523046 0.599770 0.096735
0.551066 0.600292 0.097074
0.578913 0.600812 0.097413
0.606598 0.601329 0.097752
0.634131 0.601845 0.098091
0.661522 0.602359 0.098429
0.688778 0.602871 0.098767
0.715907 0.603382 0.099105
0.742915 0.603892 0.099443
0.769808 0.604400 0.099782
0.796591 0.604907 0.100120
0.823271 0.605413 0.100458
0.849850 0.605918 0.100797
0.876334 0.606422 0.101136
0.902726 0.606925 0.101475
0.929029 0.607428 0.101814
0.949502 0.607839 0.102063
0.949503 0.607865 0.102042
0.949503 0.607865 0.102042
0.096103 0.620020 0.092766
0.132065 0.620674 0.093177
0.165941 0.621293 0.093567
0.198595 0.621890 0.093944
0.230391 0.622473 0.094315
0.261528 0.623046 0.094679
0.292132 0.623609 0.095039
0.322291 0.624166 0.095396
0.352067 0.624716 0.095750
0.381510 0.625262 0.096102
0.410657 0.625803 0.096453
0.439538 0.626340 0.096801
0.468179 0.626874 0.097149
0.496600 0.627404 0.097496
0.524819 0.627932 0.097841
0.552852 0.628458 0.098186
0.580711 0.628981 0.098531
0.608408 0.629502 0.098875
0.635954 0.630021 0.099219
0.663356 0.630538 0.099562
0.690625 0.631054 0.099906
0.717765 0.631568 0.100249
0.744785 0.632081 0.100592
0.771690 0.632592 0.100936
0.798486 0.633102 0.101279
0.825177 0.633612 0.101623
0.851768 0.634120 0.101966
0.878263 0.634627 0.102310
0.904667 0.635133 0.102654
0.930982 0.635639 0.102999
0.950942 0.636045 0.103245
0.950943 0.636072 0.103225
0.950943 0.636072 0.103225
0.097721 0.648026 0.093803
0.133698 0.648686 0.094221
0.167589 0.649308 0.094617
0.200258 0.649910 0.095002
0.232068 0.650497 0.095378
0.263218 0.651073 0.095748
0.293836 0.651640 0.096114
0.324008 0.652200 0.096477
0.353797 0.652754 0.096837
0.383253 0.653303 0.097195
0.412413 0.653848 0.097550
0.441307 0.654388 0.097905
0.469960 0.654925 0.098258
0.498394 0.655460 0.098610
0.526625 0.655991 0.098961
0.554670 0.656520 0.099311
0.582542 0.657046 0.099661
0.610251 0.657570 0.100011
0.637809 0.658093 0.100360
0.665224 0.658613 0.100709
0.692504 0.659132 0.101057
0.719656 0.659650 0.101406
0.746688 0.660166 0.101754
0.773605 0.660680 0.102103
0.800412 0.661194 0.102451
0.827115 0.661706 0.102800
0.853718 0.662218 0.103149
0.880225 0.662728 0.103497
0.906640 0.663238 0.103847
0.932967 0.663746 0.104196
0.952376 0.664146 0.104438
0.952377 0.664174 0.104420
0.952377 0.664174 0.104420
0.099371 0.675936 0.094854
0.135364 0.676599 0.095279
0.169270 0.677226 0.095681
0.201953 0.677831 0.096072
0.233777 0.678422 0.096454
0.264941 0.679002 0.096831
0.295572 0.679573 0.097203
0.325758 0.680136 0.097571
0.355560 0.680694 0.097937
0.385029 0.681247 0.098300
0.414201 0.681795 0.098661
0.443108 0.682339 0.099021
0.471774 0.682880 0.099380
0.500220 0.683417 0.099737
0.528464 0.683952 0.100093
0.556521 0.684484 0.100449
0.584405 0.685013 0.100804
0.612126 0.685541 0.101159
0.639696 0.686067 0.101513
0.667123 0.686591 0.101867
0.694415 0.687113 0.102221
0.721580 0.687633 0.102575
0.748623 0.688153 0.102929
0.775552 0.688671 0.103282
0.802371 0.689187 0.103636
0.829086 0.689703 0.103990
0.855700 0.690218 0.104343
0.882219 0.690731 0.104697
0.908645 0.691244 0.105052
0.934984 0.691755 0.105406
0.953805 0.692149 0.105644
0.953807 0.692178 0.105627
0.953807 0.692178 0.105627
0.101055 0.703753 0.095918
0.137063 0.704421 0.096349
0.170984 0.705051 0.096759
0.203682 0.705661 0.097155
0.235519 0.706255 0.097544
0.266697 0.706839 0.097926
0.297342 0.707413 0.098304
0.327540 0.707981 0.098678
0.357356 0.708542 0.099049
0.386838 0.709098 0.099418
0.416023 0.709649 0.099785
0.444942 0.710197 0.100150
0.473620 0.710741 0.100514
0.502079 0.711282 0.100877
0.530335 0.711820 0.101239
0.558405 0.712355 0.101600
0.586300 0.712888 0.101960
0.614034 0.713419 0.102320
0.641616 0.713948 0.102680
0.669055 0.714475 0.103039
0.696359 0.715001 0.103398
0.723535 0.715525 0.103757
0.750591 0.716047 0.104116
0.777531 0.716568 0.104474
0.804362 0.717088 0.104833
0.831088 0.717607 0.105192
0.857714 0.718125 0.105551
0.884244 0.718642 0.105910
0.910682 0.719157 0.106269
0.937032 0.719672 0.106628
0.955230 0.720059 0.106861
0.955231 0.720089 0.106846
0.955231 0.720089 0.106846
0.102771 0.731482 0.096995
0.138796 0.732155 0.097433
0.172731 0.732789 0.097849
0.205443 0.733402 0.098252
0.237295 0.734001 0.098646
0.268486 0.734588 0.099034
0.299144 0.735166 0.099418
0.329356 0.735737 0.099798
0.359184 0.736302 0.100175
0.388679 0.736861 0.100549
0.417877 0.737416 0.100922
0.446808 0.737967 0.101292
0.475499 0.738515 0.101662
0.503970 0.739059 0.102030
0.532239 0.739600 0.102397
0.560321 0.740139 0.102764
0.588229 0.740676 0.103129
0.615974 0.741210 0.103495
0.643568 0.741742 0.103859
0.671019 0.742272 0.104224
0.698335 0.742801 0.104588
0.725523 0.743328 0.104952
0.752590 0.743854 0.105316
0.779542 0.744378 0.105680
0.806385 0.744901 0.106043
0.833122 0.745423 0.106407
0.859760 0.745944 0.106771
0.886302 0.746464 0.107135
0.912751 0.746983 0.107499
0.939113 0.747501 0.107864
0.956650 0.747881 0.108091
0.956652 0.747911 0.108077
0.956652 0.747911 0.108077
0.104521 0.759129 0.098085
0.140561 0.759805 0.098530
0.174511 0.760444 0.098952
0.207237 0.761061 0.099361
0.239103 0.761663 0.099762
0.270308 0.762254 0.100156
0.300979 0.762836 0.100545
0.331204 0.763410 0.100931
0.361045 0.763979 0.101313
0.390553 0.764542 0.101693
0.419763 0.765100 0.102071
0.448707 0.765655 0.102448
0.477411 0.766205 0.102822
0.505894 0.766753 0.103196
0.534175 0.767298 0.103568
0.562269 0.767840 0.103940
0.590189 0.768380 0.104311
0.617947 0.768917 0.104682
0.645552 0.769453 0.105052
0.673015 0.769986 0.105421
0.700343 0.770518 0.105790
0.727543 0.771048 0.106160
0.754621 0.771577 0.106529
0.781585 0.772105 0.106897
0.808439 0.772631 0.107266
0.835189 0.773156 0.107635
0.861838 0.773680 0.108004
0.888391 0.774203 0.108373
0.914852 0.774725 0.108742
0.941225 0.775247 0.109111
0.958066 0.775618 0.109332
0.958068 0.775649 0.109320
0.958068 0.775649 0.109320
0.106304 0.786696 0.099189
0.142359 0.787377 0.099641
0.176324 0.788020 0.100069
0.209064 0.788640 0.100484
0.240944 0.789246 0.100891
0.272162 0.789841 0.101291
0.302846 0.790426 0.101686
0.333084 0.791004 0.102077
0.362939 0.791576 0.102465
0.392459 0.792143 0.102851
0.421682 0.792705 0.103234
0.450639 0.793263 0.103616
0.479354 0.793817 0.103996
0.507850 0.794368 0.104375
0.536143 0.794916 0.104753
0.564249 0.795461 0.105130
0.592181 0.796004 0.105506
0.619951 0.796545 0.105882
0.647569 0.797084 0.106257
0.675043 0.797620 0.106632
0.702383 0.798156 0.107006
0.729594 0.798689 0.107380
0.756685 0.799221 0.107754
0.783660 0.799752 0.108128
0.810526 0.800282 0.108502
0.837287 0.800810 0.108876
0.863947 0.801337 0.109250
0.890512 0.801863 0.109624
0.916985 0.802388 0.109998
0.943369 0.802912 0.110372
0.959478 0.803275 0.110586
0.959480 0.803307 0.110575
0.959480 0.803307 0.110575
0.108119 0.814188 0.100305
0.144190 0.814873 0.100764
0.178169 0.815520 0.101199
0.210924 0.816144 0.101620
0.242817 0.816754 0.102033
0.274049 0.817352 0.102439
0.304746 0.817941 0.102839
0.334997 0.818523 0.103236
0.364865 0.819098 0.103630
0.394397 0.819668 0.104021
0.423633 0.820234 0.104410
0.452602 0.820795 0.104797
0.481330 0.821353 0.105182
0.509838 0.821907 0.105567
0.538144 0.822458 0.105950
0.566262 0.823007 0.106332
0.594206 0.823553 0.106714
0.621987 0.824097 0.107094
0.649617 0.824639 0.107475
0.677103 0.825179 0.107855
0.704454 0.825718 0.108234
0.731678 0.826254 0.108613
0.758780 0.826790 0.108992
0.785767 0.827324 0.109371
0.812644 0.827856 0.109750
0.839417 0.828388 0.110129
0.866089 0.828918 0.110508
