assets/luts/Vintage Film.cube
# StudioPhoto — LUT d'exemple : Vintage Film
TITLE "Vintage Film"
LUT_3D_SIZE 9
0.076955 0.076628 0.038188
0.191075 0.080041 0.042966
0.301514 0.083409 0.047543
0.410091 0.086782 0.051996
0.517424 0.090176 0.056354
0.623829 0.093600 0.060630
0.729499 0.097057 0.064834
0.834565 0.100552 0.068972
0.863308 0.101479 0.070098
0.090061 0.196177 0.053763
0.204425 0.199821 0.058386
0.315100 0.203412 0.062812
0.423910 0.207004 0.067117
0.531471 0.210615 0.071329
0.638103 0.214252 0.075460
0.743999 0.217923 0.079521
0.849288 0.221629 0.083515
0.877832 0.222618 0.084581
0.103347 0.311209 0.068177
0.217944 0.315074 0.072651
0.328844 0.318878 0.076933
0.437876 0.322679 0.081097
0.545656 0.326497 0.085168
0.652505 0.330339 0.089161
0.758616 0.334213 0.093084
0.864120 0.338121 0.096942
0.891795 0.339143 0.097924
0.117045 0.424330 0.081813
0.231870 0.428410 0.086142
0.342991 0.432422 0.090283
0.452239 0.436428 0.094308
0.560234 0.440448 0.098243
0.667294 0.444491 0.102101
0.773616 0.448563 0.105889
0.879329 0.452669 0.109614
0.905516 0.453699 0.110489
0.131219 0.536360 0.094802
0.246268 0.540652 0.098987
0.357607 0.544869 0.102989
0.467068 0.549077 0.106878
0.575273 0.553295 0.110679
0.682543 0.557536 0.114403
0.789072 0.561804 0.118059
0.894990 0.566105 0.121652
0.919094 0.567117 0.122398
0.145896 0.647708 0.107210
0.261167 0.652210 0.111254
0.372720 0.656630 0.115119
0.482392 0.661037 0.118874
0.590806 0.665452 0.122541
0.698282 0.669888 0.126134
0.805016 0.674350 0.129659
0.911138 0.678843 0.133122
0.932580 0.679815 0.133717
0.161090 0.758621 0.119083
0.276581 0.763330 0.122985
0.388347 0.767951 0.126715
0.498228 0.772555 0.130337
0.606848 0.777166 0.133872
0.714528 0.781794 0.137334
0.821464 0.786448 0.140730
0.927788 0.791131 0.144065
0.946003 0.792041 0.144487
0.176808 0.869259 0.130448
0.292517 0.874175 0.134212
0.404494 0.878995 0.137807
0.514582 0.883795 0.141296
0.623407 0.888599 0.144701
0.731290 0.893419 0.148034
0.838427 0.898263 0.151301
0.944951 0.903135 0.154508
0.959384 0.903960 0.154736
0.186993 0.936644 0.136872
0.302790 0.941139 0.140468
0.414843 0.945488 0.143893
0.525000 0.949762 0.147207
0.633886 0.953987 0.150433
0.741821 0.958174 0.153580
0.849004 0.962331 0.156657
0.955572 0.966469 0.160069
0.966910 0.966910 0.160510
0.078059 0.077596 0.132294
0.192200 0.081029 0.137059
0.302659 0.084417 0.141622
0.411257 0.087808 0.146063
0.518610 0.091221 0.150408
0.625034 0.094663 0.154672
0.730724 0.098139 0.158863
0.835809 0.101652 0.162989
0.864564 0.102586 0.164110
0.091235 0.197211 0.147825
0.205620 0.200875 0.152434
0.316315 0.204486 0.156847
0.425145 0.208096 0.161139
0.532727 0.211726 0.165338
0.639378 0.215382 0.169457
0.745293 0.219071 0.173505
0.850602 0.222795 0.177487
0.879094 0.223788 0.178546
0.104587 0.312306 0.162196
0.219205 0.316191 0.166656
0.330126 0.320014 0.170925
0.439178 0.323834 0.175076
0.546978 0.327671 0.179135
0.653847 0.331532 0.183116
0.759977 0.335424 0.187026
0.865500 0.339351 0.190872
0.893064 0.340374 0.191845
0.118350 0.425488 0.175791
0.233196 0.429588 0.180105
0.344338 0.433620 0.184233
0.453606 0.437645 0.188246
0.561621 0.441683 0.192169
0.668701 0.445745 0.196014
0.775042 0.449836 0.199790
0.880774 0.453960 0.203502
0.906792 0.454989 0.204366
0.132588 0.537579 0.188738
0.247659 0.541891 0.192910
0.359018 0.546128 0.196899
0.468499 0.550354 0.200775
0.576725 0.554592 0.204563
0.684014 0.558851 0.208275
0.790562 0.563137 0.211919
0.896500 0.567456 0.215499
0.920376 0.568466 0.216232
0.147329 0.648987 0.201106
0.262622 0.653509 0.205136
0.374195 0.657949 0.208988
0.483887 0.662374 0.212730
0.592321 0.666808 0.216385
0.699816 0.671263 0.219965
0.806569 0.675743 0.223478
0.912711 0.680254 0.226929
0.933868 0.681222 0.227508
0.162586 0.759959 0.212938
0.278098 0.764689 0.216828
0.389884 0.769329 0.220544
0.499785 0.773952 0.224153
0.608425 0.778581 0.227676
0.716125 0.783228 0.231126
0.823081 0.787900 0.234509
0.929424 0.792602 0.237831
0.947298 0.793505 0.238235
0.178366 0.870657 0.224264
0.294097 0.875592 0.228015
0.406093 0.880432 0.231597
0.516201 0.885250 0.235073
0.625046 0.890073 0.238465
0.732949 0.894912 0.241786
0.840106 0.899774 0.245040
0.946649 0.904664 0.248235
0.960685 0.905480 0.248443
0.188577 0.937928 0.230641
0.304393 0.942423 0.234221
0.416464 0.946773 0.237630
0.526639 0.951048 0.240930
0.635542 0.955273 0.244141
0.743496 0.959460 0.247274
0.850696 0.963618 0.250336
0.957275 0.967751 0.253332
0.968169 0.968169 0.253347
0.079169 0.078570 0.226396
0.193331 0.082023 0.231147
0.303811 0.085430 0.235698
0.412429 0.088841 0.240125
0.519801 0.092272 0.244458
0.626245 0.095733 0.248709
0.731955 0.099227 0.252888
0.837059 0.102759 0.257001
0.865820 0.103698 0.258119
0.092415 0.198251 0.241882
0.206821 0.201935 0.246478
0.317537 0.205565 0.250878
0.426386 0.209194 0.255158
0.533988 0.212842 0.259344
0.640659 0.216517 0.263450
0.746593 0.220224 0.267486
0.851922 0.223967 0.271456
0.880357 0.224964 0.272508
0.105833 0.313409 0.256211
0.220473 0.317314 0.260658
0.331414 0.321156 0.264914
0.440486 0.324995 0.269052
0.548306 0.328850 0.273098
0.655194 0.332730 0.277066
0.761344 0.336641 0.280964
0.866886 0.340586 0.284798
0.894334 0.341611 0.285762
0.119662 0.426653 0.269764
0.234529 0.430773 0.274066
0.345691 0.434824 0.278180
0.454979 0.438867 0.282180
0.563014 0.442924 0.286090
0.670114 0.447005 0.289923
0.776474 0.451114 0.293686
0.882226 0.455257 0.297386
0.908068 0.456285 0.298239
0.133964 0.538804 0.282671
0.249056 0.543136 0.286829
0.360435 0.547392 0.290805
0.469936 0.551637 0.294669
0.578182 0.555893 0.298444
0.685491 0.560171 0.302143
0.792058 0.564476 0.305774
0.898016 0.568814 0.309343
0.921659 0.569820 0.310061
0.148768 0.650272 0.294999
0.264082 0.654814 0.299015
0.375675 0.659273 0.302854
0.485388 0.663717 0.306583
0.593841 0.668170 0.310225
0.701357 0.672643 0.313793
0.808129 0.677142 0.317293
0.914290 0.681671 0.320732
0.935157 0.682634 0.321295
0.164088 0.761303 0.306791
0.279621 0.766053 0.310666
0.391427 0.770712 0.314370
0.501348 0.775354 0.317966
0.610009 0.780002 0.321476
0.717728 0.784668 0.324913
0.824703 0.789358 0.328284
0.931066 0.794078 0.331594
0.948593 0.794974 0.331980
0.179930 0.872060 0.318077
0.295682 0.877015 0.321813
0.407699 0.881874 0.325382
0.517827 0.886711 0.328846
0.626692 0.891553 0.332226
0.734614 0.896410 0.335533
0.841791 0.901291 0.338776
0.948354 0.906200 0.341958
0.961986 0.907006 0.342145
0.190166 0.939212 0.324405
0.306001 0.943708 0.327969
0.418091 0.948058 0.331364
0.528283 0.952333 0.334648
0.637204 0.956559 0.337844
0.745175 0.960747 0.340963
0.852393 0.964905 0.344010
0.958989 0.969038 0.346991
0.969440 0.969440 0.346984
0.080285 0.079549 0.320494
0.194468 0.083023 0.325232
0.304968 0.086449 0.329769
0.413606 0.089878 0.334184
0.520999 0.093329 0.338504
0.627463 0.096808 0.342743
0.733192 0.100321 0.346910
0.838316 0.103871 0.351010
0.867077 0.104816 0.352123
0.093600 0.199296 0.335936
0.208027 0.203001 0.340518
0.318764 0.206649 0.344905
0.427634 0.210298 0.349172
0.535255 0.213965 0.353346
0.641946 0.217658 0.357440
0.747900 0.221384 0.361462
0.853248 0.225145 0.365420
0.881621 0.226145 0.366465
0.107086 0.314518 0.350222
0.221746 0.318442 0.354656
0.332708 0.322304 0.358898
0.441800 0.326162 0.363024
0.549640 0.330036 0.367058
0.656548 0.333934 0.371013
0.762717 0.337863 0.374898
0.868279 0.341826 0.378720
0.895604 0.342853 0.379674
0.120979 0.427823 0.363734
0.235868 0.431963 0.368022
0.347050 0.436033 0.372124
0.456358 0.440096 0.376111
0.564413 0.444171 0.380008
0.671532 0.448270 0.383828
0.777912 0.452398 0.387579
0.883683 0.456559 0.391266
0.909344 0.457586 0.392107
0.135346 0.540034 0.376600
0.250459 0.544386 0.380744
0.361858 0.548662 0.384707
0.471380 0.552926 0.388558
0.579645 0.557201 0.392321
0.686974 0.561497 0.396007
0.793561 0.565821 0.399626
0.899538 0.570176 0.403182
0.922942 0.571180 0.403887
0.150213 0.651563 0.388887
0.265548 0.656124 0.392889
0.377162 0.660602 0.396716
0.486894 0.665066 0.400432
0.595368 0.669538 0.404062
0.702903 0.674029 0.407617
0.809695 0.678546 0.411104
0.915875 0.683094 0.414530
0.936446 0.684051 0.415078
0.165596 0.762653 0.400639
0.281150 0.767422 0.404501
0.392977 0.772101 0.408192
0.502918 0.776762 0.411774
0.611598 0.781429 0.415272
0.719337 0.786113 0.418697
0.826332 0.790822 0.422055
0.932714 0.795560 0.425353
0.949888 0.796448 0.425720
0.181500 0.873468 0.411885
0.297273 0.878443 0.415608
0.409311 0.883322 0.419164
0.519459 0.888178 0.422615
0.628344 0.893038 0.425982
0.736286 0.897914 0.429277
0.843482 0.902813 0.432507
0.950064 0.907741 0.435677
0.963288 0.908537 0.435844
0.191761 0.940496 0.418165
0.307614 0.944993 0.421714
0.419723 0.949343 0.425093
0.529933 0.953619 0.428362
0.638871 0.957845 0.431543
0.746860 0.962034 0.434647
0.854095 0.966192 0.437680
0.960709 0.970326 0.440646
0.970710 0.970710 0.440617
0.081407 0.080535 0.414589
0.195611 0.084028 0.419313
0.306132 0.087473 0.423837
0.414790 0.090922 0.428240
0.522202 0.094391 0.432547
0.628686 0.097889 0.436773
0.734434 0.101420 0.440927
0.839578 0.104988 0.445015
0.868334 0.105940 0.446123
0.094792 0.200348 0.429986
0.209240 0.204072 0.434555
0.319997 0.207740 0.438928
0.428887 0.211407 0.443183
0.536528 0.215093 0.447344
0.643239 0.218805 0.451425
0.749212 0.222549 0.455435
0.854579 0.226329 0.459381
0.882885 0.227332 0.460419
0.108344 0.315632 0.444230
0.223026 0.319576 0.448650
0.334008 0.323457 0.452879
0.443120 0.327334 0.456992
0.550980 0.331227 0.461013
0.657907 0.335144 0.464956
0.764096 0.339091 0.468829
0.869677 0.343073 0.472638
0.896875 0.344101 0.473583
0.122303 0.428998 0.457700
0.237212 0.433158 0.461974
0.348415 0.437248 0.466063
0.457743 0.441330 0.470037
0.565818 0.445424 0.473922
0.672957 0.449542 0.477729
0.779357 0.453688 0.481468
0.885147 0.457867 0.485143
0.910622 0.458893 0.485972
0.136733 0.541270 0.470524
0.251867 0.545642 0.474655
0.363288 0.549937 0.478605
0.472829 0.554221 0.482444
0.581114 0.558514 0.486193
0.688462 0.562829 0.489868
0.795069 0.567171 0.493474
0.901065 0.571545 0.497017
0.924225 0.572545 0.497708
0.151664 0.652859 0.482771
0.267020 0.657440 0.486760
0.378655 0.661938 0.490574
0.488407 0.666420 0.494277
0.596901 0.670911 0.497894
0.704455 0.675421 0.501436
0.811267 0.679956 0.504912
0.917466 0.684522 0.508325
0.937736 0.685474 0.508856
0.167109 0.764009 0.494483
0.282685 0.768798 0.498332
0.394532 0.773496 0.502009
0.504494 0.778176 0.505579
0.613193 0.782861 0.509065
0.720952 0.787564 0.512477
0.827967 0.792292 0.515823
0.934368 0.797048 0.519107
0.951185 0.797928 0.519457
0.183077 0.874883 0.505690
0.298870 0.879878 0.509399
0.410929 0.884775 0.512942
0.521097 0.889651 0.516380
0.630001 0.894530 0.519735
0.737963 0.899424 0.523017
0.845179 0.904342 0.526234
0.951780 0.909287 0.529392
0.964590 0.910074 0.529538
0.193361 0.941781 0.511921
0.309233 0.946278 0.515453
0.421360 0.950629 0.518817
0.531588 0.954905 0.522072
0.640544 0.959132 0.525238
0.748550 0.963321 0.528327
0.855802 0.967480 0.531345
0.962433 0.971614 0.534297
0.971980 0.971980 0.534244
0.082535 0.081526 0.508679
0.196761 0.085039 0.513390
0.307302 0.088504 0.517902
0.415980 0.091971 0.522291
0.523412 0.095459 0.526585
0.629915 0.098975 0.530799
0.735683 0.102525 0.534941
0.840846 0.106112 0.539016
0.869592 0.107069 0.540120
0.095990 0.201405 0.524032
0.210459 0.205149 0.528587
0.321237 0.208836 0.532948
0.430147 0.212523 0.537189
0.537808 0.216227 0.541338
0.644538 0.219957 0.545407
0.750531 0.223720 0.549404
0.855917 0.227518 0.553337
0.884150 0.228525 0.554368
0.109609 0.316752 0.538233
0.224311 0.320716 0.542640
0.335314 0.324616 0.546856
0.444446 0.328513 0.550956
0.552326 0.332424 0.554965
0.659273 0.336359 0.558895
0.765481 0.340325 0.562755
0.871082 0.344325 0.566552
0.898146 0.345354 0.567487
0.123632 0.430180 0.551662
0.238563 0.434359 0.555923
0.349786 0.438468 0.559998
0.459135 0.442569 0.563960
0.567229 0.446682 0.567832
0.674388 0.450819 0.571627
0.780807 0.454983 0.575353
0.886617 0.459181 0.579015
0.911900 0.460205 0.579832
0.138127 0.542512 0.564445
0.253282 0.546904 0.568563
0.364723 0.551218 0.572500
0.474284 0.555521 0.576325
0.582589 0.559833 0.580062
0.689957 0.564167 0.583724
0.796583 0.568527 0.587318
0.902599 0.572919 0.590849
0.925510 0.573916 0.591526
0.153121 0.654161 0.576652
0.268498 0.658762 0.580627
0.380154 0.663279 0.584428
0.489926 0.667781 0.588118
0.598439 0.672290 0.591722
0.706014 0.676818 0.595252
0.812844 0.681372 0.598715
0.919064 0.685957 0.602117
0.939027 0.686902 0.602631
0.168629 0.765370 0.588323
0.284226 0.770179 0.592159
0.396094 0.774897 0.595823
0.506075 0.779595 0.599380
0.614795 0.784300 0.602853
0.722574 0.789021 0.606252
0.829607 0.793767 0.609586
0.936028 0.798542 0.612858
0.952482 0.799414 0.613189
0.184659 0.876303 0.599490
0.300474 0.881318 0.603186
0.412552 0.886235 0.606716
0.522741 0.891129 0.610141
0.631665 0.896027 0.613483
0.739647 0.900940 0.616753
0.846882 0.905876 0.619958
0.953503 0.910840 0.623103
0.965893 0.911616 0.623229
0.194967 0.943066 0.605672
0.310858 0.947563 0.609188
0.423002 0.951914 0.612537
0.533248 0.956191 0.615776
0.642222 0.960418 0.618928
0.750245 0.964608 0.622002
0.857515 0.968767 0.625005
0.964164 0.972902 0.627943
0.973250 0.973250 0.627867
0.083669 0.082522 0.602766
0.197916 0.086056 0.607464
0.308478 0.089540 0.611962
0.417176 0.093026 0.616338
0.524628 0.096533 0.620620
0.631151 0.100068 0.624821
0.736938 0.103636 0.628950
0.842120 0.107241 0.633014
0.870850 0.108203 0.634112
0.097194 0.202467 0.618075
0.211684 0.206231 0.622616
0.322482 0.209938 0.626964
0.431412 0.213643 0.631192
0.539093 0.217366 0.635328
0.645843 0.221116 0.639384
0.751855 0.224897 0.643370
0.857261 0.228713 0.647290
0.885415 0.229723 0.648313
0.110879 0.317877 0.632233
0.225603 0.321861 0.636626
0.336626 0.325781 0.640829
0.445778 0.329696 0.644916
0.553678 0.333626 0.648912
0.660645 0.337580 0.652830
0.766872 0.341565 0.656678
0.872492 0.345583 0.660462
0.899418 0.346612 0.661387
0.124968 0.431367 0.645620
0.239920 0.435567 0.649867
0.351164 0.439695 0.653930
0.460532 0.443815 0.657879
0.568646 0.447947 0.661738
0.675825 0.452101 0.665520
0.782263 0.456284 0.669234
0.888092 0.460500 0.672884
0.913178 0.461523 0.673689
0.139527 0.543760 0.658363
0.254703 0.548172 0.662467
0.366164 0.552505 0.666390
0.475746 0.556827 0.670203
0.584071 0.561158 0.673928
0.691458 0.565510 0.677577
0.798104 0.569889 0.681158
0.904139 0.574299 0.684677
0.926795 0.575292 0.685339
0.154585 0.655468 0.670528
0.269983 0.660090 0.674491
0.381658 0.664626 0.678278
0.491451 0.669146 0.681955
0.599984 0.673674 0.685547
0.707578 0.678221 0.689064
0.814428 0.682794 0.692515
0.920667 0.687397 0.695904
0.940318 0.688336 0.696402
0.170155 0.766737 0.682160
0.285773 0.771566 0.685982
0.397661 0.776303 0.689633
0.507663 0.781021 0.693178
0.616402 0.785744 0.696638
0.724201 0.790484 0.700024
0.831254 0.795248 0.703345
0.937694 0.800041 0.706606
0.953779 0.800905 0.706918
0.186247 0.877728 0.693287
0.302083 0.882764 0.696970
0.414182 0.887700 0.700487
0.524391 0.892613 0.703899
0.633335 0.897530 0.707228
0.741336 0.902461 0.710485
0.848591 0.907416 0.713678
0.955231 0.912398 0.716810
0.967197 0.913163 0.716915
0.196577 0.944350 0.699418
0.312487 0.948848 0.702919
0.424650 0.953200 0.706252
0.534914 0.957478 0.709477
0.643905 0.961705 0.712613
0.751946 0.965895 0.715672
0.859233 0.970055 0.718661
0.965899 0.974190 0.721585
0.974520 0.974520 0.721485
0.084809 0.083525 0.696849
0.199077 0.087078 0.701533
0.309659 0.090581 0.706018
0.418378 0.094087 0.710382
0.525849 0.097612 0.714651
0.632392 0.101166 0.718840
0.738199 0.104752 0.722956
0.843400 0.108375 0.727007
0.872109 0.109343 0.728100
0.098404 0.203535 0.712113
0.212915 0.207319 0.716641
0.323733 0.211045 0.720976
0.432684 0.214770 0.725191
0.540384 0.218512 0.729314
0.647154 0.222279 0.733358
0.753186 0.226079 0.737331
0.858611 0.229913 0.741239
0.886681 0.230926 0.742255
0.112156 0.319008 0.726229
0.226901 0.323013 0.730608
0.337944 0.326952 0.734799
0.447116 0.330886 0.738873
0.555036 0.334834 0.742856
0.662022 0.338807 0.746761
0.768270 0.342810 0.750597
0.873909 0.346847 0.754368
0.900691 0.347876 0.755284
0.126310 0.432560 0.739574
0.241283 0.436779 0.743808
0.352547 0.440927 0.747858
0.461935 0.445066 0.751794
0.570069 0.449216 0.755640
0.677268 0.453390 0.759410
0.783726 0.457591 0.763111
0.889574 0.461825 0.766749
0.914457 0.462846 0.767541
0.140933 0.545014 0.752276
0.256130 0.549445 0.756366
0.367612 0.553798 0.760277
0.477213 0.558138 0.764077
0.585558 0.562488 0.767789
0.692965 0.566859 0.771425
0.799630 0.571256 0.774994
0.905685 0.575685 0.778501
0.928080 0.576674 0.779148
0.156054 0.656781 0.764401
0.271473 0.661423 0.768350
0.383169 0.665978 0.772124
0.492982 0.670518 0.775789
0.601535 0.675065 0.779368
0.709148 0.679630 0.782873
0.816018 0.684221 0.786311
0.922276 0.688842 0.789687
0.941610 0.689775 0.790168
0.171687 0.768109 0.775993
0.287326 0.772958 0.779801
0.399235 0.777715 0.783440
0.509257 0.782452 0.786971
0.618016 0.787193 0.790418
0.725834 0.791952 0.793793
0.832907 0.796734 0.797101
0.939366 0.801546 0.800349
0.955077 0.802401 0.800642
0.187842 0.879160 0.787080
0.303699 0.884215 0.790749
0.415818 0.889170 0.794253
0.526047 0.894103 0.797652
0.635011 0.899038 0.800969
0.743032 0.903988 0.804214
0.850306 0.908961 0.807394
0.956965 0.913962 0.810514
0.968501 0.914717 0.810597
0.198194 0.945635 0.793160
0.314123 0.950134 0.796645
0.426303 0.954486 0.799963
0.536585 0.958764 0.803172
0.645594 0.962992 0.806294
0.753653 0.967182 0.809339
0.860957 0.971343 0.812313
0.967640 0.975479 0.815222
0.975790 0.975790 0.815099
0.085956 0.084533 0.790928
0.200245 0.088106 0.795599
0.310847 0.091629 0.800071
0.419586 0.095153 0.804421
0.527077 0.098697 0.808678
0.633639 0.102269 0.812854
0.739466 0.105875 0.816958
0.844687 0.109516 0.820997
0.873369 0.110489 0.822084
0.099620 0.204609 0.806148
0.214152 0.208413 0.810662
0.324991 0.212159 0.814984
0.433961 0.215902 0.819187
0.541682 0.219663 0.823297
0.648471 0.223449 0.827328
0.754522 0.227267 0.831289
0.859967 0.231120 0.835184
0.887948 0.232135 0.836192
0.113438 0.320145 0.820221
0.228204 0.324169 0.824587
0.339269 0.328128 0.828764
0.448460 0.332081 0.832826
0.556400 0.336048 0.836796
0.663406 0.340040 0.840689
0.769673 0.344061 0.844512
0.875332 0.348116 0.848271
0.901964 0.349146 0.849176
0.127658 0.433758 0.833525
0.242652 0.437998 0.837745
0.353936 0.442165 0.841781
0.463345 0.446322 0.845704
0.571499 0.450492 0.849538
0.678717 0.454684 0.853296
0.785194 0.458904 0.856984
0.891062 0.463156 0.860610
0.915737 0.464175 0.861390
0.142345 0.546273 0.846185
0.257563 0.550724 0.850262
0.369065 0.555096 0.854160
0.478687 0.559456 0.857947
0.587051 0.563825 0.861646
0.694478 0.568214 0.865270
0.801163 0.572630 0.868827
0.907237 0.577077 0.872321
0.929366 0.578061 0.872953
0.157529 0.658100 0.858270
0.272970 0.662762 0.862206
0.384686 0.667337 0.865966
0.494519 0.671895 0.869619
0.603091 0.676461 0.873185
0.710725 0.681045 0.876677
0.817614 0.685654 0.880103
0.923892 0.690294 0.883467
0.942903 0.691220 0.883931
0.173225 0.769488 0.869822
0.288886 0.774357 0.873617
0.400815 0.779132 0.877242
0.510856 0.783888 0.880761
0.619635 0.788648 0.884195
0.727473 0.793426 0.887557
0.834565 0.798227 0.890853
0.941044 0.803057 0.894088
0.956376 0.803903 0.894362
0.189442 0.880597 0.880869
0.305320 0.885672 0.884525
0.417460 0.890647 0.888016
0.527709 0.895598 0.891402
0.636693 0.900552 0.894706
0.744733 0.905521 0.897938
0.852027 0.910512 0.901106
0.958706 0.915531 0.904214
0.969806 0.916275 0.904276
0.199815 0.946920 0.886897
0.315763 0.951419 0.890367
0.427962 0.955772 0.893669
0.538262 0.960051 0.896864
0.647288 0.964279 0.899970
0.755364 0.968470 0.903000
0.862686 0.972631 0.905960
0.969386 0.976767 0.908854
0.977060 0.977060 0.908708
