assets/luts/Vintage Film.cube
# StudioPhoto — LUT d'exemple : Vintage Film
TITLE "Vintage Film"
LUT_3D_SIZE 5
0.076955 0.076628 0.038188
0.301514 0.083409 0.047543
0.517424 0.090176 0.056354
0.729499 0.097057 0.064834
0.863308 0.101479 0.070098
0.103347 0.311209 0.068177
0.328844 0.318878 0.076933
0.545656 0.326497 0.085168
0.758616 0.334213 0.093084
0.891795 0.339143 0.097924
0.131219 0.536360 0.094802
0.357607 0.544869 0.102989
0.575273 0.553295 0.110679
0.789072 0.561804 0.118059
0.919094 0.567117 0.122398
0.161090 0.758621 0.119083
0.388347 0.767951 0.126715
0.606848 0.777166 0.133872
0.821464 0.786448 0.140730
0.946003 0.792041 0.144487
0.186993 0.936644 0.136872
0.414843 0.945488 0.143893
0.633886 0.953987 0.150433
0.849004 0.962331 0.156657
0.966910 0.966910 0.160510
0.079169 0.078570 0.226396
0.303811 0.085430 0.235698
0.519801 0.092272 0.244458
0.731955 0.099227 0.252888
0.865820 0.103698 0.258119
0.105833 0.313409 0.256211
0.331414 0.321156 0.264914
0.548306 0.328850 0.273098
0.761344 0.336641 0.280964
0.894334 0.341611 0.285762
0.133964 0.538804 0.282671
0.360435 0.547392 0.290805
0.578182 0.555893 0.298444
0.792058 0.564476 0.305774
0.921659 0.569820 0.310061
0.164088 0.761303 0.306791
0.391427 0.770712 0.314370
0.610009 0.780002 0.321476
0.824703 0.789358 0.328284
0.948593 0.794974 0.331980
0.190166 0.939212 0.324405
0.418091 0.948058 0.331364
0.637204 0.956559 0.337844
0.852393 0.964905 0.344010
0.969440 0.969440 0.346984
0.081407 0.080535 0.414589
0.306132 0.087473 0.423837
0.522202 0.094391 0.432547
0.734434 0.101420 0.440927
0.868334 0.105940 0.446123
0.108344 0.315632 0.444230
0.334008 0.323457 0.452879
0.550980 0.331227 0.461013
0.764096 0.339091 0.468829
0.896875 0.344101 0.473583
0.136733 0.541270 0.470524
0.363288 0.549937 0.478605
0.581114 0.558514 0.486193
0.795069 0.567171 0.493474
0.924225 0.572545 0.497708
0.167109 0.764009 0.494483
0.394532 0.773496 0.502009
0.613193 0.782861 0.509065
0.827967 0.792292 0.515823
0.951185 0.797928 0.519457
0.193361 0.941781 0.511921
0.421360 0.950629 0.518817
0.640544 0.959132 0.525238
0.855802 0.967480 0.531345
0.971980 0.971980 0.534244
0.083669 0.082522 0.602766
0.308478 0.089540 0.611962
0.524628 0.096533 0.620620
0.736938 0.103636 0.628950
0.870850 0.108203 0.634112
0.110879 0.317877 0.632233
0.336626 0.325781 0.640829
0.553678 0.333626 0.648912
0.766872 0.341565 0.656678
0.899418 0.346612 0.661387
0.139527 0.543760 0.658363
0.366164 0.552505 0.666390
0.584071 0.561158 0.673928
0.798104 0.569889 0.681158
0.926795 0.575292 0.685339
0.170155 0.766737 0.682160
0.397661 0.776303 0.689633
0.616402 0.785744 0.696638
0.831254 0.795248 0.703345
0.953779 0.800905 0.706918
0.196577 0.944350 0.699418
0.424650 0.953200 0.706252
0.643905 0.961705 0.712613
0.859233 0.970055 0.718661
0.974520 0.974520 0.721485
0.085956 0.084533 0.790928
0.310847 0.091629 0.800071
0.527077 0.098697 0.808678
0.739466 0.105875 0.816958
0.873369 0.110489 0.822084
0.113438 0.320145 0.820221
0.339269 0.328128 0.828764
0.556400 0.336048 0.836796
0.769673 0.344061 0.844512
0.901964 0.349146 0.849176
0.142345 0.546273 0.846185
0.369065 0.555096 0.854160
0.587051 0.563825 0.861646
0.801163 0.572630 0.868827
0.929366 0.578061 0.872953
0.173225 0.769488 0.869822
0.400815 0.779132 0.877242
0.619635 0.788648 0.884195
0.834565 0.798227 0.890853
0.956376 0.803903 0.894362
0.199815 0.946920 0.886897
0.427962 0.955772 0.893669
0.647288 0.964279 0.899970
0.862686 0.972631 0.905960
0.977060 0.977060 0.908708
