assets/luts/Vintage Film.cube
# StudioPhoto — LUT d'exemple : Vintage Film
TITLE "Vintage Film"
LUT_3D_SIZE 33
0.076955 0.076628 0.038188
0.106089 0.077493 0.039412
0.134727 0.078347 0.040613
0.163028 0.079196 0.041796
0.191075 0.080041 0.042966
0.218917 0.080884 0.044124
0.246588 0.081726 0.045272
0.274115 0.082568 0.046412
0.301514 0.083409 0.047543
0.328800 0.084251 0.048666
0.355986 0.085094 0.049782
0.383080 0.085937 0.050892
0.410091 0.086782 0.051996
0.437026 0.087628 0.053094
0.463890 0.088476 0.054186
0.490688 0.089325 0.055272
0.517424 0.090176 0.056354
0.544104 0.091029 0.057430
0.570729 0.091884 0.058502
0.597303 0.092741 0.059568
0.623829 0.093600 0.060630
0.650310 0.094461 0.061688
0.676747 0.095324 0.062741
0.703143 0.096189 0.063790
0.729499 0.097057 0.064834
0.755818 0.097927 0.065875
0.782101 0.098800 0.066911
0.808350 0.099675 0.067944
0.834565 0.100552 0.068972
0.860749 0.101432 0.069997
0.863308 0.101479 0.070098
0.863308 0.101479 0.070098
0.863308 0.101479 0.070098
0.080253 0.107336 0.042247
0.109402 0.108216 0.043461
0.138056 0.109086 0.044652
0.166373 0.109949 0.045825
0.194435 0.110809 0.046985
0.222292 0.111666 0.048134
0.249979 0.112523 0.049272
0.277521 0.113378 0.050402
0.304935 0.114234 0.051523
0.332237 0.115090 0.052637
0.359437 0.115947 0.053744
0.386546 0.116805 0.054844
0.413572 0.117663 0.055938
0.440522 0.118523 0.057027
0.467400 0.119385 0.058109
0.494213 0.120248 0.059187
0.520964 0.121113 0.060259
0.547658 0.121980 0.061326
0.574298 0.122849 0.062388
0.600887 0.123719 0.063445
0.627427 0.124592 0.064498
0.653923 0.125467 0.065546
0.680374 0.126344 0.066590
0.706785 0.127223 0.067629
0.733156 0.128104 0.068665
0.759489 0.128988 0.069696
0.785787 0.129874 0.070723
0.812050 0.130762 0.071746
0.838279 0.131653 0.072766
0.864477 0.132547 0.073781
0.867040 0.132599 0.073878
0.867040 0.132599 0.073878
0.867040 0.132599 0.073878
0.083522 0.137347 0.046175
0.112687 0.138242 0.047379
0.141356 0.139126 0.048560
0.169689 0.140004 0.049724
0.197765 0.140878 0.050874
0.225638 0.141750 0.052013
0.253340 0.142620 0.053142
0.280896 0.143490 0.054262
0.308325 0.144359 0.055374
0.335641 0.145229 0.056479
0.362856 0.146100 0.057576
0.389980 0.146971 0.058667
0.417020 0.147844 0.059752
0.443984 0.148717 0.060831
0.470877 0.149593 0.061905
0.497704 0.150469 0.062973
0.524469 0.151348 0.064036
0.551178 0.152228 0.065094
0.577832 0.153110 0.066146
0.604435 0.153994 0.067195
0.630990 0.154880 0.068238
0.657499 0.155769 0.069278
0.683965 0.156659 0.070312
0.710389 0.157551 0.071343
0.736775 0.158446 0.072369
0.763122 0.159343 0.073392
0.789434 0.160243 0.074410
0.815711 0.161144 0.075424
0.841954 0.162048 0.076434
0.868166 0.162955 0.077441
0.870687 0.163010 0.077533
0.870687 0.163010 0.077533
0.870687 0.163010 0.077533
0.086787 0.166920 0.050008
0.115968 0.167829 0.051202
0.144653 0.168728 0.052374
0.173000 0.169620 0.053528
0.201091 0.170508 0.054669
0.228978 0.171393 0.055798
0.256695 0.172277 0.056918
0.284265 0.173161 0.058028
0.311709 0.174044 0.059131
0.339039 0.174927 0.060226
0.366269 0.175811 0.061315
0.393407 0.176696 0.062397
0.420462 0.177582 0.063473
0.447440 0.178469 0.064543
0.474347 0.179358 0.065607
0.501188 0.180248 0.066666
0.527968 0.181140 0.067720
0.554690 0.182033 0.068769
0.581358 0.182929 0.069813
0.607975 0.183826 0.070852
0.634544 0.184725 0.071887
0.661067 0.185627 0.072917
0.687547 0.186530 0.073943
0.713986 0.187436 0.074965
0.740385 0.188344 0.075982
0.766746 0.189254 0.076996
0.793071 0.190166 0.078005
0.819362 0.191081 0.079010
0.845619 0.191998 0.080012
0.871845 0.192918 0.081010
0.874279 0.192975 0.081095
0.874279 0.192975 0.081095
0.874279 0.192975 0.081095
0.090061 0.196177 0.053763
0.119257 0.197101 0.054948
0.147957 0.198014 0.056109
0.176319 0.198920 0.057254
0.204425 0.199821 0.058386
0.232327 0.200721 0.059506
0.260057 0.201619 0.060616
0.287642 0.202516 0.061718
0.315100 0.203412 0.062812
0.342445 0.204309 0.063898
0.369689 0.205207 0.064977
0.396841 0.206105 0.066050
0.423910 0.207004 0.067117
0.450901 0.207904 0.068178
0.477823 0.208806 0.069234
0.504678 0.209710 0.070284
0.531471 0.210615 0.071329
0.558208 0.211521 0.072369
0.584890 0.212430 0.073404
0.611520 0.213340 0.074434
0.638103 0.214252 0.075460
0.664640 0.215167 0.076482
0.691134 0.216083 0.077499
0.717586 0.217002 0.078512
0.743999 0.217923 0.079521
0.770374 0.218846 0.080525
0.796713 0.219771 0.081526
0.823017 0.220699 0.082522
0.849288 0.221629 0.083515
0.875528 0.222561 0.084504
0.877832 0.222618 0.084581
0.877832 0.222618 0.084581
0.877832 0.222618 0.084581
0.093351 0.225193 0.057451
0.122562 0.226131 0.058627
0.151276 0.227058 0.059779
0.179652 0.227978 0.060914
0.207773 0.228893 0.062036
0.235689 0.229806 0.063147
0.263434 0.230717 0.064249
0.291034 0.231628 0.065341
0.318505 0.232538 0.066426
0.345864 0.233448 0.067503
0.373122 0.234359 0.068574
0.400288 0.235270 0.069638
0.427371 0.236183 0.070696
0.454377 0.237096 0.071748
0.481312 0.238011 0.072794
0.508181 0.238927 0.073836
0.534988 0.239845 0.074872
0.561738 0.240765 0.075903
0.588434 0.241686 0.076929
0.615078 0.242610 0.077951
0.641675 0.243535 0.078968
0.668225 0.244462 0.079981
0.694732 0.245392 0.080990
0.721198 0.246323 0.081994
0.747625 0.247257 0.082994
0.774013 0.248193 0.083990
0.800366 0.249131 0.084982
0.826684 0.250071 0.085970
0.852968 0.251014 0.086954
0.879221 0.251959 0.087935
0.881355 0.252014 0.088001
0.881355 0.252014 0.088001
0.881355 0.252014 0.088001
0.096659 0.254016 0.061080
0.125885 0.254968 0.062246
0.154614 0.255909 0.063389
0.183005 0.256842 0.064515
0.211141 0.257771 0.065628
0.239071 0.258698 0.066730
0.266830 0.259622 0.067822
0.294443 0.260546 0.068905
0.321929 0.261469 0.069981
0.349302 0.262393 0.071049
0.376574 0.263317 0.072111
0.403754 0.264241 0.073166
0.430850 0.265167 0.074215
0.457870 0.266093 0.075259
0.484819 0.267021 0.076296
0.511701 0.267950 0.077329
0.538522 0.268881 0.078356
0.565286 0.269814 0.079379
0.591995 0.270748 0.080397
0.618654 0.271684 0.081410
0.645264 0.272622 0.082418
0.671828 0.273562 0.083422
0.698348 0.274504 0.084422
0.724828 0.275449 0.085418
0.751267 0.276395 0.086409
0.777669 0.277344 0.087397
0.804035 0.278294 0.088380
0.830367 0.279248 0.089360
0.856665 0.280203 0.090335
0.882931 0.281161 0.091307
0.884854 0.281212 0.091362
0.884854 0.281212 0.091362
0.884854 0.281212 0.091362
0.099991 0.282680 0.064654
0.129232 0.283646 0.065810
0.157975 0.284600 0.066944
0.186380 0.285547 0.068061
0.214530 0.286490 0.069165
0.242474 0.287429 0.070257
0.270248 0.288367 0.071341
0.297875 0.289304 0.072415
0.325375 0.290241 0.073482
0.352762 0.291177 0.074541
0.380047 0.292114 0.075594
0.407241 0.293052 0.076641
0.434351 0.293990 0.077681
0.461384 0.294930 0.078716
0.488347 0.295871 0.079745
0.515243 0.296813 0.080769
0.542078 0.297756 0.081787
0.568855 0.298702 0.082801
0.595578 0.299649 0.083810
0.622249 0.300598 0.084815
0.648873 0.301548 0.085815
0.675450 0.302501 0.086810
0.701985 0.303456 0.087802
0.728477 0.304413 0.088789
0.754930 0.305372 0.089772
0.781346 0.306333 0.090750
0.807725 0.307297 0.091725
0.834070 0.308262 0.092696
0.860381 0.309230 0.093663
0.886661 0.310200 0.094627
0.888333 0.310246 0.094668
0.888333 0.310246 0.094668
0.888333 0.310246 0.094668
0.103347 0.311209 0.068177
0.132602 0.312190 0.069324
0.161360 0.313157 0.070448
0.189780 0.314118 0.071556
0.217944 0.315074 0.072651
0.245902 0.316027 0.073735
0.273690 0.316978 0.074809
0.301331 0.317928 0.075875
0.328844 0.318878 0.076933
0.356245 0.319828 0.077983
0.383544 0.320777 0.079027
0.410752 0.321728 0.080065
0.437876 0.322679 0.081097
0.464922 0.323632 0.082122
0.491898 0.324585 0.083143
0.518808 0.325540 0.084158
0.545656 0.326497 0.085168
0.572447 0.327455 0.086174
0.599183 0.328414 0.087174
0.625868 0.329376 0.088170
0.652505 0.330339 0.089161
0.679096 0.331305 0.090148
0.705643 0.332272 0.091131
0.732149 0.333241 0.092110
0.758616 0.334213 0.093084
0.785045 0.335187 0.094055
0.811437 0.336163 0.095021
0.837795 0.337141 0.095984
0.864120 0.338121 0.096942
0.890412 0.339104 0.097897
0.891795 0.339143 0.097924
0.891795 0.339143 0.097924
0.891795 0.339143 0.097924
0.106729 0.339625 0.071652
0.135999 0.340619 0.072790
0.164772 0.341601 0.073905
0.193206 0.342575 0.075004
0.221383 0.343544 0.076089
0.249356 0.344510 0.077164
0.277157 0.345475 0.078230
0.304812 0.346438 0.079287
0.332340 0.347400 0.080336
0.359754 0.348363 0.081378
0.387067 0.349326 0.082413
0.414288 0.350289 0.083442
0.441425 0.351253 0.084465
0.468486 0.352218 0.085482
0.495475 0.353185 0.086494
0.522398 0.354152 0.087501
0.549260 0.355121 0.088502
0.576064 0.356092 0.089499
0.602814 0.357064 0.090491
0.629512 0.358039 0.091478
0.656162 0.359015 0.092461
0.682766 0.359993 0.093440
0.709327 0.360972 0.094414
0.735846 0.361954 0.095384
0.762326 0.362938 0.096350
0.788768 0.363925 0.097312
0.815174 0.364913 0.098270
0.841545 0.365904 0.099224
0.867882 0.366897 0.100175
0.894188 0.367892 0.101121
0.895243 0.367923 0.101132
0.895243 0.367923 0.101132
0.895243 0.367923 0.101132
0.110139 0.367942 0.075082
0.139424 0.368950 0.076210
0.168211 0.369945 0.077316
0.196659 0.370933 0.078406
0.224850 0.371915 0.079483
0.252837 0.372895 0.080549
0.280652 0.373872 0.081605
0.308321 0.374848 0.082653
0.335862 0.375824 0.083694
0.363290 0.376799 0.084727
0.390616 0.377775 0.085754
0.417851 0.378751 0.086774
0.445002 0.379728 0.087788
0.472076 0.380706 0.088797
0.499078 0.381685 0.089800
0.526015 0.382665 0.090798
0.552890 0.383647 0.091791
0.579707 0.384630 0.092780
0.606470 0.385615 0.093763
0.633182 0.386602 0.094742
0.659845 0.387590 0.095717
0.686463 0.388581 0.096687
0.713037 0.389573 0.097652
0.739569 0.390567 0.098614
0.766062 0.391564 0.099572
0.792517 0.392562 0.100525
0.818936 0.393563 0.101475
0.845320 0.394566 0.102421
0.871671 0.395571 0.103363
0.897990 0.396579 0.104301
0.898678 0.396600 0.104294
0.898678 0.396600 0.104294
0.898678 0.396600 0.104294
0.113577 0.396174 0.078469
0.142877 0.397195 0.079588
0.171678 0.398204 0.080684
0.200140 0.399204 0.081765
0.228346 0.400200 0.082833
0.256346 0.401193 0.083890
0.284175 0.402183 0.084938
0.311857 0.403172 0.085977
0.339412 0.404161 0.087009
0.366853 0.405149 0.088033
0.394193 0.406137 0.089051
0.421442 0.407126 0.090063
0.448606 0.408116 0.091069
0.475693 0.409106 0.092069
0.502709 0.410098 0.093064
0.529659 0.411091 0.094053
0.556548 0.412085 0.095038
0.583378 0.413081 0.096018
0.610154 0.414079 0.096993
0.636879 0.415078 0.097963
0.663556 0.416079 0.098929
0.690187 0.417082 0.099891
0.716773 0.418086 0.100848
0.743319 0.419093 0.101802
0.769825 0.420102 0.102751
0.796293 0.421113 0.103696
0.822725 0.422126 0.104638
0.849122 0.423141 0.105575
0.875486 0.424159 0.106509
0.901818 0.425179 0.107439
0.902102 0.425189 0.107413
0.902102 0.425189 0.107413
0.902102 0.425189 0.107413
0.117045 0.424330 0.081813
0.146359 0.425365 0.082923
0.175174 0.426387 0.084011
0.203650 0.427401 0.085082
0.231870 0.428410 0.086142
0.259884 0.429415 0.087190
0.287726 0.430419 0.088229
0.315423 0.431421 0.089260
0.342991 0.432422 0.090283
0.370446 0.433423 0.091298
0.397799 0.434424 0.092308
0.425061 0.435426 0.093311
0.452239 0.436428 0.094308
0.479339 0.437431 0.095300
0.506369 0.438435 0.096286
0.533332 0.439441 0.097267
0.560234 0.440448 0.098243
0.587077 0.441456 0.099215
0.613867 0.442466 0.100181
0.640605 0.443477 0.101143
0.667294 0.444491 0.102101
0.693938 0.445506 0.103054
0.720538 0.446523 0.104003
0.747097 0.447542 0.104948
0.773616 0.448563 0.105889
0.800097 0.449587 0.106826
0.826542 0.450612 0.107759
0.852952 0.451640 0.108689
0.879329 0.452669 0.109614
0.905516 0.453695 0.110530
0.905516 0.453699 0.110489
0.905516 0.453699 0.110489
0.905516 0.453699 0.110489
0.120542 0.452419 0.085118
0.149870 0.453468 0.086218
0.178700 0.454503 0.087297
0.207190 0.455531 0.088360
0.235424 0.456553 0.089410
0.263451 0.457571 0.090450
0.291308 0.458588 0.091480
0.319018 0.459602 0.092502
0.346599 0.460617 0.093516
0.374068 0.461630 0.094524
0.401435 0.462644 0.095524
0.428710 0.463658 0.096519
0.455901 0.464673 0.097508
0.483015 0.465689 0.098491
0.510058 0.466706 0.099469
0.537034 0.467723 0.100441
0.563949 0.468743 0.101409
0.590806 0.469763 0.102372
0.617608 0.470786 0.103330
0.644359 0.471810 0.104284
0.671062 0.472836 0.105233
0.697719 0.473863 0.106178
0.724332 0.474892 0.107119
0.750903 0.475924 0.108056
0.777435 0.476957 0.108988
0.803929 0.477993 0.109917
0.830387 0.479030 0.110842
0.856810 0.480070 0.111763
0.883200 0.481112 0.112680
0.908921 0.482132 0.113569
0.908921 0.482140 0.113525
0.908921 0.482140 0.113525
0.908921 0.482140 0.113525
0.124070 0.480450 0.088383
0.153413 0.481512 0.089475
0.182256 0.482561 0.090544
0.210760 0.483601 0.091598
0.239008 0.484636 0.092640
0.267049 0.485668 0.093671
0.294919 0.486697 0.094692
0.322643 0.487725 0.095705
0.350238 0.488752 0.096711
0.377720 0.489778 0.097710
0.405100 0.490805 0.098702
0.432388 0.491831 0.099688
0.459593 0.492859 0.100668
0.486720 0.493887 0.101643
0.513776 0.494916 0.102612
0.540765 0.495947 0.103577
0.567693 0.496978 0.104536
0.594563 0.498011 0.105491
0.621379 0.499046 0.106441
0.648143 0.500082 0.107386
0.674859 0.501120 0.108327
0.701529 0.502160 0.109264
0.728155 0.503202 0.110196
0.754739 0.504246 0.111125
0.781284 0.505291 0.112049
0.807791 0.506339 0.112969
0.834262 0.507389 0.113886
0.860698 0.508441 0.114799
0.887100 0.509495 0.115708
0.912318 0.510506 0.116568
0.912319 0.510519 0.116521
0.912319 0.510519 0.116521
0.912319 0.510519 0.116521
0.127629 0.508428 0.091611
0.156986 0.509504 0.092693
0.185843 0.510566 0.093754
0.214361 0.511620 0.094799
0.242622 0.512668 0.095832
0.270678 0.513712 0.096854
0.298561 0.514754 0.097867
0.326298 0.515794 0.098871
0.353907 0.516834 0.099868
0.381402 0.517873 0.100859
0.408796 0.518912 0.101842
0.436097 0.519951 0.102820
0.463315 0.520991 0.103792
0.490455 0.522032 0.104758
0.517524 0.523074 0.105719
0.544527 0.524116 0.106675
0.571468 0.525161 0.107626
0.598351 0.526206 0.108572
0.625180 0.527253 0.109513
0.651957 0.528302 0.110451
0.678686 0.529352 0.111383
0.705369 0.530404 0.112312
0.732008 0.531458 0.113236
0.758605 0.532514 0.114156
0.785163 0.533572 0.115072
0.811683 0.534631 0.115985
0.838166 0.535693 0.116893
0.864615 0.536757 0.117797
0.891030 0.537824 0.118698
0.915708 0.538826 0.119529
0.915710 0.538843 0.119478
0.915710 0.538843 0.119478
0.915710 0.538843 0.119478
0.131219 0.536360 0.094802
0.160590 0.537449 0.095875
0.189462 0.538524 0.096926
0.217993 0.539591 0.097963
0.246268 0.540652 0.098987
0.274337 0.541709 0.100000
0.302234 0.542764 0.101004
0.329984 0.543817 0.102000
0.357607 0.544869 0.102989
0.385115 0.545921 0.103971
0.412522 0.546972 0.104946
0.439837 0.548024 0.105915
0.467068 0.549077 0.106878
0.494221 0.550130 0.107836
0.521304 0.551184 0.108789
0.548319 0.552239 0.109736
0.575273 0.553295 0.110679
0.602170 0.554353 0.111617
0.629011 0.555412 0.112550
0.655801 0.556473 0.113479
0.682543 0.557536 0.114403
0.709239 0.558600 0.115323
0.735891 0.559666 0.116239
0.762501 0.560734 0.117151
0.789072 0.561804 0.118059
0.815604 0.562876 0.118963
0.842101 0.563950 0.119864
0.868562 0.565026 0.120760
0.894990 0.566105 0.121652
0.919092 0.567096 0.122452
0.919094 0.567117 0.122398
0.919094 0.567117 0.122398
0.919094 0.567117 0.122398
0.134840 0.564249 0.097956
0.164226 0.565352 0.099020
0.193111 0.566440 0.100063
0.221657 0.567520 0.101090
0.249945 0.568594 0.102106
0.278028 0.569664 0.103110
0.305938 0.570732 0.104106
0.333702 0.571797 0.105093
0.361338 0.572862 0.106073
0.388859 0.573926 0.107047
0.416280 0.574991 0.108013
0.443608 0.576055 0.108974
0.470852 0.577120 0.109929
0.498018 0.578185 0.110879
0.525114 0.579252 0.111823
0.552143 0.580319 0.112762
0.579110 0.581388 0.113696
0.606019 0.582458 0.114626
0.632873 0.583529 0.115551
0.659677 0.584602 0.116471
0.686431 0.585677 0.117388
0.713140 0.586754 0.118300
0.739804 0.587832 0.119207
0.766428 0.588912 0.120111
0.793011 0.589994 0.121011
0.819556 0.591078 0.121907
0.846066 0.592164 0.122799
0.872540 0.593253 0.123687
0.898981 0.594343 0.124571
0.922471 0.595322 0.125338
0.922473 0.595348 0.125281
0.922473 0.595348 0.125281
0.922473 0.595348 0.125281
0.138493 0.592101 0.101075
0.167893 0.593217 0.102130
0.196793 0.594319 0.103164
0.225352 0.595412 0.104183
0.253654 0.596498 0.105189
0.281750 0.597581 0.106185
0.309674 0.598662 0.107172
0.337451 0.599740 0.108151
0.365100 0.600818 0.109123
0.392635 0.601894 0.110088
0.420069 0.602971 0.111046
0.447410 0.604048 0.111998
0.474667 0.605125 0.112945
0.501847 0.606203 0.113886
0.528955 0.607282 0.114822
0.555997 0.608361 0.115753
0.582977 0.609442 0.116679
0.609899 0.610525 0.117600
0.636767 0.611608 0.118517
0.663583 0.612694 0.119429
0.690350 0.613780 0.120337
0.717072 0.614869 0.121241
0.743749 0.615960 0.122140
0.770385 0.617052 0.123036
0.796981 0.618146 0.123928
0.823540 0.619242 0.124815
0.850062 0.620340 0.125699
0.876549 0.621441 0.126579
0.903002 0.622543 0.127456
0.925844 0.623508 0.128189
0.925846 0.623538 0.128129
0.925846 0.623538 0.128129
0.925846 0.623538 0.128129
0.142179 0.619920 0.104160
0.171592 0.621049 0.105206
0.200506 0.622164 0.106231
0.229079 0.623270 0.107241
0.257395 0.624369 0.108238
0.285504 0.625465 0.109226
0.313442 0.626558 0.110204
0.341232 0.627649 0.111175
0.368894 0.628739 0.112138
0.396443 0.629828 0.113094
0.423889 0.630917 0.114044
0.451244 0.632007 0.114988
0.478514 0.633096 0.115926
0.505707 0.634186 0.116859
0.532828 0.635277 0.117786
0.559883 0.636369 0.118709
0.586876 0.637463 0.119627
0.613811 0.638557 0.120540
0.640691 0.639653 0.121448
0.667520 0.640750 0.122352
0.694300 0.641850 0.123252
0.721035 0.642950 0.124148
0.747725 0.644053 0.125039
0.774374 0.645157 0.125927
0.800983 0.646263 0.126810
0.827554 0.647371 0.127690
0.854088 0.648482 0.128565
0.880588 0.649594 0.129437
0.907054 0.650708 0.130306
0.929212 0.651658 0.131004
0.929215 0.651693 0.130940
0.929215 0.651693 0.130940
0.929215 0.651693 0.130940
0.145896 0.647708 0.107210
0.175324 0.648851 0.108247
0.204251 0.649979 0.109263
0.232838 0.651097 0.110265
0.261167 0.652210 0.111254
0.289290 0.653318 0.112232
0.317241 0.654424 0.113202
0.345045 0.655528 0.114164
0.372720 0.656630 0.115119
0.400282 0.657732 0.116067
0.427742 0.658834 0.117008
0.455109 0.659935 0.117944
0.482392 0.661037 0.118874
0.509598 0.662139 0.119798
0.536732 0.663243 0.120717
0.563800 0.664347 0.121632
0.590806 0.665452 0.122541
0.617754 0.666559 0.123446
0.644647 0.667667 0.124346
0.671489 0.668777 0.125242
0.698282 0.669888 0.126134
0.725029 0.671001 0.127021
0.751732 0.672115 0.127905
0.778394 0.673232 0.128784
0.805016 0.674350 0.129659
0.831599 0.675470 0.130531
0.858147 0.676592 0.131398
0.884659 0.677716 0.132262
0.911138 0.678843 0.133122
0.932576 0.679776 0.133784
0.932580 0.679815 0.133717
0.932580 0.679815 0.133717
0.932580 0.679815 0.133717
0.149646 0.675470 0.110227
0.179088 0.676626 0.111255
0.208029 0.677767 0.112263
0.236629 0.678898 0.113255
0.264972 0.680024 0.114235
0.293109 0.681145 0.115206
0.321073 0.682263 0.116167
0.348890 0.683379 0.117120
0.376578 0.684494 0.118067
0.404153 0.685609 0.119006
0.431626 0.686722 0.119939
0.459007 0.687836 0.120866
0.486303 0.688951 0.121788
0.513522 0.690065 0.122704
0.540669 0.691181 0.123615
0.567750 0.692297 0.124521
0.594769 0.693415 0.125423
0.621729 0.694534 0.126319
0.648635 0.695654 0.127211
0.675490 0.696776 0.128099
0.702296 0.697899 0.128982
0.729056 0.699024 0.129862
0.755772 0.700150 0.130737
0.782446 0.701279 0.131608
0.809080 0.702409 0.132475
0.835676 0.703541 0.133339
0.862236 0.704675 0.134198
0.888761 0.705811 0.135054
0.915253 0.706949 0.135906
0.935936 0.707865 0.136530
0.935941 0.707909 0.136460
0.935941 0.707909 0.136460
0.935941 0.707909 0.136460
0.153428 0.703208 0.113211
0.182884 0.704377 0.114230
0.211839 0.705531 0.115229
0.240453 0.706675 0.116213
0.268809 0.707813 0.117184
0.296959 0.708947 0.118146
0.324937 0.710078 0.119099
0.352767 0.711207 0.120044
0.380469 0.712334 0.120982
0.408057 0.713461 0.121913
0.435543 0.714587 0.122837
0.462936 0.715713 0.123756
0.490245 0.716840 0.124670
0.517477 0.717967 0.125578
0.544637 0.719095 0.126480
0.571731 0.720223 0.127378
0.598763 0.721353 0.128271
0.625736 0.722484 0.129160
0.652655 0.723616 0.130044
0.679523 0.724750 0.130923
0.706341 0.725885 0.131798
0.733114 0.727022 0.132670
0.759842 0.728161 0.133537
0.786529 0.729301 0.134400
0.813176 0.730443 0.135259
0.839785 0.731587 0.136114
0.866358 0.732733 0.136966
0.892895 0.733881 0.137813
0.919400 0.735031 0.138658
0.939293 0.735928 0.139242
0.939298 0.735975 0.139169
0.939298 0.735975 0.139169
0.939298 0.735975 0.139169
0.157243 0.730924 0.116163
0.186713 0.732107 0.117173
0.215681 0.733273 0.118163
0.244309 0.734430 0.119138
0.272679 0.735581 0.120101
0.300842 0.736728 0.121054
0.328833 0.737871 0.121998
0.356677 0.739012 0.122935
0.384391 0.740152 0.123864
0.411992 0.741291 0.124787
0.439492 0.742430 0.125703
0.466898 0.743568 0.126614
0.494220 0.744707 0.127519
0.521465 0.745846 0.128419
0.548638 0.746986 0.129313
0.575745 0.748127 0.130203
0.602789 0.749269 0.131088
0.629776 0.750412 0.131968
0.656707 0.751556 0.132844
0.683587 0.752702 0.133715
0.710419 0.753850 0.134582
0.737204 0.754998 0.135445
0.763945 0.756149 0.136304
0.790645 0.757301 0.137159
0.817304 0.758455 0.138010
0.843926 0.759611 0.138858
0.870511 0.760769 0.139701
0.897061 0.761929 0.140541
0.923578 0.763091 0.141377
0.942647 0.763967 0.141921
0.942652 0.764019 0.141844
0.942652 0.764019 0.141844
0.942652 0.764019 0.141844
0.161090 0.758621 0.119083
0.190574 0.759817 0.120084
0.219556 0.760997 0.121065
0.248198 0.762167 0.122031
0.276581 0.763330 0.122985
0.304758 0.764489 0.123930
0.332762 0.765645 0.124866
0.360619 0.766799 0.125794
0.388347 0.767951 0.126715
0.415961 0.769103 0.127629
0.443473 0.770253 0.128538
0.470892 0.771404 0.129440
0.498228 0.772555 0.130337
0.525485 0.773707 0.131228
0.552671 0.774859 0.132114
0.579791 0.776012 0.132996
0.606848 0.777166 0.133872
0.633847 0.778321 0.134744
0.660791 0.779477 0.135612
0.687684 0.780635 0.136475
0.714528 0.781794 0.137334
0.741326 0.782955 0.138189
0.768080 0.784118 0.139040
0.794792 0.785282 0.139887
0.821464 0.786448 0.140730
0.848099 0.787616 0.141569
0.874696 0.788786 0.142405
0.901259 0.789957 0.143237
0.927788 0.791131 0.144065
0.945997 0.791984 0.144567
0.946003 0.792041 0.144487
0.946003 0.792041 0.144487
0.946003 0.792041 0.144487
0.164970 0.786301 0.121971
0.194468 0.787510 0.122963
0.223464 0.788703 0.123935
0.252119 0.789886 0.124892
0.280516 0.791062 0.125838
0.308706 0.792234 0.126775
0.336723 0.793402 0.127702
0.364593 0.794568 0.128622
0.392334 0.795733 0.129534
0.419962 0.796897 0.130440
0.447487 0.798060 0.131340
0.474919 0.799223 0.132234
0.502267 0.800386 0.133123
0.529538 0.801550 0.134006
0.556737 0.802714 0.134884
0.583869 0.803879 0.135757
0.610939 0.805045 0.136626
0.637951 0.806212 0.137490
0.664908 0.807381 0.138349
0.691813 0.808550 0.139204
0.718670 0.809722 0.140055
0.745481 0.810894 0.140902
0.772247 0.812069 0.141745
0.798972 0.813245 0.142584
0.825657 0.814423 0.143419
0.852304 0.815603 0.144250
0.878914 0.816784 0.145078
0.905489 0.817968 0.145901
0.932031 0.819154 0.146721
0.949345 0.819983 0.147180
0.949352 0.820044 0.147097
0.949352 0.820044 0.147097
0.949352 0.820044 0.147097
0.168883 0.813966 0.124827
0.198395 0.815189 0.125811
0.227405 0.816394 0.126774
0.256073 0.817590 0.127723
0.284484 0.818779 0.128660
0.312687 0.819963 0.129588
0.340717 0.821144 0.130507
0.368600 0.822323 0.131418
0.396355 0.823500 0.132323
0.423995 0.824676 0.133220
0.451533 0.825851 0.134112
0.478978 0.827026 0.134997
0.506339 0.828202 0.135878
0.533623 0.829378 0.136753
0.560834 0.830554 0.137623
0.587979 0.831731 0.138488
0.615062 0.832909 0.139348
0.642087 0.834088 0.140204
0.669057 0.835269 0.141055
0.695975 0.836450 0.141903
0.722844 0.837634 0.142745
0.749667 0.838818 0.143584
0.776447 0.840005 0.144419
0.803184 0.841193 0.145250
0.829881 0.842382 0.146077
0.856541 0.843574 0.146900
0.883163 0.844768 0.147719
